;FLAVOR:Marlin
;TIME:868
;Filament used: 0.207744m
;Layer height: 0.1
;MINX:115.215
;MINY:117.871
;MINZ:0.3
;MAXX:134.792
;MAXY:137.289
;MAXZ:31.6
;Generated with Cura_SteamEngine 5.0.0
M140 S60
M105
M190 S60
M104 S200
M105
M109 S200
M82 ;absolute extrusion mode
G21 ;metric values
G90 ;absolute positioning
M82 ;set extruder to absolute mode
M107 ;start with the fan off
G28 X0 Y0 ;move X/Y to min endstops
M300 S1318 P266
G28 Z0 ;move Z to min endstops
G0 Z0.2
G92 E0 ;zero the extruded length
G1 X40 E25 F400 ; Extrude 25mm of filament in a 4cm line. Reduce speed (F) if you have a nozzle smaller than 0.4mm!
G92 E0 ;zero the extruded length again
G1 E-1 F500 ; Retract a little
G1 X80 F4000 ; Quickly wipe away from the filament line
M117 ; Printing…
G5
G92 E0
G92 E0
G1 F1500 E-6.5
;LAYER_COUNT:314
;LAYER:0
M107
G0 F3600 X118.114 Y120.528 Z0.3
G0 X115.215 Y127.983
;TYPE:SKIRT
G1 F1500 E0
G1 F1800 X115.216 Y126.985 E0.04979
G1 X115.317 Y126.003 E0.09904
G1 X115.542 Y124.937 E0.1534
G1 X115.846 Y124.004 E0.20235
G1 X116.265 Y123.061 E0.25383
G1 X116.775 Y122.176 E0.30479
G1 X117.38 Y121.341 E0.35624
G1 X118.114 Y120.528 E0.41088
G1 X118.843 Y119.877 E0.45964
G1 X119.713 Y119.25 E0.51315
G1 X120.535 Y118.777 E0.56046
G1 X121.438 Y118.371 E0.60985
G1 X122.19 Y118.128 E0.64928
G1 X122.962 Y117.963 E0.68867
G1 X123.747 Y117.877 E0.72807
G1 X124.537 Y117.871 E0.76748
G1 X124.994 Y117.914 E0.79038
G1 X125.401 Y117.872 E0.81079
G1 X126.191 Y117.872 E0.85021
G1 X126.977 Y117.951 E0.88962
G1 X127.75 Y118.109 E0.92898
G1 X128.504 Y118.345 E0.9684
G1 X129.362 Y118.721 E1.01513
G1 X130.22 Y119.203 E1.06423
G1 X131.058 Y119.794 E1.11539
G1 X131.868 Y120.507 E1.16923
G1 X132.56 Y121.261 E1.22029
G1 X133.162 Y122.072 E1.27068
G1 X133.692 Y122.967 E1.32257
G1 X134.104 Y123.865 E1.37186
G1 X134.443 Y124.864 E1.42449
G1 X134.662 Y125.839 E1.47435
G1 X134.785 Y126.908 E1.52803
G1 X134.792 Y127.966 E1.58082
G1 X134.697 Y128.94 E1.62964
G1 X134.485 Y129.978 E1.6825
G1 X134.176 Y130.949 E1.73333
G1 X133.785 Y131.85 E1.78233
G1 X133.267 Y132.767 E1.83488
G1 X132.704 Y133.561 E1.88344
G1 X132.008 Y134.353 E1.93604
G1 X131.192 Y135.1 E1.99123
G1 X130.376 Y135.697 E2.04168
G1 X129.484 Y136.216 E2.09316
G1 X128.598 Y136.617 E2.14168
G1 X127.64 Y136.939 E2.1921
G1 X126.603 Y137.169 E2.2451
G1 X125.554 Y137.284 E2.29775
G1 X124.529 Y137.289 E2.34888
G1 X123.513 Y137.187 E2.39983
G1 X122.482 Y136.971 E2.45238
G1 X121.507 Y136.656 E2.5035
G1 X120.644 Y136.278 E2.5505
G1 X119.691 Y135.737 E2.60518
G1 X118.883 Y135.155 E2.65486
G1 X118.035 Y134.393 E2.71173
G1 X117.359 Y133.634 E2.76244
G1 X116.801 Y132.865 E2.80984
G1 X116.282 Y131.973 E2.86133
G1 X115.866 Y131.046 E2.91202
G1 X115.546 Y130.077 E2.96293
G1 X115.317 Y128.995 E3.01811
G1 X115.215 Y127.983 E3.06886
G0 F3600 X115.615 Y127.968
G1 F1800 X115.616 Y127.01 E3.11665
G1 X115.712 Y126.068 E3.16389
G1 X115.927 Y125.046 E3.21599
G1 X116.219 Y124.151 E3.26296
G1 X116.619 Y123.246 E3.31233
G1 X117.108 Y122.397 E3.36121
G1 X117.688 Y121.595 E3.41059
G1 X118.392 Y120.816 E3.46297
G1 X119.092 Y120.19 E3.50982
G1 X119.925 Y119.589 E3.56107
G1 X120.714 Y119.135 E3.60648
G1 X121.599 Y118.737 E3.65489
G1 X122.332 Y118.505 E3.69325
G1 X123.085 Y118.349 E3.73162
G1 X123.85 Y118.272 E3.76997
G1 X124.619 Y118.276 E3.80834
G1 X124.954 Y118.311 E3.82514
G1 X125.722 Y118.262 E3.86354
G1 X126.49 Y118.294 E3.90189
G1 X127.251 Y118.405 E3.94026
G1 X127.997 Y118.595 E3.97866
G1 X128.718 Y118.861 E4.017
G1 X129.18 Y119.077 E4.04245
G1 X130.003 Y119.54 E4.08956
G1 X130.808 Y120.106 E4.13865
G1 X131.584 Y120.789 E4.19023
G1 X132.249 Y121.513 E4.23927
G1 X132.827 Y122.29 E4.28759
G1 X133.335 Y123.148 E4.33733
G1 X133.731 Y124.01 E4.38466
G1 X134.056 Y124.968 E4.43513
G1 X134.267 Y125.903 E4.48295
G1 X134.385 Y126.927 E4.53437
G1 X134.392 Y127.942 E4.58501
G1 X134.302 Y128.878 E4.63193
G1 X134.099 Y129.873 E4.68259
G1 X133.804 Y130.804 E4.73131
G1 X133.428 Y131.669 E4.77837
G1 X132.932 Y132.549 E4.82877
G1 X132.392 Y133.311 E4.87536
G1 X131.726 Y134.071 E4.92578
G1 X130.943 Y134.787 E4.97871
G1 X130.16 Y135.36 E5.02712
G1 X129.305 Y135.858 E5.07648
G1 X128.455 Y136.243 E5.12304
G1 X127.537 Y136.553 E5.17138
G1 X126.542 Y136.774 E5.22223
G1 X125.536 Y136.885 E5.27272
G1 X124.553 Y136.889 E5.32176
G1 X123.578 Y136.792 E5.37065
G1 X122.589 Y136.586 E5.42105
G1 X121.654 Y136.284 E5.47007
G1 X120.825 Y135.921 E5.51522
G1 X119.912 Y135.403 E5.56759
G1 X119.136 Y134.845 E5.61527
G1 X118.322 Y134.115 E5.66982
G1 X117.674 Y133.388 E5.71841
G1 X117.138 Y132.649 E5.76395
G1 X116.64 Y131.794 E5.81332
G1 X116.24 Y130.905 E5.86195
G1 X115.933 Y129.976 E5.91077
G1 X115.713 Y128.939 E5.96365
G1 X115.615 Y127.968 E6.01234
G0 F3600 X116.014 Y127.952
G1 F1800 X116.015 Y127.035 E6.05809
G1 X116.107 Y126.132 E6.10338
G1 X116.312 Y125.155 E6.15318
G1 X116.591 Y124.297 E6.19819
G1 X116.974 Y123.431 E6.24543
G1 X117.441 Y122.618 E6.29221
G1 X117.997 Y121.85 E6.33951
G1 X118.67 Y121.104 E6.38964
G1 X119.34 Y120.504 E6.43451
G1 X120.137 Y119.928 E6.48357
G1 X120.893 Y119.493 E6.52708
G1 X121.759 Y119.105 E6.57443
G1 X122.472 Y118.881 E6.61171
G1 X123.206 Y118.735 E6.64905
G1 X123.951 Y118.669 E6.68636
G1 X124.699 Y118.682 E6.72369
G1 X124.993 Y118.718 E6.73846
G1 X126.034 Y118.666 E6.79046
G1 X126.779 Y118.73 E6.82777
G1 X127.513 Y118.874 E6.86509
G1 X128.228 Y119.095 E6.90242
G1 X128.997 Y119.433 E6.94433
G1 X129.787 Y119.876 E6.98952
G1 X130.557 Y120.418 E7.0365
G1 X131.3 Y121.071 E7.08585
G1 X131.938 Y121.765 E7.13288
G1 X132.492 Y122.508 E7.17912
G1 X132.979 Y123.329 E7.22674
G1 X133.359 Y124.154 E7.27206
G1 X133.67 Y125.071 E7.32037
G1 X133.872 Y125.966 E7.36614
G1 X133.986 Y126.947 E7.41541
G1 X133.993 Y127.919 E7.46391
G1 X133.907 Y128.815 E7.50881
G1 X133.713 Y129.768 E7.55733
G1 X133.431 Y130.659 E7.60396
G1 X133.072 Y131.488 E7.64903
G1 X132.598 Y132.33 E7.69724
G1 X132.08 Y133.06 E7.74189
G1 X131.443 Y133.788 E7.79015
G1 X130.693 Y134.474 E7.84086
G1 X129.944 Y135.023 E7.88719
G1 X129.126 Y135.5 E7.93444
G1 X128.312 Y135.87 E7.97905
G1 X127.433 Y136.167 E8.02533
G1 X126.481 Y136.379 E8.07399
G1 X125.518 Y136.485 E8.12233
G1 X124.576 Y136.49 E8.16933
G1 X123.642 Y136.397 E8.21615
G1 X122.696 Y136.201 E8.26435
G1 X121.801 Y135.912 E8.31127
G1 X121.006 Y135.565 E8.35455
G1 X120.132 Y135.07 E8.40466
G1 X119.389 Y134.535 E8.45034
G1 X118.61 Y133.837 E8.50252
G1 X117.989 Y133.141 E8.54906
G1 X117.475 Y132.433 E8.59271
G1 X116.998 Y131.615 E8.63995
G1 X116.614 Y130.764 E8.68653
G1 X116.32 Y129.875 E8.73324
G1 X116.11 Y128.883 E8.78383
G1 X116.014 Y127.952 E8.83053
G0 F3600 X116.414 Y127.06
G1 F1800 X116.501 Y126.197 E8.8738
G1 X116.697 Y125.264 E8.92136
G1 X116.963 Y124.444 E8.96437
G1 X117.329 Y123.616 E9.00954
G1 X117.775 Y122.839 E9.05423
G1 X118.305 Y122.105 E9.0994
G1 X118.948 Y121.391 E9.14734
G1 X119.588 Y120.818 E9.1902
G1 X120.349 Y120.267 E9.23707
G1 X121.071 Y119.851 E9.27864
G1 X121.918 Y119.472 E9.32494
G1 X122.612 Y119.259 E9.36115
G1 X123.326 Y119.123 E9.39742
G1 X124.05 Y119.066 E9.43365
G1 X124.776 Y119.089 E9.46989
G1 X124.979 Y119.118 E9.48012
G1 X125.61 Y119.065 E9.51171
G1 X126.336 Y119.084 E9.54794
G1 X127.056 Y119.182 E9.58419
G1 X127.76 Y119.359 E9.62041
G1 X128.441 Y119.612 E9.65665
G1 X129.01 Y119.889 E9.68823
G1 X129.57 Y120.212 E9.72048
G1 X130.307 Y120.73 E9.76542
G1 X131.016 Y121.353 E9.81251
G1 X131.627 Y122.016 E9.85749
G1 X132.157 Y122.727 E9.90173
G1 X132.622 Y123.51 E9.94717
G1 X132.986 Y124.299 E9.99052
G1 X133.284 Y125.174 E10.03663
G1 X133.477 Y126.03 E10.08041
G1 X133.586 Y126.966 E10.12742
G1 X133.594 Y127.896 E10.17382
G1 X133.511 Y128.752 E10.21673
G1 X133.327 Y129.663 E10.2631
G1 X133.058 Y130.515 E10.30767
G1 X132.715 Y131.307 E10.35073
G1 X132.263 Y132.111 E10.39675
G1 X131.768 Y132.81 E10.43948
G1 X131.16 Y133.505 E10.48555
G1 X130.444 Y134.161 E10.534
G1 X129.729 Y134.686 E10.57825
G1 X128.948 Y135.142 E10.62337
G1 X128.169 Y135.496 E10.66606
G1 X127.329 Y135.78 E10.7103
G1 X126.421 Y135.983 E10.75672
G1 X125.501 Y136.086 E10.8029
G1 X124.599 Y136.091 E10.8479
G1 X123.707 Y136.003 E10.89262
G1 X122.804 Y135.815 E10.93864
G1 X121.948 Y135.54 E10.98349
G1 X121.187 Y135.208 E11.02492
G1 X120.353 Y134.736 E11.07273
G1 X119.642 Y134.226 E11.11638
G1 X118.898 Y133.559 E11.16623
G1 X118.304 Y132.894 E11.21072
G1 X117.812 Y132.218 E11.25243
G1 X117.356 Y131.437 E11.29755
G1 X116.989 Y130.623 E11.3421
G1 X116.707 Y129.774 E11.38673
G1 X116.506 Y128.827 E11.43503
G1 X116.414 Y127.936 E11.47971
G1 X116.414 Y127.06 E11.52342
G0 F3600 X116.813 Y127.085
G1 F1800 X116.896 Y126.262 E11.56469
G1 X117.082 Y125.373 E11.61
G1 X117.335 Y124.59 E11.65105
G1 X117.683 Y123.801 E11.69407
G1 X118.108 Y123.06 E11.73669
G1 X118.613 Y122.36 E11.77975
G1 X119.226 Y121.679 E11.82547
G1 X119.836 Y121.131 E11.86638
G1 X120.561 Y120.606 E11.91103
G1 X121.25 Y120.209 E11.95071
G1 X122.077 Y119.84 E11.99589
G1 X122.751 Y119.636 E12.03102
G1 X123.443 Y119.511 E12.0661
G1 X124.146 Y119.464 E12.10125
G1 X124.849 Y119.498 E12.13637
G1 X125.001 Y119.523 E12.14405
G1 X125.925 Y119.463 E12.19025
G1 X126.627 Y119.517 E12.22537
G1 X127.318 Y119.65 E12.26048
G1 X127.99 Y119.861 E12.29562
G1 X128.632 Y120.145 E12.33064
G1 X129.354 Y120.549 E12.37192
G1 X130.056 Y121.041 E12.41469
G1 X130.733 Y121.635 E12.45962
G1 X131.316 Y122.268 E12.50256
G1 X131.822 Y122.945 E12.54472
G1 X132.265 Y123.691 E12.58801
G1 X132.613 Y124.444 E12.62939
G1 X132.897 Y125.278 E12.67335
G1 X133.082 Y126.094 E12.71509
G1 X133.187 Y126.985 E12.75985
G1 X133.195 Y127.873 E12.80416
G1 X133.116 Y128.69 E12.84511
G1 X132.942 Y129.557 E12.88922
G1 X132.685 Y130.37 E12.93176
G1 X132.358 Y131.126 E12.97286
G1 X131.928 Y131.893 E13.01673
G1 X131.457 Y132.559 E13.05742
G1 X130.877 Y133.222 E13.10137
G1 X130.195 Y133.848 E13.14756
G1 X129.513 Y134.349 E13.18978
G1 X128.769 Y134.784 E13.23277
G1 X128.026 Y135.123 E13.27352
G1 X127.225 Y135.394 E13.3157
G1 X126.36 Y135.588 E13.35993
G1 X125.483 Y135.686 E13.40396
G1 X124.622 Y135.692 E13.44691
G1 X123.772 Y135.608 E13.48953
G1 X122.911 Y135.43 E13.53339
G1 X122.095 Y135.168 E13.57615
G1 X121.368 Y134.851 E13.61572
G1 X120.573 Y134.402 E13.66127
G1 X119.895 Y133.916 E13.70289
G1 X119.185 Y133.281 E13.75041
G1 X118.619 Y132.647 E13.79281
G1 X118.149 Y132.002 E13.83263
G1 X117.714 Y131.258 E13.87562
G1 X117.363 Y130.483 E13.91807
G1 X117.094 Y129.672 E13.9607
G1 X116.902 Y128.771 E14.00666
G1 X116.814 Y127.921 E14.04929
G1 X116.813 Y127.085 E14.091
G0 F3600 X117.212 Y127.11
G1 F1800 X117.291 Y126.327 E14.13026
G1 X117.467 Y125.482 E14.17332
G1 X117.707 Y124.737 E14.21237
G1 X118.038 Y123.986 E14.25332
G1 X118.442 Y123.281 E14.29386
G1 X118.922 Y122.615 E14.33481
G1 X119.504 Y121.966 E14.3783
G1 X120.085 Y121.445 E14.41724
G1 X120.773 Y120.946 E14.45964
G1 X121.429 Y120.566 E14.49746
G1 X122.235 Y120.208 E14.54146
G1 X122.888 Y120.015 E14.57543
G1 X123.559 Y119.9 E14.6094
G1 X124.239 Y119.864 E14.64337
G1 X124.918 Y119.908 E14.67732
G1 X125.549 Y119.868 E14.70886
G1 X126.23 Y119.878 E14.74284
G1 X126.905 Y119.968 E14.77681
G1 X127.564 Y120.136 E14.81074
G1 X128.45 Y120.501 E14.85855
G1 X129.137 Y120.885 E14.89782
G1 X129.805 Y121.353 E14.93851
G1 X130.449 Y121.917 E14.98122
G1 X131.005 Y122.519 E15.0221
G1 X131.486 Y123.163 E15.0622
G1 X131.909 Y123.873 E15.10343
G1 X132.24 Y124.588 E15.14274
G1 X132.511 Y125.381 E15.18455
G1 X132.687 Y126.157 E15.22425
G1 X132.787 Y127.005 E15.26685
G1 X132.795 Y127.849 E15.30896
G1 X132.721 Y128.627 E15.34795
G1 X132.556 Y129.452 E15.38992
G1 X132.312 Y130.225 E15.43036
G1 X132.002 Y130.944 E15.46943
G1 X131.593 Y131.674 E15.51117
G1 X131.145 Y132.308 E15.5499
G1 X130.594 Y132.939 E15.5917
G1 X129.946 Y133.535 E15.63562
G1 X129.298 Y134.012 E15.67577
G1 X128.59 Y134.427 E15.71671
G1 X127.883 Y134.749 E15.75547
G1 X127.121 Y135.008 E15.79562
G1 X126.299 Y135.193 E15.83765
G1 X125.465 Y135.286 E15.87952
G1 X124.646 Y135.292 E15.92038
G1 X123.837 Y135.213 E15.96094
G1 X123.018 Y135.044 E16.00266
G1 X122.242 Y134.796 E16.0433
G1 X121.55 Y134.495 E16.08095
G1 X120.794 Y134.069 E16.12424
G1 X120.148 Y133.606 E16.16389
G1 X119.473 Y133.003 E16.20905
G1 X118.933 Y132.4 E16.24943
G1 X118.486 Y131.787 E16.28728
G1 X118.071 Y131.079 E16.32823
G1 X117.738 Y130.342 E16.36857
G1 X117.481 Y129.571 E16.40912
G1 X117.298 Y128.716 E16.45274
G1 X117.213 Y127.905 E16.49343
G1 X117.212 Y127.11 E16.53309
G0 F3600 X117.612 Y127.136
G1 F1800 X117.685 Y126.392 E16.57038
G1 X117.852 Y125.59 E16.61125
G1 X118.08 Y124.883 E16.64832
G1 X118.392 Y124.171 E16.6871
G1 X118.775 Y123.502 E16.72556
G1 X119.23 Y122.87 E16.76441
G1 X119.782 Y122.254 E16.80568
G1 X120.333 Y121.759 E16.84263
G1 X120.985 Y121.285 E16.88285
G1 X121.608 Y120.924 E16.91877
G1 X122.392 Y120.577 E16.96154
G1 X123.024 Y120.394 E16.99437
G1 X123.672 Y120.29 E17.02711
G1 X124.329 Y120.265 E17.05991
G1 X125.017 Y120.328 E17.09438
G1 X125.866 Y120.262 E17.13686
G1 X126.522 Y120.31 E17.16968
G1 X127.166 Y120.437 E17.20243
G1 X127.791 Y120.641 E17.23523
G1 X128.267 Y120.857 E17.26131
G1 X128.921 Y121.221 E17.29865
G1 X129.555 Y121.665 E17.33726
G1 X130.165 Y122.199 E17.37771
G1 X130.694 Y122.771 E17.41658
G1 X131.151 Y123.381 E17.45461
G1 X131.552 Y124.054 E17.49369
G1 X131.867 Y124.733 E17.53103
G1 X132.124 Y125.485 E17.57068
G1 X132.292 Y126.221 E17.60835
G1 X132.388 Y127.024 E17.64869
G1 X132.396 Y127.826 E17.68871
G1 X132.326 Y128.564 E17.72569
G1 X132.17 Y129.347 E17.76552
G1 X131.939 Y130.08 E17.80387
G1 X131.645 Y130.763 E17.84096
G1 X131.258 Y131.455 E17.88052
G1 X130.833 Y132.058 E17.91732
G1 X130.311 Y132.656 E17.95693
G1 X129.697 Y133.222 E17.99859
G1 X129.082 Y133.675 E18.0367
G1 X128.411 Y134.069 E18.07552
G1 X127.74 Y134.375 E18.11231
G1 X127.017 Y134.622 E18.15043
G1 X126.238 Y134.797 E18.19026
G1 X125.448 Y134.887 E18.22993
G1 X124.669 Y134.893 E18.26879
G1 X123.902 Y134.819 E18.30724
G1 X123.125 Y134.659 E18.34682
G1 X122.389 Y134.424 E18.38536
G1 X121.731 Y134.138 E18.42116
G1 X121.015 Y133.735 E18.46215
G1 X120.401 Y133.296 E18.4998
G1 X119.76 Y132.725 E18.54263
G1 X119.248 Y132.154 E18.58089
G1 X118.823 Y131.571 E18.61689
G1 X118.429 Y130.9 E18.65571
G1 X118.112 Y130.201 E18.694
G1 X117.868 Y129.47 E18.73245
G1 X117.694 Y128.66 E18.77378
G1 X117.613 Y127.89 E18.81241
G1 X117.612 Y127.136 E18.85003
G0 F3600 X118.011 Y127.161
G1 F1800 X118.08 Y126.457 E18.88532
G1 X118.237 Y125.699 E18.92394
G1 X118.452 Y125.03 E18.95899
G1 X118.747 Y124.356 E18.9957
G1 X119.108 Y123.723 E19.03206
G1 X119.538 Y123.124 E19.06884
G1 X120.06 Y122.542 E19.10785
G1 X120.581 Y122.072 E19.14285
G1 X121.197 Y121.624 E19.18085
G1 X121.787 Y121.282 E19.21488
G1 X122.549 Y120.945 E19.25644
G1 X123.158 Y120.774 E19.288
G1 X123.783 Y120.682 E19.31952
G1 X124.415 Y120.668 E19.35106
G1 X125.007 Y120.731 E19.38076
G1 X125.54 Y120.669 E19.40753
G1 X126.172 Y120.676 E19.43906
G1 X126.798 Y120.762 E19.47059
G1 X127.408 Y120.927 E19.50212
G1 X128.085 Y121.213 E19.53878
G1 X128.704 Y121.558 E19.57414
G1 X129.304 Y121.977 E19.61065
G1 X129.882 Y122.48 E19.64887
G1 X130.383 Y123.022 E19.6857
G1 X130.816 Y123.6 E19.72173
G1 X131.196 Y124.235 E19.75865
G1 X131.494 Y124.877 E19.79396
G1 X131.738 Y125.588 E19.83146
G1 X131.897 Y126.284 E19.86708
G1 X131.988 Y127.043 E19.90522
G1 X131.997 Y127.803 E19.94314
G1 X131.931 Y128.501 E19.97812
G1 X131.784 Y129.242 E20.0158
G1 X131.566 Y129.935 E20.05205
G1 X131.289 Y130.582 E20.08716
G1 X130.923 Y131.236 E20.12455
G1 X130.521 Y131.807 E20.15939
G1 X130.029 Y132.374 E20.19684
G1 X129.448 Y132.909 E20.23625
