;FLAVOR:Marlin
;TIME:242
;Filament used: 0.255434m
;Layer height: 0.15
;MINX:103.519
;MINY:105.871
;MINZ:0.3
;MAXX:146.482
;MAXY:149.126
;MAXZ:0.75
;Generated with Cura_SteamEngine 4.12.1
M140 S60
M105
M190 S60
M104 S200
M105
M109 S200
M82 ;absolute extrusion mode
G21 ;metric values
G90 ;absolute positioning
M82 ;set extruder to absolute mode
M107 ;start with the fan off
G28 X0 Y0 ;move X/Y to min endstops
M300 S1318 P266
G28 Z0 ;move Z to min endstops
G0 Z0.2
G92 E0 ;zero the extruded length
G1 X40 E25 F400 ; Extrude 25mm of filament in a 4cm line. Reduce speed (F) if you have a nozzle smaller than 0.4mm!
G92 E0 ;zero the extruded length again
G1 E-1 F500 ; Retract a little
G1 X80 F4000 ; Quickly wipe away from the filament line
M117 ; Printing…
G5
G92 E0
G92 E0
G1 F1500 E-6.5
;LAYER_COUNT:4
;LAYER:0
M107
G0 F3600 X109.389 Y108.625 Z0.3
;TYPE:SKIRT
G1 F1500 E0
G1 F1800 X109.584 Y108.442 E0.01334
G1 X110.364 Y107.801 E0.06371
G1 X110.582 Y107.644 E0.07711
G1 X111.478 Y107.086 E0.12978
G1 X111.715 Y106.96 E0.14317
G1 X112.632 Y106.546 E0.19336
G1 X112.882 Y106.452 E0.20669
G1 X113.913 Y106.144 E0.26037
G1 X114.175 Y106.085 E0.27377
G1 X115.217 Y105.923 E0.32638
G1 X115.483 Y105.9 E0.3397
G1 X116.214 Y105.871 E0.3762
G1 X116.346 Y105.872 E0.38278
G1 X116.91 Y105.897 E0.41095
G1 X118.796 Y106.048 E0.50534
G1 X119.322 Y106.108 E0.53176
G1 X121.195 Y106.387 E0.62623
G1 X121.723 Y106.484 E0.65301
G1 X123.572 Y106.891 E0.74747
G1 X124.081 Y107.022 E0.77369
G1 X125.896 Y107.552 E0.86802
G1 X126.404 Y107.719 E0.8947
G1 X128.181 Y108.373 E0.98917
G1 X128.679 Y108.576 E1.016
G1 X130.405 Y109.35 E1.11037
G1 X130.88 Y109.583 E1.13677
G1 X132.549 Y110.472 E1.23111
G1 X133.009 Y110.737 E1.2576
G1 X134.616 Y111.739 E1.35208
G1 X135.06 Y112.038 E1.37878
G1 X136.592 Y113.146 E1.47311
G1 X137.011 Y113.471 E1.49956
G1 X138.466 Y114.682 E1.59401
G1 X138.864 Y115.037 E1.62062
G1 X140.232 Y116.344 E1.71501
G1 X140.605 Y116.726 E1.74164
G1 X141.881 Y118.124 E1.83608
G1 X142.226 Y118.528 E1.86258
G1 X143.404 Y120.01 E1.95703
G1 X143.719 Y120.435 E1.98342
G1 X144.793 Y121.992 E2.07779
G1 X145.235 Y122.714 E2.12002
G1 X145.363 Y122.951 E2.13346
G1 X145.768 Y123.827 E2.18161
G1 X145.865 Y124.076 E2.19494
G1 X146.184 Y125.098 E2.24836
G1 X146.246 Y125.358 E2.26169
G1 X146.419 Y126.376 E2.31321
G1 X146.446 Y126.641 E2.3265
G1 X146.482 Y127.694 E2.37906
G1 X146.473 Y127.962 E2.39244
G1 X146.362 Y129.034 E2.44621
G1 X146.316 Y129.299 E2.45963
G1 X146.09 Y130.247 E2.50825
G1 X146.012 Y130.502 E2.52155
G1 X145.637 Y131.485 E2.57404
G1 X145.525 Y131.728 E2.58739
G1 X145.155 Y132.433 E2.62711
G1 X145.087 Y132.548 E2.63378
G1 X144.793 Y133.008 E2.66101
G1 X143.718 Y134.566 E2.75545
G1 X143.404 Y134.989 E2.78173
G1 X142.227 Y136.47 E2.87611
G1 X141.882 Y136.875 E2.90266
G1 X140.606 Y138.273 E2.99709
G1 X140.233 Y138.655 E3.02372
G1 X138.865 Y139.962 E3.11812
G1 X138.467 Y140.317 E3.14472
G1 X137.012 Y141.528 E3.23917
G1 X136.594 Y141.853 E3.26558
G1 X135.061 Y142.962 E3.35998
G1 X134.617 Y143.26 E3.38666
G1 X133.012 Y144.261 E3.48103
G1 X132.551 Y144.527 E3.50758
G1 X130.88 Y145.417 E3.60203
G1 X130.405 Y145.65 E3.62843
G1 X128.679 Y146.424 E3.7228
G1 X128.181 Y146.627 E3.74963
G1 X126.404 Y147.281 E3.8441
G1 X125.896 Y147.448 E3.87078
G1 X124.081 Y147.978 E3.96511
G1 X123.572 Y148.109 E3.99133
G1 X121.723 Y148.516 E4.08579
G1 X121.195 Y148.613 E4.11257
G1 X119.322 Y148.892 E4.20705
G1 X118.796 Y148.952 E4.23346
G1 X116.91 Y149.103 E4.32785
G1 X116.111 Y149.126 E4.36773
G1 X115.845 Y149.12 E4.38101
G1 X114.828 Y149.03 E4.43194
G1 X114.563 Y148.989 E4.44532
G1 X113.517 Y148.753 E4.49882
G1 X113.26 Y148.676 E4.5122
G1 X112.282 Y148.31 E4.5643
G1 X112.039 Y148.2 E4.57761
G1 X111.132 Y147.715 E4.62892
G1 X110.904 Y147.573 E4.64232
G1 X110.078 Y146.98 E4.69305
G1 X109.871 Y146.81 E4.70641
G1 X109.091 Y146.074 E4.75992
G1 X108.91 Y145.878 E4.77323
G1 X108.236 Y145.039 E4.82692
G1 X108.083 Y144.819 E4.84029
G1 X107.708 Y144.223 E4.87542
G1 X107.642 Y144.107 E4.88208
G1 X107.375 Y143.596 E4.91084
G1 X106.563 Y141.886 E5.00528
G1 X106.355 Y141.406 E5.03138
G1 X105.66 Y139.647 E5.12574
G1 X105.478 Y139.137 E5.15276
G1 X104.906 Y137.332 E5.24722
G1 X104.764 Y136.824 E5.27354
G1 X104.316 Y134.987 E5.36787
G1 X104.208 Y134.466 E5.39442
G1 X103.886 Y132.601 E5.48884
G1 X103.813 Y132.069 E5.51563
G1 X103.62 Y130.185 E5.61012
G1 X103.584 Y129.658 E5.63647
G1 X103.519 Y127.769 E5.73077
G1 X103.519 Y127.233 E5.75751
G1 X103.584 Y125.342 E5.85191
G1 X103.62 Y124.815 E5.87826
G1 X103.813 Y122.931 E5.97275
G1 X103.886 Y122.399 E5.99954
G1 X104.208 Y120.534 E6.09396
G1 X104.316 Y120.013 E6.1205
G1 X104.764 Y118.176 E6.21484
G1 X104.906 Y117.668 E6.24115
G1 X105.478 Y115.863 E6.33562
G1 X105.66 Y115.353 E6.36263
G1 X106.355 Y113.594 E6.45699
G1 X106.563 Y113.114 E6.48309
G1 X107.375 Y111.404 E6.57753
G1 X107.753 Y110.703 E6.61727
G1 X107.892 Y110.474 E6.63063
G1 X108.478 Y109.638 E6.68157
G1 X108.645 Y109.43 E6.69487
G1 X109.389 Y108.625 E6.74956
G0 F3600 X109.663 Y108.917
G1 F1800 X109.858 Y108.734 E6.7629
G1 X110.597 Y108.125 E6.81068
G1 X110.815 Y107.968 E6.82408
G1 X111.666 Y107.439 E6.87407
G1 X111.903 Y107.313 E6.88746
G1 X112.773 Y106.92 E6.93509
G1 X113.023 Y106.826 E6.94842
G1 X114.001 Y106.534 E6.99934
G1 X114.263 Y106.475 E7.01274
G1 X115.252 Y106.322 E7.06266
G1 X115.518 Y106.299 E7.07598
G1 X116.211 Y106.271 E7.11059
G1 X116.343 Y106.272 E7.11717
G1 X116.878 Y106.296 E7.14389
G1 X118.764 Y106.447 E7.23828
G1 X119.263 Y106.504 E7.26334
G1 X121.136 Y106.783 E7.35782
G1 X121.637 Y106.875 E7.38323
G1 X123.486 Y107.282 E7.47769
G1 X123.969 Y107.406 E7.50256
G1 X125.784 Y107.936 E7.5969
G1 X126.266 Y108.094 E7.6222
G1 X128.043 Y108.748 E7.71667
G1 X128.515 Y108.941 E7.74211
G1 X130.241 Y109.715 E7.83648
G1 X130.692 Y109.936 E7.86154
G1 X132.361 Y110.825 E7.95588
G1 X132.797 Y111.077 E7.98101
G1 X134.404 Y112.079 E8.07549
G1 X134.826 Y112.362 E8.10084
G1 X136.358 Y113.47 E8.19516
G1 X136.755 Y113.778 E8.22023
G1 X138.21 Y114.989 E8.31468
G1 X138.588 Y115.326 E8.33994
G1 X139.956 Y116.633 E8.43433
G1 X140.31 Y116.995 E8.45959
G1 X141.586 Y118.393 E8.55402
G1 X141.913 Y118.777 E8.57919
G1 X143.091 Y120.259 E8.67364
G1 X143.389 Y120.662 E8.69864
G1 X144.463 Y122.219 E8.79301
G1 X144.883 Y122.904 E8.8331
G1 X145.011 Y123.141 E8.84653
G1 X145.395 Y123.972 E8.89221
G1 X145.492 Y124.221 E8.90554
G1 X145.795 Y125.191 E8.95624
G1 X145.857 Y125.451 E8.96957
G1 X146.021 Y126.417 E9.01846
G1 X146.048 Y126.682 E9.03175
G1 X146.082 Y127.68 E9.08156
G1 X146.073 Y127.948 E9.09494
G1 X145.968 Y128.966 E9.146
G1 X145.922 Y129.231 E9.15942
G1 X145.707 Y130.13 E9.20554
G1 X145.629 Y130.385 E9.21884
G1 X145.274 Y131.318 E9.26864
G1 X145.162 Y131.561 E9.28199
G1 X144.811 Y132.229 E9.31964
G1 X144.743 Y132.344 E9.3263
G1 X144.464 Y132.781 E9.35217
G1 X143.389 Y134.339 E9.44661
G1 X143.091 Y134.74 E9.47153
G1 X141.914 Y136.221 E9.56591
G1 X141.587 Y136.606 E9.59111
G1 X140.311 Y138.004 E9.68554
G1 X139.957 Y138.366 E9.7108
G1 X138.589 Y139.673 E9.8052
G1 X138.211 Y140.01 E9.83046
G1 X136.756 Y141.221 E9.9249
G1 X136.359 Y141.529 E9.94997
G1 X134.826 Y142.638 E10.04437
G1 X134.405 Y142.921 E10.06968
G1 X132.8 Y143.922 E10.16405
G1 X132.363 Y144.174 E10.18921
G1 X130.692 Y145.064 E10.28367
G1 X130.241 Y145.285 E10.30873
G1 X128.515 Y146.059 E10.4031
G1 X128.043 Y146.252 E10.42854
G1 X126.266 Y146.906 E10.52301
G1 X125.784 Y147.064 E10.54831
G1 X123.969 Y147.594 E10.64265
G1 X123.486 Y147.718 E10.66752
G1 X121.637 Y148.125 E10.76198
G1 X121.136 Y148.217 E10.78739
G1 X119.263 Y148.496 E10.88187
G1 X118.764 Y148.553 E10.90692
G1 X116.878 Y148.704 E11.00132
G1 X116.12 Y148.726 E11.03915
G1 X115.854 Y148.72 E11.05243
G1 X114.89 Y148.635 E11.10071
G1 X114.625 Y148.594 E11.11408
G1 X113.632 Y148.37 E11.16487
G1 X113.375 Y148.293 E11.17826
G1 X112.447 Y147.945 E11.2277
G1 X112.204 Y147.835 E11.24101
G1 X111.344 Y147.375 E11.28967
G1 X111.116 Y147.233 E11.30307
G1 X110.332 Y146.671 E11.35119
G1 X110.125 Y146.501 E11.36456
G1 X109.385 Y145.802 E11.41534
G1 X109.204 Y145.606 E11.42865
G1 X108.565 Y144.811 E11.47954
G1 X108.412 Y144.591 E11.49291
G1 X108.055 Y144.025 E11.52629
G1 X107.989 Y143.909 E11.53295
G1 X107.736 Y143.424 E11.56024
G1 X106.924 Y141.714 E11.65468
G1 X106.727 Y141.259 E11.67942
G1 X106.032 Y139.5 E11.77378
G1 X105.86 Y139.016 E11.79941
G1 X105.288 Y137.211 E11.89387
G1 X105.153 Y136.729 E11.91884
G1 X104.705 Y134.892 E12.01318
G1 X104.602 Y134.398 E12.03835
G1 X104.28 Y132.533 E12.13278
G1 X104.211 Y132.028 E12.1582
G1 X104.018 Y130.144 E12.25269
G1 X103.983 Y129.644 E12.2777
G1 X103.918 Y127.755 E12.37199
G1 X103.918 Y127.247 E12.39734
G1 X103.983 Y125.356 E12.49174
G1 X104.018 Y124.856 E12.51674
G1 X104.211 Y122.972 E12.61123
G1 X104.28 Y122.467 E12.63666
G1 X104.602 Y120.602 E12.73108
G1 X104.705 Y120.108 E12.75625
G1 X105.153 Y118.271 E12.85059
G1 X105.288 Y117.789 E12.87556
G1 X105.86 Y115.984 E12.97003
G1 X106.032 Y115.5 E12.99565
G1 X106.727 Y113.741 E13.09001
G1 X106.924 Y113.286 E13.11475
G1 X107.736 Y111.576 E13.20919
G1 X108.095 Y110.91 E13.24694
G1 X108.234 Y110.681 E13.2603
G1 X108.79 Y109.888 E13.30862
G1 X108.957 Y109.68 E13.32193
G1 X109.663 Y108.917 E13.37379
G0 F3600 X109.937 Y109.209
G1 F1800 X110.132 Y109.026 E13.38713
G1 X110.831 Y108.45 E13.43232
G1 X111.049 Y108.293 E13.44572
G1 X111.854 Y107.792 E13.49303
G1 X112.091 Y107.666 E13.50642
G1 X112.913 Y107.295 E13.55141
G1 X113.163 Y107.201 E13.56474
G1 X114.089 Y106.924 E13.61296
G1 X114.351 Y106.865 E13.62636
G1 X115.286 Y106.72 E13.67356
G1 X115.552 Y106.697 E13.68688
G1 X116.208 Y106.671 E13.71963
G1 X116.34 Y106.672 E13.72622
G1 X116.846 Y106.694 E13.75149
G1 X118.732 Y106.845 E13.84588
G1 X119.204 Y106.899 E13.86958
G1 X121.077 Y107.178 E13.96406
G1 X121.551 Y107.266 E13.98811
G1 X123.4 Y107.673 E14.08257
G1 X123.857 Y107.79 E14.1061
G1 X125.672 Y108.32 E14.20043
G1 X126.128 Y108.47 E14.22438
G1 X127.905 Y109.124 E14.31885
G1 X128.351 Y109.306 E14.34288
G1 X130.077 Y110.08 E14.43726
G1 X130.504 Y110.289 E14.46097
G1 X132.173 Y111.178 E14.55532
G1 X132.586 Y111.416 E14.5791
G1 X134.193 Y112.418 E14.67358
G1 X134.591 Y112.686 E14.69752
G1 X136.123 Y113.794 E14.79184
G1 X136.499 Y114.086 E14.8156
G1 X137.954 Y115.297 E14.91004
G1 X138.312 Y115.616 E14.93396
G1 X139.68 Y116.923 E15.02835
G1 X140.014 Y117.265 E15.0522
G1 X141.29 Y118.663 E15.14663
G1 X141.6 Y119.026 E15.17045
G1 X142.778 Y120.508 E15.2649
G1 X143.06 Y120.889 E15.28855
G1 X144.134 Y122.446 E15.38291
G1 X144.531 Y123.095 E15.42087
G1 X144.659 Y123.332 E15.43431
G1 X145.023 Y124.117 E15.47748
G1 X145.12 Y124.366 E15.49081
G1 X145.406 Y125.283 E15.53873
G1 X145.468 Y125.543 E15.55207
G1 X145.623 Y126.457 E15.59832
G1 X145.65 Y126.722 E15.61161
G1 X145.682 Y127.667 E15.65878
G1 X145.673 Y127.935 E15.67216
G1 X145.574 Y128.897 E15.72041
G1 X145.528 Y129.162 E15.73383
G1 X145.325 Y130.013 E15.77747
G1 X145.247 Y130.268 E15.79078
G1 X144.91 Y131.15 E15.83788
G1 X144.798 Y131.393 E15.85123
G1 X144.466 Y132.026 E15.88689
G1 X144.135 Y132.553 E15.91794
G1 X143.06 Y134.111 E16.01238
G1 X142.778 Y134.491 E16.03599
G1 X141.601 Y135.972 E16.13037
G1 X141.291 Y136.336 E16.15422
G1 X140.015 Y137.734 E16.24865
G1 X139.681 Y138.076 E16.2725
G1 X138.313 Y139.383 E16.36689
G1 X137.955 Y139.702 E16.39081
G1 X136.5 Y140.913 E16.48526
G1 X136.125 Y141.205 E16.50897
G1 X134.592 Y142.314 E16.60336
G1 X134.193 Y142.582 E16.62734
G1 X132.588 Y143.583 E16.72172
G1 X132.175 Y143.821 E16.7455
G1 X130.504 Y144.711 E16.83995
G1 X130.077 Y144.92 E16.86367
G1 X128.351 Y145.694 E16.95804
G1 X127.905 Y145.876 E16.98207
G1 X126.128 Y146.53 E17.07654
G1 X125.672 Y146.68 E17.10049
G1 X123.857 Y147.21 E17.19482
G1 X123.4 Y147.327 E17.21836
G1 X121.551 Y147.734 E17.31281
G1 X121.077 Y147.822 E17.33687
G1 X119.204 Y148.101 E17.43134
G1 X118.732 Y148.155 E17.45504
G1 X116.846 Y148.306 E17.54944
G1 X116.129 Y148.326 E17.58522
G1 X115.863 Y148.32 E17.5985
G1 X114.951 Y148.24 E17.64417
G1 X114.686 Y148.199 E17.65755
G1 X113.747 Y147.987 E17.70557
G1 X113.49 Y147.91 E17.71896
G1 X112.612 Y147.581 E17.76574
G1 X112.369 Y147.471 E17.77905
G1 X111.555 Y147.036 E17.82509
G1 X111.327 Y146.894 E17.83849
G1 X110.585 Y146.362 E17.88404
G1 X110.378 Y146.192 E17.89741
G1 X109.678 Y145.531 E17.94544
G1 X109.497 Y145.335 E17.95875
G1 X108.893 Y144.583 E18.00687
G1 X108.74 Y144.363 E18.02024
G1 X108.403 Y143.828 E18.05178
G1 X108.337 Y143.712 E18.05844
G1 X108.098 Y143.253 E18.08426
G1 X107.286 Y141.543 E18.1787
G1 X107.099 Y141.112 E18.20214
G1 X106.404 Y139.353 E18.2965
G1 X106.241 Y138.896 E18.32071
G1 X105.669 Y137.091 E18.41517
G1 X105.541 Y136.635 E18.4388
G1 X105.093 Y134.798 E18.53314
G1 X104.996 Y134.33 E18.55698
G1 X104.674 Y132.465 E18.6514
G1 X104.608 Y131.987 E18.67548
G1 X104.415 Y130.103 E18.76996
G1 X104.383 Y129.631 E18.79356
G1 X104.318 Y127.742 E18.88786
G1 X104.318 Y127.261 E18.91186
G1 X104.383 Y125.37 E19.00626
G1 X104.415 Y124.897 E19.02991
G1 X104.608 Y123.013 E19.12439
G1 X104.674 Y122.535 E19.14847
G1 X104.996 Y120.67 E19.24289
G1 X105.093 Y120.202 E19.26673
G1 X105.541 Y118.365 E19.36107
G1 X105.669 Y117.909 E19.3847
G1 X106.241 Y116.104 E19.47916
G1 X106.404 Y115.647 E19.50337
G1 X107.099 Y113.888 E19.59773
G1 X107.286 Y113.457 E19.62117
G1 X108.098 Y111.747 E19.71561
G1 X108.437 Y111.118 E19.75126
G1 X108.576 Y110.889 E19.76462
G1 X109.102 Y110.139 E19.81033
G1 X109.269 Y109.931 E19.82363
G1 X109.937 Y109.209 E19.87271
G0 F3600 X110.211 Y109.5
G1 F1800 X110.406 Y109.317 E19.88605
G1 X111.065 Y108.774 E19.92865
G1 X111.283 Y108.617 E19.94205
G1 X112.042 Y108.145 E19.98664
G1 X112.279 Y108.019 E20.00004
G1 X113.054 Y107.669 E20.04246
G1 X113.304 Y107.575 E20.05579
G1 X114.177 Y107.314 E20.10124
G1 X114.439 Y107.255 E20.11464
G1 X115.32 Y107.119 E20.15912
G1 X115.586 Y107.096 E20.17244
G1 X116.205 Y107.071 E20.20334
G1 X116.814 Y107.093 E20.23375
G1 X118.7 Y107.244 E20.32814
G1 X119.145 Y107.295 E20.35049
G1 X121.018 Y107.574 E20.44496
G1 X121.465 Y107.656 E20.46764
G1 X123.314 Y108.063 E20.56209
G1 X123.745 Y108.174 E20.5843
G1 X125.56 Y108.704 E20.67863
G1 X125.99 Y108.845 E20.7012
G1 X127.767 Y109.499 E20.79567
G1 X128.188 Y109.671 E20.81836
G1 X129.914 Y110.445 E20.91273
G1 X130.316 Y110.642 E20.93507
G1 X131.985 Y111.531 E21.02941
G1 X132.374 Y111.755 E21.05181
G1 X133.981 Y112.757 E21.14629
G1 X134.357 Y113.01 E21.1689
G1 X135.889 Y114.118 E21.26322
G1 X136.243 Y114.393 E21.28559
G1 X137.698 Y115.604 E21.38003
G1 X138.035 Y115.905 E21.40258
G1 X139.403 Y117.212 E21.49697
G1 X139.719 Y117.535 E21.51951
G1 X140.995 Y118.933 E21.61394
G1 X141.287 Y119.275 E21.63638
G1 X142.465 Y120.757 E21.73083
G1 X142.731 Y121.116 E21.75312
G1 X143.805 Y122.673 E21.84749
G1 X144.179 Y123.285 E21.88327
G1 X144.307 Y123.522 E21.89671
G1 X144.65 Y124.262 E21.9374
G1 X144.747 Y124.511 E21.95073
G1 X145.017 Y125.376 E21.99594
G1 X145.079 Y125.636 E22.00927
G1 X145.225 Y126.498 E22.05289
G1 X145.252 Y126.763 E22.06618
G1 X145.282 Y127.654 E22.11066
G1 X145.273 Y127.922 E22.12404
G1 X145.18 Y128.829 E22.16952
G1 X145.134 Y129.094 E22.18294
G1 X144.942 Y129.896 E22.22409
G1 X144.864 Y130.151 E22.23739
G1 X144.547 Y130.983 E22.28181
G1 X144.435 Y131.226 E22.29516
G1 X144.122 Y131.822 E22.32874
G1 X143.805 Y132.326 E22.35845
G1 X142.73 Y133.884 E22.45288
G1 X142.465 Y134.242 E22.47511
G1 X141.288 Y135.723 E22.56948
G1 X140.996 Y136.066 E22.59196
G1 X139.72 Y137.464 E22.68639
G1 X139.404 Y137.787 E22.70893
G1 X138.036 Y139.094 E22.80333
