;FLAVOR:Marlin
;TIME:802
;Filament used: 0.480047m
;Layer height: 0.1
;MINX:110.204
;MINY:112.702
;MINZ:0.3
;MAXX:139.795
;MAXY:142.29
;MAXZ:10
;Generated with Cura_SteamEngine 5.0.0
M140 S60
M105
M190 S60
M104 S200
M105
M109 S200
M82 ;absolute extrusion mode
G21 ;metric values
G90 ;absolute positioning
M82 ;set extruder to absolute mode
M107 ;start with the fan off
G28 X0 Y0 ;move X/Y to min endstops
M300 S1318 P266
G28 Z0 ;move Z to min endstops
G0 Z0.2
G92 E0 ;zero the extruded length
G1 X40 E25 F400 ; Extrude 25mm of filament in a 4cm line. Reduce speed (F) if you have a nozzle smaller than 0.4mm!
G92 E0 ;zero the extruded length again
G1 E-1 F500 ; Retract a little
G1 X80 F4000 ; Quickly wipe away from the filament line
M117 ; Printing…
G5
G92 E0
G92 E0
G1 F1500 E-6.5
;LAYER_COUNT:98
;LAYER:0
M107
G0 F3600 X114.475 Y117.098 Z0.3
G0 X110.204 Y127.699
;TYPE:SKIRT
G1 F1500 E0
G1 F1800 X110.223 Y126.729 E0.0484
G1 X110.305 Y125.754 E0.09722
G1 X110.452 Y124.793 E0.14572
G1 X110.668 Y123.816 E0.19564
G1 X110.939 Y122.891 E0.24373
G1 X111.282 Y121.953 E0.29356
G1 X111.667 Y121.082 E0.34107
G1 X112.128 Y120.201 E0.39067
G1 X112.636 Y119.37 E0.43926
G1 X113.177 Y118.602 E0.48613
G1 X113.82 Y117.805 E0.53722
G1 X114.475 Y117.098 E0.5853
G1 X115.192 Y116.419 E0.63457
G1 X115.973 Y115.775 E0.68507
G1 X116.702 Y115.249 E0.72992
G1 X117.539 Y114.72 E0.77932
G1 X118.442 Y114.234 E0.83048
G1 X119.291 Y113.849 E0.87699
G1 X120.237 Y113.49 E0.92747
G1 X121.169 Y113.207 E0.97607
G1 X122.128 Y112.984 E1.02519
G1 X123.108 Y112.824 E1.07473
G1 X124.045 Y112.734 E1.12169
G1 X125.045 Y112.702 E1.1716
G1 X126.021 Y112.738 E1.22033
G1 X126.982 Y112.836 E1.26852
G1 X127.978 Y113.005 E1.31892
G1 X128.915 Y113.23 E1.367
G1 X129.833 Y113.514 E1.41494
G1 X130.745 Y113.863 E1.46366
G1 X131.654 Y114.283 E1.51362
G1 X132.492 Y114.74 E1.56124
G1 X133.352 Y115.285 E1.61203
G1 X134.131 Y115.857 E1.66025
G1 X134.862 Y116.469 E1.70781
G1 X135.577 Y117.152 E1.75714
G1 X136.226 Y117.86 E1.80506
G1 X136.854 Y118.642 E1.8551
G1 X137.418 Y119.454 E1.90442
G1 X137.915 Y120.278 E1.95243
G1 X138.372 Y121.165 E2.00221
G1 X138.747 Y122.028 E2.04916
G1 X139.093 Y122.989 E2.10011
G1 X139.343 Y123.862 E2.14542
G1 X139.564 Y124.875 E2.19715
G1 X139.703 Y125.834 E2.24549
G1 X139.781 Y126.8 E2.29384
G1 X139.795 Y127.784 E2.34294
G1 X139.743 Y128.773 E2.39235
G1 X139.631 Y129.717 E2.43977
G1 X139.446 Y130.711 E2.49022
G1 X139.217 Y131.605 E2.53626
G1 X138.891 Y132.6 E2.5885
G1 X138.534 Y133.483 E2.63601
G1 X138.107 Y134.368 E2.68504
G1 X137.633 Y135.205 E2.73303
G1 X137.101 Y136.017 E2.78146
G1 X136.496 Y136.818 E2.83154
G1 X135.858 Y137.553 E2.88009
G1 X135.164 Y138.254 E2.92931
G1 X134.451 Y138.886 E2.97684
G1 X133.661 Y139.499 E3.02673
G1 X132.833 Y140.055 E3.07649
G1 X132.019 Y140.526 E3.12341
G1 X131.129 Y140.968 E3.17298
G1 X130.211 Y141.349 E3.22257
G1 X129.297 Y141.659 E3.27072
G1 X128.369 Y141.908 E3.31866
G1 X127.375 Y142.106 E3.36922
G1 X126.426 Y142.228 E3.41696
G1 X125.474 Y142.29 E3.46455
G1 X124.465 Y142.288 E3.51489
G1 X123.493 Y142.22 E3.5635
G1 X122.535 Y142.091 E3.61173
G1 X121.541 Y141.888 E3.66234
G1 X120.617 Y141.633 E3.71017
G1 X119.691 Y141.312 E3.75906
G1 X118.821 Y140.946 E3.80615
G1 X117.939 Y140.505 E3.85535
G1 X117.092 Y140.007 E3.90437
G1 X116.294 Y139.465 E3.95249
G1 X115.492 Y138.839 E4.00325
G1 X114.766 Y138.188 E4.0519
G1 X114.085 Y137.492 E4.10048
G1 X113.443 Y136.741 E4.14977
G1 X112.867 Y135.97 E4.19779
G1 X112.322 Y135.131 E4.2477
G1 X111.847 Y134.279 E4.29637
G1 X111.437 Y133.418 E4.34394
G1 X111.066 Y132.483 E4.39413
G1 X110.771 Y131.56 E4.44247
G1 X110.542 Y130.649 E4.48934
G1 X110.359 Y129.645 E4.54025
G1 X110.248 Y128.667 E4.58936
G1 X110.204 Y127.699 E4.6377
G0 F3600 X110.604 Y127.7
G1 F1800 X110.622 Y126.755 E4.68486
G1 X110.702 Y125.808 E4.73227
G1 X110.844 Y124.872 E4.7795
G1 X111.054 Y123.922 E4.82804
G1 X111.317 Y123.021 E4.87487
G1 X111.65 Y122.109 E4.92331
G1 X112.025 Y121.261 E4.96957
G1 X112.473 Y120.403 E5.01786
G1 X112.967 Y119.595 E5.0651
G1 X113.493 Y118.847 E5.11073
G1 X114.117 Y118.073 E5.16033
G1 X114.756 Y117.384 E5.20721
G1 X115.453 Y116.723 E5.25513
G1 X116.212 Y116.096 E5.30425
G1 X116.923 Y115.583 E5.34799
G1 X117.736 Y115.069 E5.39598
G1 X118.613 Y114.596 E5.44569
G1 X119.44 Y114.22 E5.49101
G1 X120.36 Y113.871 E5.5401
G1 X121.267 Y113.595 E5.5874
G1 X122.2 Y113.377 E5.6352
G1 X123.153 Y113.221 E5.68338
G1 X124.065 Y113.133 E5.72909
G1 X125.038 Y113.102 E5.77766
G1 X125.987 Y113.136 E5.82504
G1 X126.922 Y113.231 E5.87192
G1 X127.891 Y113.395 E5.92096
G1 X128.803 Y113.614 E5.96775
G1 X129.697 Y113.89 E6.01443
G1 X130.584 Y114.229 E6.0618
G1 X131.468 Y114.637 E6.11038
G1 X132.285 Y115.082 E6.15679
G1 X133.121 Y115.611 E6.20615
G1 X133.879 Y116.167 E6.25305
G1 X134.591 Y116.763 E6.29937
G1 X135.287 Y117.428 E6.3474
G1 X135.919 Y118.116 E6.394
G1 X136.529 Y118.876 E6.44262
G1 X137.079 Y119.666 E6.49065
G1 X137.562 Y120.468 E6.53736
G1 X138.008 Y121.331 E6.58582
G1 X138.374 Y122.171 E6.63153
G1 X138.71 Y123.104 E6.68101
G1 X138.954 Y123.955 E6.72518
G1 X139.169 Y124.939 E6.77543
G1 X139.305 Y125.873 E6.82251
G1 X139.381 Y126.813 E6.86956
G1 X139.396 Y127.771 E6.91737
G1 X139.346 Y128.732 E6.96537
G1 X139.237 Y129.651 E7.01154
G1 X139.057 Y130.617 E7.06057
G1 X138.834 Y131.488 E7.10542
G1 X138.518 Y132.456 E7.15623
G1 X138.17 Y133.316 E7.20251
G1 X137.755 Y134.177 E7.2502
G1 X137.295 Y134.992 E7.29689
G1 X136.778 Y135.782 E7.34399
G1 X136.189 Y136.561 E7.39271
G1 X135.569 Y137.276 E7.43993
G1 X134.894 Y137.959 E7.48784
G1 X134.2 Y138.574 E7.5341
G1 X133.432 Y139.171 E7.58263
G1 X132.627 Y139.712 E7.63102
G1 X131.835 Y140.171 E7.67669
G1 X130.969 Y140.602 E7.72495
G1 X130.076 Y140.972 E7.77317
G1 X129.186 Y141.274 E7.82006
G1 X128.284 Y141.517 E7.86666
G1 X127.318 Y141.71 E7.91581
G1 X126.393 Y141.829 E7.96234
G1 X125.467 Y141.89 E8.00864
G1 X124.487 Y141.889 E8.05753
G1 X123.54 Y141.823 E8.10489
G1 X122.607 Y141.698 E8.15185
G1 X121.641 Y141.501 E8.20104
G1 X120.741 Y141.253 E8.24762
G1 X119.841 Y140.941 E8.29514
G1 X118.993 Y140.585 E8.34102
G1 X118.136 Y140.157 E8.38881
G1 X117.311 Y139.673 E8.43653
G1 X116.534 Y139.145 E8.4834
G1 X115.754 Y138.537 E8.53274
G1 X115.047 Y137.904 E8.58009
G1 X114.384 Y137.226 E8.6274
G1 X113.759 Y136.497 E8.6753
G1 X113.198 Y135.746 E8.72207
G1 X112.668 Y134.931 E8.77057
G1 X112.206 Y134.102 E8.81792
G1 X111.806 Y133.263 E8.86429
G1 X111.445 Y132.354 E8.91309
G1 X111.157 Y131.457 E8.96009
G1 X110.934 Y130.569 E9.00577
G1 X110.755 Y129.593 E9.05527
G1 X110.648 Y128.642 E9.10302
G1 X110.604 Y127.7 E9.15006
G0 F3600 X111.004 Y127.701
G1 F1800 X111.021 Y126.782 E9.19592
G1 X111.098 Y125.861 E9.24203
G1 X111.236 Y124.952 E9.2879
G1 X111.439 Y124.028 E9.3351
G1 X111.695 Y123.152 E9.38063
G1 X112.018 Y122.265 E9.42773
G1 X112.383 Y121.44 E9.47273
G1 X112.818 Y120.606 E9.51966
G1 X113.298 Y119.82 E9.56561
G1 X113.809 Y119.092 E9.60998
G1 X114.415 Y118.34 E9.65817
G1 X115.036 Y117.669 E9.70378
G1 X115.713 Y117.026 E9.75036
G1 X116.45 Y116.417 E9.79806
G1 X117.143 Y115.917 E9.84069
G1 X117.932 Y115.417 E9.88729
G1 X118.784 Y114.958 E9.93558
G1 X119.588 Y114.592 E9.97965
G1 X120.483 Y114.251 E10.02743
G1 X121.365 Y113.983 E10.07342
G1 X122.271 Y113.771 E10.11984
G1 X123.198 Y113.619 E10.16671
G1 X124.085 Y113.533 E10.21117
G1 X125.03 Y113.502 E10.25834
G1 X125.953 Y113.535 E10.30442
G1 X126.863 Y113.627 E10.35005
G1 X127.804 Y113.786 E10.39766
G1 X128.691 Y113.998 E10.44316
G1 X129.561 Y114.266 E10.48858
G1 X130.423 Y114.595 E10.53461
G1 X131.282 Y114.991 E10.5818
G1 X132.077 Y115.424 E10.62696
G1 X132.89 Y115.938 E10.67495
G1 X133.627 Y116.478 E10.72053
G1 X134.32 Y117.058 E10.76562
G1 X134.997 Y117.703 E10.81227
G1 X135.612 Y118.372 E10.85761
G1 X136.205 Y119.11 E10.90484
G1 X136.74 Y119.878 E10.95154
G1 X137.21 Y120.658 E10.99697
G1 X137.644 Y121.496 E11.04405
G1 X138 Y122.313 E11.08851
G1 X138.327 Y123.22 E11.13661
G1 X138.565 Y124.049 E11.17964
G1 X138.774 Y125.003 E11.22837
G1 X138.907 Y125.912 E11.2742
G1 X138.981 Y126.826 E11.31995
G1 X138.996 Y127.757 E11.3664
G1 X138.948 Y128.691 E11.41306
G1 X138.842 Y129.585 E11.45798
G1 X138.668 Y130.524 E11.50562
G1 X138.451 Y131.371 E11.54924
G1 X138.145 Y132.312 E11.59861
G1 X137.807 Y133.149 E11.64364
G1 X137.404 Y133.986 E11.68999
G1 X136.956 Y134.778 E11.73539
G1 X136.454 Y135.546 E11.78116
G1 X135.883 Y136.304 E11.82851
G1 X135.28 Y137 E11.87445
G1 X134.624 Y137.664 E11.92102
G1 X133.949 Y138.263 E11.96604
G1 X133.203 Y138.843 E12.01318
G1 X132.421 Y139.369 E12.0602
G1 X131.651 Y139.816 E12.10462
G1 X130.809 Y140.235 E12.15154
G1 X129.941 Y140.596 E12.19844
G1 X129.076 Y140.89 E12.24402
G1 X128.199 Y141.127 E12.28935
G1 X127.26 Y141.314 E12.33711
G1 X126.361 Y141.431 E12.38234
G1 X125.46 Y141.49 E12.42739
G1 X124.508 Y141.489 E12.47489
G1 X123.586 Y141.426 E12.52099
G1 X122.68 Y141.304 E12.5666
G1 X121.741 Y141.113 E12.61441
G1 X120.866 Y140.873 E12.65967
G1 X119.99 Y140.57 E12.70592
G1 X119.165 Y140.224 E12.75055
G1 X118.332 Y139.808 E12.797
G1 X117.53 Y139.338 E12.84338
G1 X116.774 Y138.825 E12.88896
G1 X116.015 Y138.234 E12.93695
G1 X115.328 Y137.619 E12.98295
G1 X114.683 Y136.961 E13.02892
G1 X114.076 Y136.252 E13.07549
G1 X113.529 Y135.522 E13.121
G1 X113.014 Y134.73 E13.16813
G1 X112.564 Y133.924 E13.21418
G1 X112.175 Y133.108 E13.25928
G1 X111.824 Y132.226 E13.30664
G1 X111.544 Y131.353 E13.35238
G1 X111.326 Y130.49 E13.39679
G1 X111.152 Y129.541 E13.44493
G1 X111.047 Y128.616 E13.49137
G1 X111.004 Y127.701 E13.53707
G0 F3600 X111.404 Y127.702
G1 F1800 X111.42 Y126.809 E13.58163
G1 X111.495 Y125.914 E13.62644
G1 X111.628 Y125.031 E13.67099
G1 X111.825 Y124.134 E13.71681
G1 X112.073 Y123.282 E13.76108
G1 X112.387 Y122.421 E13.8068
G1 X112.741 Y121.618 E13.85058
G1 X113.162 Y120.809 E13.89608
G1 X113.628 Y120.045 E13.94073
G1 X114.125 Y119.337 E13.98388
G1 X114.713 Y118.607 E14.03065
G1 X115.316 Y117.954 E14.07499
G1 X115.974 Y117.33 E14.12023
G1 X116.688 Y116.739 E14.16648
G1 X117.363 Y116.251 E14.20803
G1 X118.128 Y115.766 E14.25322
G1 X118.955 Y115.319 E14.30012
G1 X119.737 Y114.963 E14.34299
G1 X120.606 Y114.632 E14.38938
G1 X121.462 Y114.371 E14.43403
G1 X122.343 Y114.164 E14.47918
G1 X123.242 Y114.016 E14.52463
G1 X124.105 Y113.932 E14.56789
G1 X125.022 Y113.902 E14.61367
G1 X125.92 Y113.934 E14.6585
G1 X126.803 Y114.022 E14.70277
G1 X127.717 Y114.176 E14.74901
G1 X128.579 Y114.382 E14.79323
G1 X129.424 Y114.642 E14.83733
G1 X130.262 Y114.961 E14.88207
G1 X131.096 Y115.346 E14.9279
G1 X131.87 Y115.766 E14.97183
G1 X132.658 Y116.264 E15.01834
G1 X133.375 Y116.789 E15.06267
G1 X134.049 Y117.352 E15.10649
G1 X134.707 Y117.978 E15.1518
G1 X135.304 Y118.628 E15.19583
G1 X135.881 Y119.344 E15.2417
G1 X136.401 Y120.09 E15.28707
G1 X136.858 Y120.848 E15.33123
G1 X137.279 Y121.661 E15.37691
G1 X137.626 Y122.456 E15.42018
G1 X137.944 Y123.336 E15.46686
G1 X138.176 Y124.142 E15.50871
G1 X138.379 Y125.067 E15.55596
G1 X138.509 Y125.951 E15.60053
G1 X138.582 Y126.839 E15.64498
G1 X138.596 Y127.743 E15.69009
G1 X138.55 Y128.65 E15.7354
G1 X138.448 Y129.52 E15.7791
G1 X138.279 Y130.43 E15.82528
G1 X138.069 Y131.254 E15.8677
G1 X137.772 Y132.168 E15.91565
G1 X137.444 Y132.981 E15.95939
G1 X137.053 Y133.794 E16.00439
G1 X136.618 Y134.565 E16.04856
G1 X136.131 Y135.311 E16.093
G1 X135.576 Y136.047 E16.13899
G1 X134.991 Y136.724 E16.18363
G1 X134.354 Y137.369 E16.22886
G1 X133.698 Y137.951 E16.27261
G1 X132.974 Y138.515 E16.3184
G1 X132.215 Y139.026 E16.36405
G1 X131.466 Y139.461 E16.40726
G1 X130.649 Y139.868 E16.4528
G1 X129.806 Y140.219 E16.49835
G1 X128.966 Y140.505 E16.54263
G1 X128.113 Y140.736 E16.58671
G1 X127.202 Y140.918 E16.63306
G1 X126.328 Y141.032 E16.67704
G1 X125.453 Y141.09 E16.72079
G1 X124.529 Y141.09 E16.76688
G1 X123.633 Y141.029 E16.81169
G1 X122.752 Y140.911 E16.85604
G1 X121.841 Y140.726 E16.90241
G1 X120.99 Y140.493 E16.94643
G1 X120.139 Y140.199 E16.99135
G1 X119.338 Y139.863 E17.03469
G1 X118.529 Y139.46 E17.07978
G1 X117.75 Y139.004 E17.12481
G1 X117.015 Y138.506 E17.16911
G1 X116.277 Y137.932 E17.21575
G1 X115.609 Y137.335 E17.26045
G1 X114.982 Y136.695 E17.30515
G1 X114.392 Y136.007 E17.35036
G1 X113.861 Y135.298 E17.39456
G1 X113.36 Y134.529 E17.44034
G1 X112.922 Y133.747 E17.48506
G1 X112.544 Y132.954 E17.52889
G1 X112.202 Y132.097 E17.57492
G1 X111.93 Y131.25 E17.61931
G1 X111.718 Y130.41 E17.66253
G1 X111.548 Y129.49 E17.7092
G1 X111.446 Y128.591 E17.75434
G1 X111.404 Y127.702 E17.79875
G0 F3600 X111.804 Y127.703
G1 F1800 X111.819 Y126.836 E17.84201
G1 X111.891 Y125.967 E17.88551
G1 X112.02 Y125.11 E17.92875
G1 X112.211 Y124.24 E17.97319
G1 X112.452 Y123.412 E18.01621
G1 X112.755 Y122.577 E18.06053
G1 X113.099 Y121.797 E18.10306
G1 X113.507 Y121.012 E18.14719
G1 X113.959 Y120.27 E18.19054
G1 X114.441 Y119.582 E18.23245
G1 X115.01 Y118.874 E18.27777
G1 X115.596 Y118.24 E18.32084
G1 X116.234 Y117.634 E18.36474
G1 X116.927 Y117.06 E18.40963
G1 X117.583 Y116.585 E18.45004
G1 X118.325 Y116.114 E18.49388
G1 X119.126 Y115.681 E18.53931
G1 X119.885 Y115.334 E18.58095
G1 X120.729 Y115.013 E18.626
G1 X121.56 Y114.758 E18.66936
G1 X122.414 Y114.558 E18.71312
G1 X123.287 Y114.414 E18.75727
G1 X124.125 Y114.332 E18.79927
G1 X125.014 Y114.302 E18.84365
G1 X125.886 Y114.332 E18.88718
G1 X126.744 Y114.418 E18.9302
G1 X127.63 Y114.567 E18.97503
G1 X128.467 Y114.766 E19.01795
G1 X129.288 Y115.019 E19.06081
G1 X130.101 Y115.327 E19.10418
G1 X130.91 Y115.7 E19.14863
G1 X131.663 Y116.108 E19.19135
G1 X132.427 Y116.59 E19.23642
G1 X133.123 Y117.1 E19.27947
G1 X133.778 Y117.646 E19.32201
G1 X134.417 Y118.254 E19.36602
G1 X134.997 Y118.884 E19.40874
G1 X135.556 Y119.578 E19.4532
G1 X136.062 Y120.302 E19.49727
G1 X136.506 Y121.037 E19.54011
G1 X136.915 Y121.826 E19.58444
G1 X137.253 Y122.599 E19.62654
G1 X137.561 Y123.451 E19.67173
G1 X137.787 Y124.235 E19.71244
G1 X137.984 Y125.131 E19.75821
G1 X138.111 Y125.99 E19.80153
G1 X138.182 Y126.852 E19.84468
G1 X138.196 Y127.729 E19.88844
G1 X138.152 Y128.61 E19.93245
G1 X138.053 Y129.454 E19.97485
G1 X137.89 Y130.337 E20.01964
G1 X137.686 Y131.138 E20.06088
G1 X137.399 Y132.024 E20.10734
G1 X137.08 Y132.814 E20.14985
G1 X136.702 Y133.603 E20.1935
G1 X136.28 Y134.352 E20.23639
G1 X135.807 Y135.076 E20.27953
G1 X135.27 Y135.79 E20.32411
G1 X134.701 Y136.448 E20.36751
G1 X134.084 Y137.074 E20.41136
G1 X133.447 Y137.64 E20.45387
G1 X132.745 Y138.187 E20.49827
G1 X132.009 Y138.683 E20.54255
G1 X131.282 Y139.106 E20.58451
G1 X130.489 Y139.502 E20.62873
G1 X129.672 Y139.843 E20.6729
G1 X128.856 Y140.121 E20.71591
G1 X128.028 Y140.345 E20.7587
G1 X127.145 Y140.522 E20.80363
G1 X126.296 Y140.633 E20.84635
G1 X125.446 Y140.69 E20.88885
G1 X124.55 Y140.69 E20.93355
G1 X123.68 Y140.631 E20.97706
G1 X122.825 Y140.517 E21.02009
G1 X121.941 Y140.339 E21.06508
G1 X121.115 Y140.112 E21.10782
G1 X120.289 Y139.828 E21.15139
G1 X119.51 Y139.501 E21.19354
G1 X118.725 Y139.111 E21.23727
G1 X117.969 Y138.669 E21.28096
G1 X117.255 Y138.186 E21.32397
G1 X116.539 Y137.629 E21.36923
G1 X115.89 Y137.05 E21.41262
G1 X115.282 Y136.43 E21.45594
G1 X114.709 Y135.763 E21.49981
G1 X114.192 Y135.074 E21.54279
G1 X113.706 Y134.329 E21.58717
G1 X113.281 Y133.569 E21.63061
G1 X112.913 Y132.799 E21.67319
G1 X112.581 Y131.968 E21.71783
G1 X112.316 Y131.147 E21.76087
G1 X112.11 Y130.331 E21.80286
G1 X111.945 Y129.438 E21.84817
G1 X111.845 Y128.566 E21.89195
G1 X111.804 Y127.703 E21.93506
G0 F3600 X112.204 Y127.703
G1 F1800 X112.218 Y126.863 E21.97697
G1 X112.288 Y126.021 E22.01912
