;FLAVOR:Marlin
;TIME:1130
;Filament used: 1.03338m
;Layer height: 0.15
;MINX:104.7
;MINY:115.4
;MINZ:0.3
;MAXX:145.3
;MAXY:139.6
;MAXZ:19.95
;Generated with Cura_SteamEngine 5.0.0
M140 S60
M105
M190 S60
M104 S200
M105
M109 S200
M82 ;absolute extrusion mode
G21 ;metric values
G90 ;absolute positioning
M82 ;set extruder to absolute mode
M107 ;start with the fan off
G28 X0 Y0 ;move X/Y to min endstops
M300 S1318 P266
G28 Z0 ;move Z to min endstops
G0 Z0.2
G92 E0 ;zero the extruded length
G1 X40 E25 F400 ; Extrude 25mm of filament in a 4cm line. Reduce speed (F) if you have a nozzle smaller than 0.4mm!
G92 E0 ;zero the extruded length again
G1 E-1 F500 ; Retract a little
G1 X80 F4000 ; Quickly wipe away from the filament line
M117 ; Printing…
G5
G92 E0
G92 E0
G1 F1500 E-6.5
;LAYER_COUNT:132
;LAYER:0
M107
G0 F3600 X107.123 Y117.549 Z0.3
G0 X104.7 Y123.2
;TYPE:SKIRT
G1 F1500 E0
G1 F1800 X104.74 Y122.411 E0.03941
G1 X104.859 Y121.631 E0.07878
G1 X105.057 Y120.866 E0.1182
G1 X105.331 Y120.126 E0.15757
G1 X105.679 Y119.417 E0.19697
G1 X106.097 Y118.746 E0.23641
G1 X106.58 Y118.122 E0.27578
G1 X107.123 Y117.549 E0.31517
G1 X107.722 Y117.034 E0.35458
G1 X108.37 Y116.583 E0.39397
G1 X109.061 Y116.199 E0.43341
G1 X109.786 Y115.887 E0.47278
G1 X110.539 Y115.65 E0.51217
G1 X111.313 Y115.491 E0.55159
G1 X112.098 Y115.41 E0.59096
G1 X112.5 Y115.4 E0.61102
G1 X137.5 Y115.4 E1.85828
G1 X138.289 Y115.44 E1.89769
G1 X139.069 Y115.559 E1.93706
G1 X139.834 Y115.757 E1.97648
G1 X140.574 Y116.031 E2.01585
G1 X141.283 Y116.379 E2.05525
G1 X141.954 Y116.797 E2.09469
G1 X142.578 Y117.28 E2.13406
G1 X143.151 Y117.823 E2.17344
G1 X143.666 Y118.422 E2.21285
G1 X144.117 Y119.07 E2.25224
G1 X144.501 Y119.761 E2.29168
G1 X144.813 Y120.486 E2.33106
G1 X145.05 Y121.239 E2.37044
G1 X145.209 Y122.013 E2.40987
G1 X145.29 Y122.798 E2.44924
G1 X145.3 Y123.2 E2.4693
G1 X145.3 Y131.8 E2.89835
G1 X145.26 Y132.589 E2.93777
G1 X145.141 Y133.369 E2.97713
G1 X144.943 Y134.134 E3.01656
G1 X144.669 Y134.874 E3.05593
G1 X144.321 Y135.583 E3.09533
G1 X143.903 Y136.254 E3.13477
G1 X143.42 Y136.878 E3.17414
G1 X142.877 Y137.451 E3.21352
G1 X142.278 Y137.966 E3.25293
G1 X141.63 Y138.417 E3.29232
G1 X140.939 Y138.801 E3.33176
G1 X140.214 Y139.113 E3.37114
G1 X139.461 Y139.35 E3.41052
G1 X138.687 Y139.509 E3.44994
G1 X137.902 Y139.59 E3.48931
G1 X137.5 Y139.6 E3.50938
G1 X112.5 Y139.6 E4.75663
G1 X111.711 Y139.56 E4.79605
G1 X110.931 Y139.441 E4.83541
G1 X110.166 Y139.243 E4.87483
G1 X109.426 Y138.969 E4.9142
G1 X108.717 Y138.621 E4.95361
G1 X108.046 Y138.203 E4.99305
G1 X107.422 Y137.72 E5.03241
G1 X106.849 Y137.177 E5.0718
G1 X106.334 Y136.578 E5.11121
G1 X105.883 Y135.93 E5.1506
G1 X105.499 Y135.239 E5.19004
G1 X105.187 Y134.514 E5.22941
G1 X104.95 Y133.761 E5.2688
G1 X104.791 Y132.987 E5.30822
G1 X104.71 Y132.202 E5.34759
G1 X104.7 Y131.8 E5.36765
G1 X104.7 Y123.2 E5.79671
G0 F3600 X105.1 Y123.2
G1 F1800 X105.14 Y122.432 E5.83508
G1 X105.259 Y121.672 E5.87346
G1 X105.457 Y120.929 E5.91182
G1 X105.731 Y120.21 E5.95021
G1 X106.078 Y119.524 E5.98856
G1 X106.494 Y118.877 E6.02693
G1 X106.975 Y118.277 E6.0653
G1 X107.516 Y117.73 E6.10368
G1 X108.111 Y117.242 E6.14207
G1 X108.753 Y116.819 E6.18043
G1 X109.436 Y116.464 E6.21883
G1 X110.151 Y116.183 E6.25716
G1 X110.893 Y115.977 E6.29558
G1 X111.651 Y115.849 E6.33393
G1 X112.5 Y115.8 E6.37636
G1 X137.5 Y115.8 E7.62362
G1 X138.268 Y115.84 E7.66198
G1 X139.028 Y115.959 E7.70036
G1 X139.771 Y116.157 E7.73872
G1 X140.49 Y116.431 E7.77711
G1 X141.176 Y116.778 E7.81547
G1 X141.823 Y117.194 E7.85384
G1 X142.423 Y117.675 E7.89221
G1 X142.97 Y118.216 E7.93059
G1 X143.458 Y118.811 E7.96898
G1 X143.881 Y119.453 E8.00734
G1 X144.236 Y120.136 E8.04574
G1 X144.517 Y120.851 E8.08407
G1 X144.723 Y121.593 E8.12249
G1 X144.851 Y122.351 E8.16084
G1 X144.9 Y123.2 E8.20327
G1 X144.9 Y131.8 E8.63232
G1 X144.86 Y132.568 E8.67069
G1 X144.741 Y133.328 E8.70907
G1 X144.543 Y134.071 E8.74743
G1 X144.269 Y134.79 E8.78582
G1 X143.922 Y135.476 E8.82417
G1 X143.506 Y136.123 E8.86255
G1 X143.025 Y136.723 E8.90091
G1 X142.484 Y137.27 E8.9393
G1 X141.889 Y137.758 E8.97769
G1 X141.247 Y138.181 E9.01604
G1 X140.564 Y138.536 E9.05445
G1 X139.849 Y138.817 E9.09277
G1 X139.107 Y139.023 E9.13119
G1 X138.349 Y139.151 E9.16954
G1 X137.5 Y139.2 E9.21197
G1 X112.5 Y139.2 E10.45923
G1 X111.732 Y139.16 E10.49759
G1 X110.972 Y139.041 E10.53597
G1 X110.229 Y138.843 E10.57434
G1 X109.51 Y138.569 E10.61272
G1 X108.824 Y138.222 E10.65108
G1 X108.177 Y137.806 E10.68945
G1 X107.577 Y137.325 E10.72782
G1 X107.03 Y136.784 E10.7662
G1 X106.542 Y136.189 E10.80459
G1 X106.119 Y135.547 E10.84295
G1 X105.764 Y134.864 E10.88135
G1 X105.483 Y134.149 E10.91968
G1 X105.277 Y133.407 E10.9581
G1 X105.149 Y132.649 E10.99645
G1 X105.1 Y131.8 E11.03888
G1 X105.1 Y123.2 E11.46793
G0 F3600 X105.5 Y123.2
G1 F1800 X105.54 Y122.453 E11.50525
G1 X105.659 Y121.715 E11.54255
G1 X105.857 Y120.993 E11.5799
G1 X106.13 Y120.297 E11.6172
G1 X106.477 Y119.634 E11.65453
G1 X106.892 Y119.011 E11.69188
G1 X107.371 Y118.437 E11.72918
G1 X107.908 Y117.916 E11.76651
G1 X108.498 Y117.457 E11.8038
G1 X109.134 Y117.062 E11.84115
G1 X109.808 Y116.738 E11.87846
G1 X110.513 Y116.488 E11.91578
G1 X111.241 Y116.314 E11.95312
G1 X111.983 Y116.219 E11.99044
G1 X112.5 Y116.2 E12.01625
G1 X137.5 Y116.2 E13.26351
G1 X138.247 Y116.24 E13.30083
G1 X138.985 Y116.359 E13.33812
G1 X139.707 Y116.557 E13.37548
G1 X140.403 Y116.83 E13.41277
G1 X141.066 Y117.177 E13.45011
G1 X141.689 Y117.592 E13.48745
G1 X142.263 Y118.071 E13.52475
G1 X142.784 Y118.608 E13.56208
G1 X143.243 Y119.198 E13.59937
G1 X143.638 Y119.834 E13.63673
G1 X143.962 Y120.508 E13.67404
G1 X144.212 Y121.213 E13.71135
G1 X144.386 Y121.941 E13.7487
G1 X144.481 Y122.683 E13.78602
G1 X144.5 Y123.2 E13.81183
G1 X144.5 Y131.8 E14.24088
G1 X144.46 Y132.547 E14.27821
G1 X144.341 Y133.285 E14.3155
G1 X144.143 Y134.007 E14.35285
G1 X143.87 Y134.703 E14.39015
G1 X143.523 Y135.366 E14.42748
G1 X143.108 Y135.989 E14.46483
G1 X142.629 Y136.563 E14.50213
G1 X142.092 Y137.084 E14.53946
G1 X141.502 Y137.543 E14.57675
G1 X140.866 Y137.938 E14.6141
G1 X140.192 Y138.262 E14.65141
G1 X139.487 Y138.512 E14.68873
G1 X138.759 Y138.686 E14.72607
G1 X138.017 Y138.781 E14.76339
G1 X137.5 Y138.8 E14.7892
G1 X112.5 Y138.8 E16.03646
G1 X111.753 Y138.76 E16.07378
G1 X111.015 Y138.641 E16.11108
G1 X110.293 Y138.443 E16.14843
G1 X109.597 Y138.17 E16.18573
G1 X108.934 Y137.823 E16.22306
G1 X108.311 Y137.408 E16.26041
G1 X107.737 Y136.929 E16.2977
G1 X107.216 Y136.392 E16.33503
G1 X106.757 Y135.802 E16.37233
G1 X106.362 Y135.166 E16.40968
G1 X106.038 Y134.492 E16.44699
G1 X105.788 Y133.787 E16.48431
G1 X105.614 Y133.059 E16.52165
G1 X105.519 Y132.317 E16.55897
G1 X105.5 Y131.8 E16.58478
G1 X105.5 Y123.2 E17.01384
G0 F3600 X105.9 Y123.2
G1 F1800 X105.94 Y122.475 E17.05006
G1 X106.059 Y121.758 E17.08632
G1 X106.257 Y121.059 E17.12257
G1 X106.53 Y120.386 E17.1588
G1 X106.875 Y119.747 E17.19503
G1 X107.289 Y119.15 E17.23128
G1 X107.765 Y118.602 E17.26749
G1 X108.299 Y118.109 E17.30375
G1 X108.884 Y117.679 E17.33997
G1 X109.513 Y117.315 E17.37623
G1 X110.178 Y117.022 E17.41248
G1 X110.871 Y116.804 E17.44873
G1 X111.583 Y116.664 E17.48493
G1 X112.5 Y116.6 E17.53079
G1 X137.5 Y116.6 E18.77804
G1 X138.225 Y116.64 E18.81427
G1 X138.942 Y116.759 E18.85053
G1 X139.641 Y116.957 E18.88677
G1 X140.314 Y117.23 E18.92301
G1 X140.953 Y117.575 E18.95924
G1 X141.55 Y117.989 E18.99548
G1 X142.098 Y118.465 E19.0317
G1 X142.591 Y118.999 E19.06796
G1 X143.021 Y119.584 E19.10418
G1 X143.385 Y120.213 E19.14043
G1 X143.678 Y120.878 E19.17669
G1 X143.896 Y121.571 E19.21293
G1 X144.036 Y122.283 E19.24913
G1 X144.1 Y123.2 E19.295
G1 X144.1 Y131.8 E19.72405
G1 X144.06 Y132.525 E19.76028
G1 X143.941 Y133.242 E19.79654
G1 X143.743 Y133.941 E19.83278
G1 X143.47 Y134.614 E19.86902
G1 X143.125 Y135.253 E19.90525
G1 X142.711 Y135.85 E19.94149
G1 X142.235 Y136.398 E19.9777
G1 X141.701 Y136.891 E20.01396
G1 X141.116 Y137.321 E20.05019
G1 X140.487 Y137.685 E20.08644
G1 X139.822 Y137.978 E20.1227
G1 X139.129 Y138.196 E20.15894
G1 X138.417 Y138.336 E20.19514
G1 X137.5 Y138.4 E20.241
G1 X112.5 Y138.4 E21.48826
G1 X111.775 Y138.36 E21.52448
G1 X111.058 Y138.241 E21.56074
G1 X110.359 Y138.043 E21.59699
G1 X109.686 Y137.77 E21.63322
G1 X109.047 Y137.425 E21.66945
G1 X108.45 Y137.011 E21.7057
G1 X107.902 Y136.535 E21.74191
G1 X107.409 Y136.001 E21.77817
G1 X106.979 Y135.416 E21.81439
G1 X106.615 Y134.787 E21.85065
G1 X106.322 Y134.122 E21.8869
G1 X106.104 Y133.429 E21.92315
G1 X105.964 Y132.717 E21.95935
G1 X105.9 Y131.8 E22.00521
G1 X105.9 Y123.2 E22.43427
G0 F3600 X106.3 Y123.2
G1 F1800 X106.34 Y122.497 E22.4694
G1 X106.459 Y121.803 E22.50453
G1 X106.657 Y121.128 E22.53962
G1 X106.929 Y120.479 E22.57473
G1 X107.274 Y119.865 E22.60986
G1 X107.685 Y119.294 E22.64496
G1 X108.159 Y118.773 E22.6801
G1 X108.689 Y118.309 E22.71525
G1 X109.268 Y117.909 E22.75036
G1 X109.889 Y117.577 E22.78549
G1 X110.543 Y117.317 E22.8206
G1 X111.223 Y117.133 E22.85575
G1 X111.919 Y117.027 E22.89087
G1 X112.5 Y117 E22.91989
G1 X137.5 Y117 E24.16714
G1 X138.203 Y117.04 E24.20227
G1 X138.897 Y117.159 E24.2374
G1 X139.572 Y117.357 E24.2725
G1 X140.221 Y117.629 E24.3076
G1 X140.835 Y117.974 E24.34274
G1 X141.406 Y118.385 E24.37784
G1 X141.927 Y118.859 E24.41298
G1 X142.391 Y119.389 E24.44812
G1 X142.791 Y119.968 E24.48323
G1 X143.123 Y120.589 E24.51836
G1 X143.383 Y121.243 E24.55348
G1 X143.567 Y121.923 E24.58862
G1 X143.673 Y122.619 E24.62375
G1 X143.7 Y123.2 E24.65276
G1 X143.7 Y131.8 E25.08182
G1 X143.66 Y132.503 E25.11695
G1 X143.541 Y133.197 E25.15208
G1 X143.343 Y133.872 E25.18717
G1 X143.071 Y134.521 E25.22228
G1 X142.726 Y135.135 E25.25742
G1 X142.315 Y135.706 E25.29252
G1 X141.841 Y136.227 E25.32766
G1 X141.311 Y136.691 E25.3628
G1 X140.732 Y137.091 E25.39791
G1 X140.111 Y137.423 E25.43304
G1 X139.457 Y137.683 E25.46815
G1 X138.777 Y137.867 E25.5033
G1 X138.081 Y137.973 E25.53842
G1 X137.5 Y138 E25.56744
G1 X112.5 Y138 E26.8147
G1 X111.797 Y137.96 E26.84982
G1 X111.103 Y137.841 E26.88495
G1 X110.428 Y137.643 E26.92005
G1 X109.779 Y137.371 E26.95516
G1 X109.165 Y137.026 E26.99029
G1 X108.594 Y136.615 E27.02539
G1 X108.073 Y136.141 E27.06053
G1 X107.609 Y135.611 E27.09568
G1 X107.209 Y135.032 E27.13079
G1 X106.877 Y134.411 E27.16592
G1 X106.617 Y133.757 E27.20103
G1 X106.433 Y133.077 E27.23617
G1 X106.327 Y132.381 E27.2713
G1 X106.3 Y131.8 E27.30032
G1 X106.3 Y123.2 E27.72937
G0 F3600 X106.7 Y123.2
G1 F1800 X106.74 Y122.52 E27.76336
G1 X106.859 Y121.85 E27.79731
G1 X107.056 Y121.198 E27.83129
G1 X107.328 Y120.574 E27.86525
G1 X107.672 Y119.986 E27.89923
G1 X108.082 Y119.442 E27.93322
G1 X108.553 Y118.951 E27.96716
G1 X109.078 Y118.517 E28.00115
G1 X109.65 Y118.148 E28.03511
G1 X110.262 Y117.849 E28.06909
G1 X110.904 Y117.624 E28.10303
G1 X111.569 Y117.475 E28.13703
G1 X112.5 Y117.4 E28.18363
G1 X137.5 Y117.4 E29.43088
G1 X138.18 Y117.44 E29.46487
G1 X138.85 Y117.559 E29.49881
G1 X139.502 Y117.756 E29.5328
G1 X140.126 Y118.028 E29.56676
G1 X140.714 Y118.372 E29.60074
G1 X141.258 Y118.782 E29.63473
G1 X141.749 Y119.253 E29.66867
G1 X142.183 Y119.778 E29.70266
G1 X142.552 Y120.35 E29.73662
G1 X142.851 Y120.962 E29.7706
G1 X143.076 Y121.604 E29.80454
G1 X143.225 Y122.269 E29.83854
G1 X143.3 Y123.2 E29.88514
G1 X143.3 Y131.8 E30.31419
G1 X143.26 Y132.48 E30.34818
G1 X143.141 Y133.15 E30.38212
G1 X142.944 Y133.802 E30.41611
G1 X142.672 Y134.426 E30.45007
G1 X142.328 Y135.014 E30.48405
G1 X141.918 Y135.558 E30.51804
G1 X141.447 Y136.049 E30.55198
G1 X140.922 Y136.483 E30.58597
G1 X140.35 Y136.852 E30.61993
G1 X139.738 Y137.151 E30.65391
G1 X139.096 Y137.376 E30.68785
G1 X138.431 Y137.525 E30.72185
G1 X137.5 Y137.6 E30.76845
G1 X112.5 Y137.6 E32.0157
G1 X111.82 Y137.56 E32.04968
G1 X111.15 Y137.441 E32.08363
G1 X110.498 Y137.244 E32.11762
G1 X109.874 Y136.972 E32.15158
G1 X109.286 Y136.628 E32.18556
G1 X108.742 Y136.218 E32.21955
G1 X108.251 Y135.747 E32.25349
G1 X107.817 Y135.222 E32.28748
G1 X107.448 Y134.65 E32.32144
G1 X107.149 Y134.038 E32.35542
G1 X106.924 Y133.396 E32.38936
G1 X106.775 Y132.731 E32.42336
G1 X106.7 Y131.8 E32.46995
G1 X106.7 Y123.2 E32.89901
G0 F3600 X107.1 Y123.2
G1 F1800 X107.14 Y122.544 E32.9318
G1 X107.259 Y121.898 E32.96457
G1 X107.456 Y121.271 E32.99736
G1 X107.728 Y120.673 E33.03014
G1 X108.07 Y120.112 E33.06291
G1 X108.478 Y119.597 E33.09569
G1 X108.945 Y119.135 E33.12847
G1 X109.465 Y118.734 E33.16123
G1 X110.029 Y118.398 E33.19398
G1 X110.631 Y118.134 E33.22678
G1 X111.26 Y117.944 E33.25956
G1 X111.907 Y117.833 E33.29231
G1 X112.5 Y117.8 E33.32194
G1 X137.5 Y117.8 E34.56919
G1 X138.156 Y117.84 E34.60198
G1 X138.802 Y117.959 E34.63475
G1 X139.429 Y118.156 E34.66754
G1 X140.027 Y118.428 E34.70032
G1 X140.588 Y118.77 E34.7331
G1 X141.103 Y119.178 E34.76588
G1 X141.565 Y119.645 E34.79865
G1 X141.966 Y120.165 E34.83141
G1 X142.302 Y120.729 E34.86416
G1 X142.566 Y121.331 E34.89696
G1 X142.756 Y121.96 E34.92974
G1 X142.867 Y122.607 E34.96249
G1 X142.9 Y123.2 E34.99212
G1 X142.9 Y131.8 E35.42118
G1 X142.86 Y132.456 E35.45397
G1 X142.741 Y133.102 E35.48674
G1 X142.544 Y133.729 E35.51953
G1 X142.272 Y134.327 E35.5523
G1 X141.93 Y134.888 E35.58508
G1 X141.522 Y135.403 E35.61786
G1 X141.055 Y135.865 E35.65063
G1 X140.535 Y136.266 E35.68339
G1 X139.971 Y136.602 E35.71615
G1 X139.369 Y136.866 E35.74894
G1 X138.74 Y137.056 E35.78172
G1 X138.093 Y137.167 E35.81447
G1 X137.5 Y137.2 E35.84411
G1 X112.5 Y137.2 E37.09136
G1 X111.844 Y137.16 E37.12415
G1 X111.198 Y137.041 E37.15692
G1 X110.571 Y136.844 E37.18971
G1 X109.973 Y136.572 E37.22248
G1 X109.412 Y136.23 E37.25526
G1 X108.897 Y135.822 E37.28804
G1 X108.435 Y135.355 E37.32082
G1 X108.034 Y134.835 E37.35358
G1 X107.698 Y134.271 E37.38633
G1 X107.434 Y133.669 E37.41913
G1 X107.244 Y133.04 E37.45191
G1 X107.133 Y132.393 E37.48466
G1 X107.1 Y131.8 E37.51429
G1 X107.1 Y123.2 E37.94334
G0 F3600 X107.5 Y123.2
G1 F1800 X107.54 Y122.569 E37.97489
G1 X107.659 Y121.948 E38.00643
G1 X107.856 Y121.348 E38.03794
G1 X108.127 Y120.776 E38.06952
G1 X108.467 Y120.244 E38.10102
G1 X108.873 Y119.759 E38.13257
G1 X109.336 Y119.329 E38.1641
G1 X109.85 Y118.96 E38.19566
G1 X110.406 Y118.66 E38.22718
G1 X110.995 Y118.432 E38.25869
G1 X111.609 Y118.28 E38.29025
G1 X112.5 Y118.2 E38.33488
G1 X137.5 Y118.2 E39.58214
G1 X138.131 Y118.24 E39.61368
G1 X138.752 Y118.359 E39.64523
G1 X139.352 Y118.556 E39.67673
G1 X139.924 Y118.827 E39.70831
G1 X140.456 Y119.167 E39.73981
G1 X140.941 Y119.573 E39.77137
G1 X141.371 Y120.036 E39.80289
G1 X141.74 Y120.55 E39.83446
G1 X142.04 Y121.106 E39.86598
G1 X142.268 Y121.695 E39.89749
G1 X142.42 Y122.309 E39.92904
G1 X142.5 Y123.2 E39.97367
G1 X142.5 Y131.8 E40.40273
G1 X142.46 Y132.431 E40.43427
G1 X142.341 Y133.052 E40.46582
G1 X142.144 Y133.652 E40.49733
G1 X141.873 Y134.224 E40.5289
G1 X141.533 Y134.756 E40.5604
G1 X141.127 Y135.241 E40.59196
G1 X140.664 Y135.671 E40.62348
G1 X140.15 Y136.04 E40.65505
G1 X139.594 Y136.34 E40.68657
G1 X139.005 Y136.568 E40.71808
G1 X138.391 Y136.72 E40.74964
G1 X137.5 Y136.8 E40.79427
G1 X112.5 Y136.8 E42.04152
G1 X111.869 Y136.76 E42.07307
G1 X111.248 Y136.641 E42.10461
G1 X110.648 Y136.444 E42.13612
G1 X110.076 Y136.173 E42.1677
G1 X109.544 Y135.833 E42.1992
G1 X109.059 Y135.427 E42.23075
G1 X108.629 Y134.964 E42.26228
G1 X108.26 Y134.45 E42.29384
G1 X107.96 Y133.894 E42.32536
G1 X107.732 Y133.305 E42.35687
G1 X107.58 Y132.691 E42.38843
G1 X107.5 Y131.8 E42.43306
G1 X107.5 Y123.2 E42.86212
G0 F3600 X107.9 Y123.2
