;FLAVOR:Marlin
;TIME:497
;Filament used: 0.463036m
;Layer height: 0.15
;MINX:103.75
;MINY:103.477
;MINZ:0.3
;MAXX:146.25
;MAXY:140.223
;MAXZ:1.8
;Generated with Cura_SteamEngine 5.0.0
M140 S55
M105
M190 S55
M104 S228
M105
M109 S228
M82 ;absolute extrusion mode
G21 ;metric values
G90 ;absolute positioning
M82 ;set extruder to absolute mode
M107 ;start with the fan off
G28 X0 Y0 ;move X/Y to min endstops
M300 S1318 P266
G28 Z0 ;move Z to min endstops
G0 Z0.2
G92 E0 ;zero the extruded length
G1 X40 E25 F400 ; Extrude 25mm of filament in a 4cm line. Reduce speed (F) if you have a nozzle smaller than 0.4mm!
G92 E0 ;zero the extruded length again
G1 E-1 F500 ; Retract a little
G1 X80 F4000 ; Quickly wipe away from the filament line
M117 ; Printing…
G5
G92 E0
G92 E0
G1 F1500 E-6.5
;LAYER_COUNT:11
;LAYER:0
M107
G0 F3600 X106.311 Y105.752 Z0.3
G0 X103.75 Y111.698
;TYPE:SKIRT
G1 F1500 E0
G1 F1800 X103.79 Y110.909 E0.03941
G1 X103.909 Y110.128 E0.07883
G1 X104.107 Y109.364 E0.1182
G1 X104.391 Y108.597 E0.15901
G1 X104.86 Y107.614 E0.21335
G1 X105.28 Y106.945 E0.25275
G1 X105.765 Y106.322 E0.29214
G1 X106.311 Y105.752 E0.33152
G1 X106.912 Y105.239 E0.37095
G1 X107.351 Y104.924 E0.3979
G1 X108.206 Y104.404 E0.44783
G1 X108.922 Y104.071 E0.48722
G1 X109.668 Y103.813 E0.5266
G1 X110.355 Y103.646 E0.56188
G1 X111.135 Y103.522 E0.60128
G1 X111.969 Y103.477 E0.64295
G1 X138.068 Y103.48 E1.94503
G1 X138.857 Y103.52 E1.98445
G1 X139.637 Y103.64 E2.02382
G1 X140.402 Y103.838 E2.06324
G1 X141.167 Y104.123 E2.10397
G1 X142.092 Y104.567 E2.15516
G1 X142.761 Y104.987 E2.19457
G1 X143.384 Y105.472 E2.23396
G1 X143.954 Y106.018 E2.27334
G1 X144.476 Y106.631 E2.31351
G1 X145.055 Y107.452 E2.36363
G1 X145.435 Y108.144 E2.40302
G1 X145.742 Y108.871 E2.44239
G1 X145.957 Y109.551 E2.47797
G1 X146.131 Y110.321 E2.51735
G1 X146.227 Y111.105 E2.55676
G1 X146.247 Y111.656 E2.58427
G1 X146.25 Y120.702 E3.03557
G1 X146.21 Y121.491 E3.07499
G1 X146.157 Y121.836 E3.0924
G1 X146.227 Y122.405 E3.121
G1 X146.247 Y122.956 E3.14851
G1 X146.25 Y132.002 E3.59982
G1 X146.21 Y132.791 E3.63923
G1 X146.091 Y133.572 E3.67864
G1 X145.893 Y134.336 E3.71802
G1 X145.621 Y135.074 E3.75726
G1 X145.155 Y136.062 E3.81176
G1 X144.738 Y136.732 E3.85113
G1 X144.255 Y137.357 E3.89054
G1 X143.711 Y137.93 E3.92996
G1 X143.113 Y138.445 E3.96933
G1 X142.571 Y138.83 E4.0025
G1 X141.712 Y139.339 E4.05231
G1 X140.992 Y139.663 E4.0917
G1 X140.242 Y139.912 E4.13113
G1 X139.659 Y140.052 E4.16104
G1 X138.879 Y140.177 E4.20045
G1 X138.032 Y140.223 E4.24277
G1 X111.932 Y140.22 E5.54491
G1 X111.143 Y140.18 E5.58432
G1 X110.363 Y140.06 E5.62369
G1 X109.598 Y139.862 E5.66312
G1 X108.817 Y139.571 E5.7047
G1 X107.892 Y139.124 E5.75595
G1 X107.224 Y138.702 E5.79537
G1 X106.602 Y138.216 E5.83475
G1 X106.033 Y137.668 E5.87416
G1 X105.519 Y137.063 E5.91377
G1 X104.942 Y136.242 E5.96383
G1 X104.562 Y135.55 E6.00322
G1 X104.255 Y134.822 E6.04264
G1 X104.043 Y134.149 E6.07784
G1 X103.869 Y133.379 E6.11722
G1 X103.773 Y132.595 E6.15663
G1 X103.753 Y132.044 E6.18414
G1 X103.75 Y122.998 E6.63545
G1 X103.79 Y122.209 E6.67486
G1 X103.843 Y121.864 E6.69227
G1 X103.773 Y121.295 E6.72087
G1 X103.753 Y120.744 E6.74838
G1 X103.75 Y111.698 E7.19969
G0 F3600 X104.15 Y111.697
G1 F1800 X104.19 Y110.929 E7.23806
G1 X104.309 Y110.169 E7.27644
G1 X104.506 Y109.426 E7.31478
G1 X104.759 Y108.756 E7.35051
G1 X105.219 Y107.792 E7.4038
G1 X105.631 Y107.142 E7.4422
G1 X106.107 Y106.539 E7.48053
G1 X106.644 Y105.988 E7.51891
G1 X107.235 Y105.495 E7.55731
G1 X107.748 Y105.14 E7.58843
G1 X108.41 Y104.748 E7.62682
G1 X109.109 Y104.427 E7.66519
G1 X109.837 Y104.181 E7.70353
G1 X110.438 Y104.037 E7.73436
G1 X111.197 Y103.917 E7.7727
G1 X111.969 Y103.877 E7.81126
G1 X138.068 Y103.88 E9.11335
G1 X138.836 Y103.92 E9.15172
G1 X139.596 Y104.04 E9.1901
G1 X140.339 Y104.237 E9.22845
G1 X141.008 Y104.49 E9.26414
G1 X141.914 Y104.926 E9.3143
G1 X142.564 Y105.337 E9.35266
G1 X143.168 Y105.814 E9.39106
G1 X143.718 Y106.351 E9.42941
G1 X144.158 Y106.874 E9.46351
G1 X144.725 Y107.679 E9.51263
G1 X145.092 Y108.355 E9.55101
G1 X145.387 Y109.065 E9.58937
G1 X145.572 Y109.659 E9.62041
G1 X145.741 Y110.409 E9.65876
G1 X145.831 Y111.173 E9.69714
G1 X145.847 Y111.657 E9.7213
G1 X145.85 Y120.703 E10.17261
G1 X145.81 Y121.471 E10.21098
G1 X145.755 Y121.825 E10.22885
G1 X145.831 Y122.473 E10.2614
G1 X145.847 Y122.957 E10.28556
G1 X145.85 Y132.003 E10.73687
G1 X145.81 Y132.771 E10.77523
G1 X145.691 Y133.531 E10.81361
G1 X145.494 Y134.274 E10.85196
G1 X145.253 Y134.917 E10.88622
G1 X144.795 Y135.885 E10.93965
G1 X144.386 Y136.537 E10.97805
G1 X143.912 Y137.142 E11.01639
G1 X143.377 Y137.696 E11.05481
G1 X142.788 Y138.19 E11.09317
G1 X142.354 Y138.494 E11.1196
G1 X141.512 Y138.992 E11.16841
G1 X140.809 Y139.305 E11.2068
G1 X140.078 Y139.543 E11.24515
G1 X139.575 Y139.66 E11.27092
G1 X138.816 Y139.781 E11.30926
G1 X138.032 Y139.823 E11.34843
G1 X111.932 Y139.82 E12.65057
G1 X111.164 Y139.78 E12.68893
G1 X110.404 Y139.66 E12.72732
G1 X109.661 Y139.463 E12.76567
G1 X108.977 Y139.204 E12.80216
G1 X108.071 Y138.765 E12.85239
G1 X107.422 Y138.352 E12.89076
G1 X106.819 Y137.874 E12.92915
G1 X106.27 Y137.336 E12.9675
G1 X105.837 Y136.82 E13.00111
G1 X105.272 Y136.016 E13.05014
G1 X104.905 Y135.34 E13.08851
G1 X104.611 Y134.629 E13.1269
G1 X104.428 Y134.041 E13.15762
G1 X104.259 Y133.291 E13.19597
G1 X104.169 Y132.527 E13.23435
G1 X104.153 Y132.043 E13.25851
G1 X104.15 Y122.997 E13.70982
G1 X104.19 Y122.229 E13.74819
G1 X104.245 Y121.875 E13.76606
G1 X104.169 Y121.227 E13.79861
G1 X104.153 Y120.743 E13.82277
G1 X104.15 Y111.697 E14.27408
G0 F3600 X104.55 Y111.697
G1 F1800 X104.59 Y110.95 E14.3114
G1 X104.709 Y110.212 E14.34869
G1 X104.906 Y109.49 E14.38603
G1 X105.126 Y108.915 E14.41675
G1 X105.578 Y107.97 E14.46901
G1 X105.981 Y107.34 E14.50632
G1 X106.449 Y106.756 E14.54366
G1 X106.976 Y106.226 E14.58095
G1 X107.794 Y105.591 E14.63261
G1 X108.614 Y105.093 E14.68047
G1 X109.295 Y104.784 E14.71778
G1 X110.005 Y104.549 E14.75509
G1 X110.52 Y104.428 E14.78149
G1 X111.259 Y104.313 E14.8188
G1 X111.969 Y104.277 E14.85427
G1 X138.068 Y104.28 E16.15635
G1 X138.815 Y104.32 E16.19367
G1 X139.553 Y104.44 E16.23098
G1 X140.275 Y104.637 E16.26831
G1 X140.849 Y104.857 E16.29898
G1 X141.736 Y105.284 E16.34809
G1 X142.366 Y105.687 E16.38541
G1 X142.95 Y106.156 E16.42277
G1 X143.48 Y106.683 E16.46006
G1 X143.841 Y107.117 E16.48823
G1 X144.394 Y107.905 E16.53626
G1 X144.749 Y108.564 E16.5736
G1 X145.031 Y109.257 E16.61093
G1 X145.187 Y109.767 E16.63753
G1 X145.35 Y110.497 E16.67485
G1 X145.434 Y111.24 E16.71216
G1 X145.447 Y111.657 E16.73297
G1 X145.45 Y120.703 E17.18428
G1 X145.41 Y121.45 E17.2216
G1 X145.352 Y121.812 E17.23989
G1 X145.434 Y122.54 E17.27644
G1 X145.447 Y122.957 E17.29725
G1 X145.45 Y132.003 E17.74856
G1 X145.41 Y132.75 E17.78588
G1 X145.291 Y133.488 E17.82318
G1 X145.094 Y134.21 E17.86051
G1 X144.885 Y134.76 E17.88987
G1 X144.436 Y135.709 E17.94224
G1 X144.035 Y136.341 E17.97959
G1 X143.57 Y136.926 E18.01687
G1 X143.044 Y137.459 E18.05423
G1 X142.465 Y137.932 E18.09153
G1 X141.961 Y138.272 E18.12186
G1 X141.312 Y138.645 E18.15921
G1 X140.627 Y138.946 E18.19653
G1 X139.614 Y139.243 E18.2492
G1 X138.753 Y139.386 E18.29274
G1 X138.032 Y139.423 E18.32876
G1 X111.932 Y139.42 E19.6309
G1 X111.185 Y139.38 E19.66822
G1 X110.447 Y139.26 E19.70552
G1 X109.725 Y139.063 E19.74286
G1 X109.137 Y138.837 E19.77429
G1 X108.25 Y138.407 E19.82346
G1 X107.62 Y138.003 E19.8608
G1 X107.038 Y137.533 E19.89812
G1 X106.509 Y137.004 E19.93545
G1 X106.154 Y136.577 E19.96315
G1 X105.602 Y135.789 E20.01115
G1 X105.249 Y135.13 E20.04845
G1 X104.967 Y134.437 E20.08578
G1 X104.813 Y133.933 E20.11207
G1 X104.65 Y133.203 E20.14939
G1 X104.566 Y132.46 E20.18669
G1 X104.553 Y132.043 E20.2075
G1 X104.55 Y122.997 E20.65881
G1 X104.59 Y122.25 E20.69613
G1 X104.648 Y121.888 E20.71442
G1 X104.566 Y121.16 E20.75097
G1 X104.553 Y120.743 E20.77179
G1 X104.55 Y111.697 E21.22309
G0 F3600 X104.95 Y111.697
G1 F1800 X104.99 Y110.972 E21.25932
G1 X105.109 Y110.255 E21.29558
G1 X105.306 Y109.556 E21.33181
G1 X105.493 Y109.074 E21.3576
G1 X105.937 Y108.149 E21.40879
G1 X106.331 Y107.539 E21.44502
G1 X106.789 Y106.976 E21.48123
G1 X107.307 Y106.467 E21.51746
G1 X108.015 Y105.924 E21.56198
G1 X108.817 Y105.438 E21.60876
G1 X109.48 Y105.141 E21.64501
G1 X110.48 Y104.846 E21.69702
G1 X111.321 Y104.709 E21.73953
G1 X111.969 Y104.677 E21.7719
G1 X138.068 Y104.68 E23.07399
G1 X138.793 Y104.72 E23.11021
G1 X139.509 Y104.84 E23.14643
G1 X140.208 Y105.037 E23.18266
G1 X140.69 Y105.224 E23.20846
G1 X141.557 Y105.643 E23.2565
G1 X142.167 Y106.037 E23.29273
G1 X142.73 Y106.496 E23.32897
G1 X143.239 Y107.014 E23.3652
G1 X143.654 Y107.531 E23.39827
G1 X144.064 Y108.131 E23.43453
G1 X144.405 Y108.773 E23.4708
G1 X144.769 Y109.761 E23.52333
G1 X144.959 Y110.584 E23.56547
G1 X145.047 Y111.657 E23.61918
G1 X145.05 Y120.703 E24.07049
G1 X145.01 Y121.428 E24.10671
G1 X144.959 Y121.884 E24.1296
G1 X145.047 Y122.957 E24.18331
G1 X145.05 Y132.003 E24.63462
G1 X145.01 Y132.728 E24.67085
G1 X144.891 Y133.445 E24.70711
G1 X144.694 Y134.144 E24.74334
G1 X144.398 Y134.88 E24.78292
G1 X144.076 Y135.531 E24.81915
G1 X143.685 Y136.143 E24.85538
G1 X143.228 Y136.708 E24.89164
G1 X142.712 Y137.219 E24.92787
G1 X141.919 Y137.822 E24.97757
G1 X141.113 Y138.297 E25.02425
G1 X140.446 Y138.586 E25.06051
G1 X139.531 Y138.852 E25.10805
G1 X138.691 Y138.99 E25.15052
G1 X138.032 Y139.023 E25.18344
G1 X111.932 Y139.02 E26.48557
G1 X111.207 Y138.98 E26.5218
G1 X110.491 Y138.86 E26.55802
G1 X109.792 Y138.663 E26.59425
G1 X109.296 Y138.47 E26.6208
G1 X108.429 Y138.049 E26.66889
G1 X107.82 Y137.653 E26.70513
G1 X107.258 Y137.193 E26.74136
G1 X106.75 Y136.674 E26.77759
G1 X106.342 Y136.164 E26.81018
G1 X105.933 Y135.564 E26.84641
G1 X105.593 Y134.922 E26.88265
G1 X105.231 Y133.939 E26.93491
G1 X105.041 Y133.116 E26.97705
G1 X104.953 Y132.043 E27.03076
G1 X104.95 Y122.997 E27.48207
G1 X104.99 Y122.272 E27.5183
G1 X105.041 Y121.816 E27.54119
G1 X104.953 Y120.743 E27.5949
G1 X104.95 Y111.697 E28.04621
G0 F3600 X105.35 Y111.697
G1 F1800 X105.39 Y110.994 E28.08134
G1 X105.509 Y110.3 E28.11646
G1 X105.706 Y109.625 E28.15155
G1 X105.979 Y108.958 E28.1875
G1 X106.295 Y108.329 E28.22262
G1 X106.68 Y107.739 E28.25777
G1 X107.129 Y107.197 E28.29288
G1 X107.637 Y106.71 E28.32799
G1 X108.237 Y106.257 E28.3655
G1 X109.02 Y105.784 E28.41114
G1 X109.664 Y105.499 E28.44627
G1 X110.563 Y105.237 E28.49299
G1 X111.382 Y105.105 E28.53438
G1 X111.969 Y105.077 E28.5637
G1 X138.068 Y105.08 E29.86578
G1 X138.771 Y105.12 E29.90091
G1 X139.464 Y105.24 E29.936
G1 X140.14 Y105.437 E29.97113
G1 X140.748 Y105.685 E30.00389
G1 X141.377 Y106.001 E30.039
G1 X141.967 Y106.386 E30.07415
G1 X142.508 Y106.836 E30.10926
G1 X143.206 Y107.604 E30.16104
G1 X143.732 Y108.357 E30.20686
G1 X144.06 Y108.98 E30.24199
G1 X144.384 Y109.869 E30.28919
G1 X144.568 Y110.671 E30.33024
G1 X144.647 Y111.657 E30.37959
G1 X144.65 Y120.703 E30.8309
G1 X144.61 Y121.406 E30.86603
G1 X144.537 Y121.831 E30.88754
G1 X144.647 Y122.957 E30.94399
G1 X144.65 Y132.003 E31.3953
G1 X144.61 Y132.706 E31.43042
G1 X144.491 Y133.4 E31.46555
G1 X144.294 Y134.075 E31.50063
G1 X144.031 Y134.723 E31.53552
G1 X143.717 Y135.353 E31.57064
G1 X143.335 Y135.944 E31.60575
G1 X142.887 Y136.488 E31.64091
G1 X142.381 Y136.977 E31.67602
G1 X141.702 Y137.487 E31.71838
G1 X140.914 Y137.949 E31.76396
G1 X140.267 Y138.226 E31.79907
G1 X139.447 Y138.461 E31.84163
G1 X138.63 Y138.594 E31.88292
G1 X138.032 Y138.623 E31.91279
G1 X111.932 Y138.62 E33.21493
G1 X111.229 Y138.58 E33.25006
G1 X110.536 Y138.46 E33.28514
G1 X109.86 Y138.263 E33.32027
G1 X109.238 Y138.009 E33.35379
G1 X108.61 Y137.691 E33.38891
G1 X108.021 Y137.305 E33.42404
G1 X107.481 Y136.854 E33.45914
G1 X106.79 Y136.091 E33.5105
G1 X106.265 Y135.339 E33.55626
G1 X105.938 Y134.715 E33.5914
G1 X105.616 Y133.831 E33.63834
G1 X105.432 Y133.029 E33.67939
G1 X105.353 Y132.043 E33.72874
G1 X105.35 Y122.997 E34.18005
G1 X105.39 Y122.294 E34.21518
G1 X105.463 Y121.869 E34.23669
G1 X105.353 Y120.743 E34.29314
G1 X105.35 Y111.697 E34.74444
G0 F3600 X105.75 Y111.697
G1 F1800 X105.79 Y111.017 E34.77843
G1 X105.909 Y110.347 E34.81238
G1 X106.227 Y109.392 E34.86259
G1 X106.653 Y108.509 E34.91151
G1 X107.028 Y107.941 E34.94546
G1 X107.468 Y107.421 E34.97945
G1 X107.966 Y106.956 E35.01344
G1 X108.458 Y106.59 E35.04403
G1 X109.222 Y106.13 E35.08852
G1 X109.847 Y105.858 E35.12253
G1 X110.645 Y105.628 E35.16396
G1 X111.442 Y105.501 E35.20423
G1 X111.969 Y105.477 E35.23055
G1 X138.068 Y105.48 E36.53263
G1 X138.747 Y105.52 E36.56657
G1 X139.418 Y105.639 E36.60056
G1 X140.372 Y105.958 E36.65075
G1 X141.197 Y106.359 E36.69651
G1 X141.765 Y106.735 E36.7305
G1 X142.285 Y107.175 E36.76448
G1 X142.888 Y107.847 E36.80953
G1 X143.401 Y108.582 E36.85424
G1 X143.714 Y109.186 E36.88818
G1 X143.999 Y109.978 E36.93018
G1 X144.176 Y110.757 E36.97003
G1 X144.247 Y111.657 E37.01507
G1 X144.25 Y120.703 E37.46638
G1 X144.21 Y121.383 E37.50036
G1 X144.129 Y121.84 E37.52352
G1 X144.247 Y122.957 E37.57956
G1 X144.25 Y132.003 E38.03086
G1 X144.21 Y132.683 E38.06485
G1 X144.091 Y133.353 E38.0988
G1 X143.782 Y134.287 E38.14788
G1 X143.359 Y135.175 E38.19695
G1 X142.985 Y135.744 E38.23092
G1 X142.548 Y136.265 E38.26485
G1 X142.052 Y136.732 E38.29883
G1 X141.484 Y137.151 E38.33405
G1 X140.716 Y137.601 E38.37846
G1 X140.088 Y137.865 E38.41244
G1 X139.364 Y138.07 E38.44998
G1 X138.569 Y138.198 E38.49016
G1 X138.032 Y138.223 E38.51698
G1 X111.932 Y138.22 E39.81911
G1 X111.253 Y138.18 E39.85305
G1 X110.582 Y138.061 E39.88704
G1 X109.616 Y137.737 E39.93788
G1 X108.791 Y137.334 E39.98368
G1 X108.224 Y136.957 E40.01765
G1 X107.705 Y136.516 E40.05163
G1 X107.108 Y135.848 E40.09633
G1 X106.597 Y135.114 E40.14095
G1 X106.284 Y134.509 E40.17493
G1 X106.001 Y133.722 E40.21666
G1 X105.824 Y132.943 E40.25651
G1 X105.753 Y132.043 E40.30155
G1 X105.75 Y122.997 E40.75286
G1 X105.79 Y122.317 E40.78684
G1 X105.871 Y121.86 E40.81
G1 X105.753 Y120.743 E40.86604
G1 X105.75 Y111.697 E41.31734
G0 F3600 X106.15 Y111.697
G1 F1800 X106.19 Y111.041 E41.35013
G1 X106.309 Y110.395 E41.3829
G1 X106.594 Y109.55 E41.42739
G1 X107.01 Y108.69 E41.47506
G1 X107.376 Y108.144 E41.50785
G1 X107.806 Y107.647 E41.54064
G1 X108.293 Y107.206 E41.57342
G1 X108.856 Y106.806 E41.60787
G1 X109.424 Y106.476 E41.64064
G1 X110.028 Y106.218 E41.67341
G1 X110.728 Y106.02 E41.70971
G1 X111.501 Y105.897 E41.74876
G1 X111.969 Y105.877 E41.77213
G1 X138.068 Y105.88 E43.07421
G1 X138.723 Y105.92 E43.10695
G1 X139.369 Y106.039 E43.13972
G1 X140.213 Y106.325 E43.18418
G1 X141.016 Y106.716 E43.22874
G1 X141.562 Y107.083 E43.26156
G1 X142.059 Y107.512 E43.29431
G1 X142.571 Y108.09 E43.33284
G1 X143.069 Y108.806 E43.37635
G1 X143.367 Y109.391 E43.4091
G1 X143.614 Y110.086 E43.4459
G1 X143.785 Y110.842 E43.48457
G1 X143.847 Y111.657 E43.52535
G1 X143.85 Y120.703 E43.97666
G1 X143.81 Y121.359 E44.00945
G1 X143.721 Y121.844 E44.03405
G1 X143.785 Y122.142 E44.04925
G1 X143.847 Y122.957 E44.09003
G1 X143.85 Y132.003 E44.54134
G1 X143.81 Y132.659 E44.57413
G1 X143.691 Y133.305 E44.6069
G1 X143.414 Y134.13 E44.65032
G1 X143.001 Y134.995 E44.69814
G1 X142.637 Y135.542 E44.73092
G1 X142.209 Y136.041 E44.76372
G1 X141.724 Y136.484 E44.79649
G1 X141.267 Y136.815 E44.82464
G1 X140.519 Y137.252 E44.86786
G1 X139.912 Y137.503 E44.90063
G1 X139.281 Y137.678 E44.9333
G1 X138.509 Y137.802 E44.97231
G1 X138.032 Y137.823 E44.99613
G1 X111.932 Y137.82 E46.29826
