;FLAVOR:Marlin
;TIME:18561
;Filament used: 17.5203m
;Layer height: 0.15
;MINX:71.213
;MINY:65.507
;MINZ:0.3
;MAXX:178.787
;MAXY:190.128
;MAXZ:18.75
;Generated with Cura_SteamEngine 5.0.0
M104 S228
M105
M109 S228
M82 ;absolute extrusion mode
G21 ;metric values
G90 ;absolute positioning
M82 ;set extruder to absolute mode
M107 ;start with the fan off
G28 X0 Y0 ;move X/Y to min endstops
M300 S1318 P266
G28 Z0 ;move Z to min endstops
G0 Z0.2
G92 E0 ;zero the extruded length
G1 X40 E25 F400 ; Extrude 25mm of filament in a 4cm line. Reduce speed (F) if you have a nozzle smaller than 0.4mm!
G92 E0 ;zero the extruded length again
G1 E-1 F500 ; Retract a little
G1 X80 F4000 ; Quickly wipe away from the filament line
M117 ; Printing…
G5
G92 E0
G92 E0
G1 F1500 E-6.5
;LAYER_COUNT:124
;LAYER:0
M107
G0 F3600 X73.532 Y68.288 Z0.3
G0 X71.215 Y74.141
;TYPE:SKIRT
G1 F1500 E0
G1 F1800 X71.255 Y73.352 E0.03941
G1 X71.368 Y72.605 E0.07711
G1 X71.61 Y71.601 E0.12863
G1 X71.881 Y70.859 E0.16804
G1 X72.394 Y69.857 E0.2242
G1 X73.025 Y68.894 E0.28164
G1 X73.532 Y68.288 E0.32106
G1 X74.308 Y67.558 E0.37421
G1 X75.132 Y66.935 E0.42575
G1 X75.811 Y66.533 E0.46512
G1 X76.82 Y66.091 E0.52007
G1 X77.921 Y65.741 E0.57771
G1 X78.696 Y65.591 E0.61709
G1 X79.385 Y65.524 E0.65163
G1 X79.904 Y65.507 E0.67754
G1 X85.177 Y65.507 E0.94061
G1 X85.966 Y65.547 E0.98002
G1 X86.639 Y65.65 E1.01399
G1 X87.675 Y65.517 E1.0661
G1 X88.078 Y65.507 E1.08621
G1 X94.579 Y65.507 E1.41055
G1 X95.368 Y65.547 E1.44996
G1 X96.148 Y65.666 E1.48933
G1 X96.913 Y65.864 E1.52875
G1 X97.653 Y66.138 E1.56812
G1 X98.362 Y66.486 E1.60752
G1 X99.033 Y66.904 E1.64696
G1 X99.657 Y67.387 E1.68633
G1 X100.23 Y67.93 E1.72571
G1 X100.769 Y68.564 E1.76723
G1 X111.34 Y68.564 E2.29462
G1 X111.599 Y68.23 E2.31571
G1 X112.142 Y67.657 E2.35509
G1 X112.741 Y67.142 E2.3945
G1 X113.389 Y66.691 E2.43389
G1 X114.08 Y66.307 E2.47333
G1 X114.805 Y65.995 E2.51271
G1 X115.558 Y65.758 E2.55209
G1 X116.332 Y65.599 E2.59151
G1 X117.117 Y65.518 E2.63088
G1 X117.518 Y65.508 E2.6509
G1 X132.48 Y65.507 E3.39735
G1 X133.269 Y65.547 E3.43677
G1 X134.05 Y65.666 E3.47618
G1 X134.814 Y65.864 E3.51556
G1 X135.555 Y66.138 E3.55497
G1 X136.264 Y66.486 E3.59438
G1 X136.934 Y66.903 E3.63375
G1 X137.559 Y67.386 E3.67315
G1 X138.132 Y67.93 E3.71257
G1 X138.67 Y68.564 E3.75406
G1 X149.242 Y68.564 E4.2815
G1 X149.501 Y68.23 E4.30258
G1 X150.044 Y67.657 E4.34197
G1 X150.643 Y67.142 E4.38138
G1 X151.291 Y66.691 E4.42077
G1 X151.982 Y66.307 E4.46021
G1 X152.707 Y65.995 E4.49958
G1 X153.46 Y65.758 E4.53897
G1 X154.234 Y65.599 E4.57839
G1 X155.019 Y65.518 E4.61776
G1 X155.422 Y65.508 E4.63787
G1 X170.156 Y65.509 E5.37295
G1 X170.944 Y65.549 E5.41232
G1 X171.685 Y65.66 E5.4497
G1 X172.69 Y65.902 E5.50127
G1 X173.432 Y66.173 E5.54068
G1 X174.012 Y66.446 E5.57266
G1 X174.906 Y66.959 E5.62409
G1 X175.542 Y67.427 E5.66348
G1 X175.931 Y67.767 E5.68926
G1 X176.66 Y68.502 E5.74091
G1 X177.149 Y69.122 E5.7803
G1 X177.599 Y69.834 E5.82232
G1 X178.097 Y70.807 E5.87685
G1 X178.373 Y71.547 E5.91626
G1 X178.629 Y72.607 E5.97066
G1 X178.77 Y73.688 E6.02505
G1 X178.787 Y74.199 E6.05056
G1 X178.785 Y181.496 E11.40363
G1 X178.745 Y182.285 E11.44304
G1 X178.564 Y183.34 E11.49644
G1 X178.267 Y184.392 E11.55098
G1 X177.966 Y185.123 E11.59042
G1 X177.627 Y185.762 E11.62651
G1 X177.068 Y186.629 E11.67797
G1 X176.568 Y187.24 E11.71736
G1 X175.919 Y187.876 E11.7627
G1 X175.071 Y188.564 E11.81718
G1 X174.404 Y188.987 E11.85658
G1 X173.432 Y189.452 E11.91034
G1 X172.401 Y189.817 E11.9649
G1 X171.277 Y190.047 E12.02214
G1 X170.157 Y190.127 E12.07816
G1 X165.502 Y190.128 E12.3104
G1 X164.713 Y190.088 E12.34981
G1 X163.932 Y189.969 E12.38923
G1 X163.168 Y189.771 E12.4286
G1 X162.427 Y189.497 E12.46802
G1 X161.718 Y189.15 E12.5074
G1 X161.252 Y188.859 E12.53481
G1 X160.936 Y189.035 E12.55285
G1 X160.21 Y189.347 E12.59228
G1 X159.457 Y189.583 E12.63165
G1 X158.683 Y189.743 E12.67108
G1 X157.898 Y189.823 E12.71044
G1 X157.499 Y189.833 E12.73036
G1 X92.5 Y189.836 E15.97317
G1 X91.712 Y189.796 E16.01253
G1 X90.931 Y189.677 E16.05195
G1 X90.167 Y189.479 E16.09132
G1 X89.426 Y189.205 E16.13074
G1 X88.74 Y188.868 E16.16887
G1 X87.939 Y189.329 E16.21498
G1 X87.214 Y189.641 E16.25436
G1 X86.461 Y189.878 E16.29374
G1 X85.687 Y190.037 E16.33316
G1 X84.902 Y190.118 E16.37253
G1 X84.498 Y190.128 E16.3927
G1 X79.843 Y190.127 E16.62493
G1 X79.055 Y190.087 E16.6643
G1 X78.05 Y189.918 E16.71514
G1 X76.996 Y189.627 E16.76969
G1 X76.263 Y189.331 E16.80913
G1 X75.24 Y188.759 E16.86761
G1 X74.353 Y188.123 E16.92206
G1 X73.768 Y187.592 E16.96147
G1 X73.263 Y187.033 E16.99906
G1 X72.64 Y186.209 E17.0506
G1 X72.238 Y185.53 E17.08996
G1 X71.796 Y184.523 E17.14483
G1 X71.447 Y183.424 E17.20236
G1 X71.297 Y182.649 E17.24174
G1 X71.228 Y181.883 E17.28011
G1 X71.213 Y181.367 E17.30586
G1 X71.213 Y176.065 E17.57038
G1 X71.253 Y175.276 E17.6098
G1 X71.372 Y174.496 E17.64916
G1 X71.57 Y173.731 E17.68858
G1 X71.844 Y172.991 E17.72795
G1 X72.192 Y172.282 E17.76736
G1 X72.61 Y171.611 E17.8068
G1 X72.842 Y171.312 E17.82568
G1 X72.61 Y170.771 E17.85504
G1 X72.374 Y170.018 E17.89441
G1 X72.215 Y169.244 E17.93383
G1 X72.135 Y168.459 E17.9732
G1 X72.125 Y168.064 E17.99291
G1 X72.127 Y128.887 E19.94746
G1 X72.167 Y128.098 E19.98688
G1 X72.287 Y127.317 E20.0263
G1 X72.484 Y126.553 E20.06566
G1 X72.759 Y125.812 E20.10509
G1 X72.838 Y125.651 E20.11404
G1 X72.397 Y125.017 E20.15257
G1 X72.013 Y124.326 E20.19201
G1 X71.701 Y123.601 E20.23139
G1 X71.464 Y122.848 E20.27077
G1 X71.305 Y122.074 E20.31019
G1 X71.224 Y121.289 E20.34957
G1 X71.214 Y120.887 E20.36963
G1 X71.215 Y74.141 E22.70179
G0 F3600 X71.615 Y74.141
G1 F1800 X71.655 Y73.373 E22.74016
G1 X71.76 Y72.684 E22.77493
G1 X71.998 Y71.7 E22.82544
G1 X72.265 Y70.978 E22.86385
G1 X72.736 Y70.065 E22.9151
G1 X73.356 Y69.119 E22.97153
G1 X73.852 Y68.531 E23.00991
G1 X74.562 Y67.867 E23.05841
G1 X75.369 Y67.258 E23.10885
G1 X76.033 Y66.869 E23.14724
G1 X76.954 Y66.468 E23.19735
G1 X78.036 Y66.124 E23.254
G1 X78.792 Y65.982 E23.29237
G1 X79.412 Y65.923 E23.32345
G1 X79.904 Y65.907 E23.348
G1 X85.177 Y65.907 E23.61108
G1 X85.945 Y65.947 E23.64944
G1 X86.638 Y66.056 E23.68444
G1 X87.228 Y65.956 E23.7143
G1 X88.078 Y65.907 E23.75677
G1 X94.579 Y65.907 E24.08111
G1 X95.347 Y65.947 E24.11948
G1 X96.107 Y66.066 E24.15786
G1 X96.85 Y66.264 E24.19622
G1 X97.569 Y66.538 E24.23461
G1 X98.255 Y66.885 E24.27296
G1 X98.902 Y67.301 E24.31134
G1 X99.502 Y67.782 E24.3497
G1 X100.049 Y68.323 E24.38808
G1 X100.537 Y68.918 E24.42648
G1 X100.567 Y68.964 E24.42922
G1 X111.53 Y68.964 E24.97616
G1 X111.994 Y68.385 E25.01318
G1 X112.535 Y67.838 E25.05156
G1 X113.13 Y67.35 E25.08995
G1 X113.772 Y66.927 E25.12831
G1 X114.455 Y66.572 E25.16671
G1 X115.17 Y66.291 E25.20504
G1 X115.912 Y66.085 E25.24346
G1 X116.67 Y65.957 E25.28181
G1 X117.519 Y65.908 E25.32424
G1 X132.481 Y65.907 E26.0707
G1 X133.249 Y65.947 E26.10906
G1 X134.008 Y66.066 E26.14739
G1 X134.752 Y66.264 E26.1858
G1 X135.471 Y66.538 E26.22419
G1 X136.157 Y66.885 E26.26255
G1 X136.804 Y67.301 E26.30092
G1 X137.404 Y67.782 E26.33929
G1 X137.951 Y68.323 E26.37767
G1 X138.439 Y68.918 E26.41606
G1 X138.469 Y68.964 E26.4188
G1 X149.432 Y68.964 E26.96575
G1 X149.896 Y68.385 E27.00276
G1 X150.437 Y67.838 E27.04115
G1 X151.032 Y67.35 E27.07954
G1 X151.674 Y66.927 E27.1179
G1 X152.357 Y66.572 E27.1563
G1 X153.072 Y66.291 E27.19463
G1 X153.814 Y66.085 E27.23305
G1 X154.572 Y65.957 E27.2714
G1 X155.422 Y65.908 E27.31387
G1 X170.156 Y65.909 E28.04896
G1 X170.924 Y65.949 E28.08732
G1 X171.606 Y66.053 E28.12174
G1 X172.592 Y66.291 E28.17235
G1 X173.313 Y66.557 E28.21069
G1 X173.826 Y66.801 E28.23903
G1 X174.702 Y67.304 E28.28943
G1 X175.32 Y67.762 E28.3278
G1 X175.838 Y68.227 E28.36253
G1 X176.372 Y68.781 E28.40092
G1 X176.846 Y69.386 E28.43926
G1 X177.25 Y70.029 E28.47715
G1 X177.737 Y70.984 E28.53063
G1 X178.003 Y71.706 E28.56902
G1 X178.234 Y72.673 E28.61862
G1 X178.372 Y73.735 E28.67205
G1 X178.387 Y74.199 E28.69521
G1 X178.385 Y181.496 E34.04828
G1 X178.345 Y182.264 E34.08665
G1 X178.175 Y183.245 E34.13632
G1 X177.883 Y184.278 E34.18987
G1 X177.587 Y184.988 E34.22825
G1 X177.283 Y185.559 E34.26052
G1 X176.734 Y186.407 E34.31092
G1 X176.245 Y187.001 E34.34931
G1 X175.656 Y187.575 E34.39034
G1 X174.823 Y188.249 E34.4438
G1 X174.172 Y188.659 E34.48218
G1 X173.285 Y189.08 E34.53117
G1 X172.273 Y189.437 E34.5847
G1 X171.226 Y189.65 E34.63801
G1 X170.157 Y189.727 E34.69148
G1 X165.502 Y189.728 E34.92372
G1 X164.733 Y189.688 E34.96214
G1 X163.974 Y189.569 E35.00047
G1 X163.23 Y189.371 E35.03888
G1 X162.511 Y189.098 E35.07725
G1 X161.825 Y188.751 E35.1156
G1 X161.273 Y188.396 E35.14834
G1 X160.561 Y188.77 E35.18847
G1 X159.845 Y189.051 E35.22684
G1 X159.104 Y189.257 E35.26521
G1 X158.345 Y189.384 E35.3036
G1 X157.499 Y189.433 E35.34588
G1 X92.5 Y189.436 E38.5887
G1 X91.732 Y189.396 E38.62706
G1 X90.972 Y189.277 E38.66544
G1 X90.229 Y189.079 E38.7038
G1 X89.51 Y188.805 E38.74219
G1 X88.824 Y188.458 E38.78055
G1 X88.725 Y188.394 E38.78643
G1 X88.247 Y188.709 E38.81499
G1 X87.564 Y189.064 E38.85339
G1 X86.849 Y189.345 E38.89172
G1 X86.107 Y189.551 E38.93014
G1 X85.349 Y189.679 E38.96849
G1 X84.498 Y189.728 E39.01101
G1 X79.843 Y189.727 E39.24325
G1 X79.075 Y189.687 E39.28162
G1 X78.142 Y189.528 E39.32884
G1 X77.108 Y189.243 E39.38235
G1 X76.396 Y188.952 E39.42072
G1 X75.461 Y188.425 E39.47427
G1 X74.591 Y187.801 E39.52769
G1 X74.024 Y187.281 E39.56607
G1 X73.572 Y186.779 E39.59977
G1 X72.963 Y185.972 E39.65021
G1 X72.574 Y185.308 E39.6886
G1 X72.173 Y184.388 E39.73867
G1 X71.831 Y183.309 E39.79514
G1 X71.688 Y182.554 E39.83348
G1 X71.627 Y181.866 E39.86794
G1 X71.613 Y181.367 E39.89284
G1 X71.613 Y176.065 E40.15736
G1 X71.653 Y175.297 E40.19573
G1 X71.772 Y174.537 E40.23411
G1 X71.97 Y173.794 E40.27247
G1 X72.244 Y173.075 E40.31086
G1 X72.591 Y172.389 E40.34921
G1 X73.007 Y171.742 E40.38759
G1 X73.311 Y171.363 E40.41183
G1 X72.905 Y170.406 E40.46369
G1 X72.7 Y169.665 E40.50205
G1 X72.573 Y168.906 E40.54044
G1 X72.525 Y168.064 E40.58252
G1 X72.527 Y128.887 E42.53706
G1 X72.567 Y128.119 E42.57543
G1 X72.687 Y127.359 E42.61382
G1 X72.884 Y126.615 E42.65222
G1 X73.158 Y125.897 E42.69056
G1 X73.313 Y125.59 E42.70771
G1 X73.056 Y125.276 E42.72796
G1 X72.633 Y124.634 E42.76631
G1 X72.278 Y123.951 E42.80472
G1 X71.997 Y123.236 E42.84304
G1 X71.791 Y122.494 E42.88146
G1 X71.663 Y121.736 E42.91982
G1 X71.614 Y120.887 E42.96224
G1 X71.615 Y74.141 E45.29441
G0 F3600 X72.015 Y74.141
G1 F1800 X72.055 Y73.394 E45.33173
G1 X72.152 Y72.763 E45.36358
G1 X72.386 Y71.799 E45.41307
G1 X72.649 Y71.099 E45.45038
G1 X73.078 Y70.272 E45.49686
G1 X73.687 Y69.344 E45.55224
G1 X74.172 Y68.775 E45.58954
G1 X74.815 Y68.177 E45.63335
G1 X75.606 Y67.58 E45.68279
G1 X76.253 Y67.205 E45.7201
G1 X77.088 Y66.845 E45.76546
G1 X78.15 Y66.508 E45.82105
G1 X78.886 Y66.373 E45.85838
G1 X79.438 Y66.323 E45.88603
G1 X79.904 Y66.307 E45.9093
G1 X85.177 Y66.307 E46.17237
G1 X85.924 Y66.347 E46.20969
G1 X86.643 Y66.463 E46.24602
G1 X87.56 Y66.326 E46.29228
G1 X88.078 Y66.307 E46.31814
G1 X94.579 Y66.307 E46.64248
G1 X95.326 Y66.347 E46.6798
G1 X96.064 Y66.466 E46.71709
G1 X96.786 Y66.664 E46.75444
G1 X97.482 Y66.937 E46.79174
G1 X98.145 Y67.284 E46.82908
G1 X98.768 Y67.699 E46.86642
G1 X99.342 Y68.178 E46.90372
G1 X99.863 Y68.715 E46.94105
G1 X100.322 Y69.305 E46.97834
G1 X100.359 Y69.364 E46.98182
G1 X111.748 Y69.364 E47.55002
G1 X112.39 Y68.545 E47.60193
G1 X112.927 Y68.024 E47.63926
G1 X113.517 Y67.565 E47.67656
G1 X114.153 Y67.17 E47.71391
G1 X114.827 Y66.846 E47.75122
G1 X115.532 Y66.596 E47.78854
G1 X116.26 Y66.422 E47.82588
G1 X117.002 Y66.327 E47.8632
G1 X117.519 Y66.308 E47.88901
G1 X132.481 Y66.307 E48.63547
G1 X133.228 Y66.347 E48.67279
G1 X133.966 Y66.466 E48.71008
G1 X134.688 Y66.664 E48.74743
G1 X135.384 Y66.937 E48.78473
G1 X136.047 Y67.283 E48.82204
G1 X136.669 Y67.698 E48.85935
G1 X137.244 Y68.177 E48.89668
G1 X137.764 Y68.715 E48.93401
G1 X138.224 Y69.305 E48.97134
G1 X138.261 Y69.364 E48.97481
G1 X149.65 Y69.364 E49.54301
G1 X150.292 Y68.545 E49.59493
G1 X150.829 Y68.024 E49.63226
G1 X151.419 Y67.565 E49.66955
G1 X152.055 Y67.17 E49.7069
G1 X152.729 Y66.846 E49.74421
G1 X153.434 Y66.596 E49.78153
G1 X154.162 Y66.422 E49.81887
G1 X154.904 Y66.327 E49.8562
G1 X155.421 Y66.308 E49.88201
G1 X170.155 Y66.309 E50.61709
G1 X170.902 Y66.349 E50.65441
G1 X171.528 Y66.445 E50.68601
G1 X172.492 Y66.679 E50.7355
G1 X173.193 Y66.941 E50.77283
G1 X173.855 Y67.267 E50.80965
G1 X174.498 Y67.649 E50.84696
G1 X175.097 Y68.097 E50.88428
G1 X175.565 Y68.52 E50.91575
G1 X176.084 Y69.059 E50.95308
G1 X176.542 Y69.65 E50.99038
G1 X176.9 Y70.224 E51.02413
G1 X177.378 Y71.16 E51.07657
G1 X177.634 Y71.863 E51.11389
G1 X177.84 Y72.74 E51.15884
G1 X177.974 Y73.78 E51.21115
G1 X177.987 Y74.199 E51.23207
G1 X177.985 Y181.496 E56.58514
G1 X177.945 Y182.243 E56.62246
G1 X177.787 Y183.15 E56.66839
G1 X177.499 Y184.163 E56.72093
G1 X177.209 Y184.852 E56.75823
G1 X176.938 Y185.355 E56.78673
G1 X176.401 Y186.186 E56.83609
G1 X175.922 Y186.761 E56.87343
G1 X175.393 Y187.274 E56.91019
G1 X174.576 Y187.934 E56.96259
G1 X173.941 Y188.329 E56.9999
G1 X173.138 Y188.708 E57.0442
G1 X172.146 Y189.058 E57.09668
G1 X171.175 Y189.253 E57.14609
G1 X170.157 Y189.327 E57.19702
G1 X165.502 Y189.328 E57.42925
G1 X164.754 Y189.288 E57.46663
G1 X164.016 Y189.169 E57.50392
G1 X163.294 Y188.971 E57.54127
G1 X162.598 Y188.698 E57.57857
G1 X161.935 Y188.352 E57.61588
G1 X161.282 Y187.912 E57.65516
G1 X160.863 Y188.172 E57.67977
G1 X160.188 Y188.496 E57.71712
G1 X159.483 Y188.746 E57.75444
G1 X158.756 Y188.919 E57.79172
G1 X158.014 Y189.014 E57.82904
G1 X157.499 Y189.033 E57.85475
G1 X92.5 Y189.036 E61.09757
G1 X91.753 Y188.996 E61.13489
G1 X91.015 Y188.877 E61.17218
G1 X90.293 Y188.679 E61.20953
G1 X89.597 Y188.406 E61.24683
G1 X88.934 Y188.06 E61.28414
G1 X88.709 Y187.91 E61.29763
G1 X87.866 Y188.466 E61.34802
G1 X87.192 Y188.79 E61.38533
G1 X86.487 Y189.04 E61.42264
G1 X85.759 Y189.214 E61.45999
G1 X85.017 Y189.309 E61.49731
G1 X84.498 Y189.328 E61.52322
G1 X79.843 Y189.327 E61.75546
G1 X79.097 Y189.287 E61.79273
G1 X78.234 Y189.139 E61.83641
G1 X77.22 Y188.858 E61.88891
G1 X76.529 Y188.572 E61.92622
G1 X75.682 Y188.092 E61.97479
G1 X74.83 Y187.479 E62.02715
G1 X74.28 Y186.972 E62.06447
G1 X73.882 Y186.526 E62.0943
G1 X73.285 Y185.735 E62.14374
G1 X72.91 Y185.088 E62.18105
G1 X72.55 Y184.254 E62.22637
G1 X72.215 Y183.195 E62.28178
G1 X72.079 Y182.459 E62.31912
G1 X72.027 Y181.85 E62.34961
G1 X72.013 Y181.367 E62.37372
G1 X72.013 Y176.065 E62.63824
G1 X72.053 Y175.318 E62.67556
G1 X72.172 Y174.58 E62.71286
G1 X72.37 Y173.858 E62.75021
G1 X72.643 Y173.162 E62.78751
G1 X72.99 Y172.499 E62.82484
G1 X73.405 Y171.876 E62.86218
G1 X73.783 Y171.423 E62.89162
G1 X73.461 Y170.75 E62.92884
G1 X73.211 Y170.045 E62.96616
G1 X73.038 Y169.317 E63.00349
G1 X72.944 Y168.575 E63.04081
G1 X72.925 Y168.064 E63.06632
G1 X72.927 Y128.887 E65.02087
G1 X72.967 Y128.14 E65.05819
G1 X73.087 Y127.401 E65.09554
G1 X73.284 Y126.68 E65.13283
G1 X73.558 Y125.983 E65.17019
G1 X73.789 Y125.54 E65.19512
G1 X73.271 Y124.889 E65.23662
G1 X72.876 Y124.253 E65.27398
G1 X72.552 Y123.579 E65.31128
G1 X72.302 Y122.874 E65.3486
G1 X72.128 Y122.146 E65.38595
G1 X72.033 Y121.404 E65.42327
G1 X72.014 Y120.887 E65.44908
G1 X72.015 Y74.141 E67.78125
G0 F3600 X72.415 Y74.141
G1 F1800 X72.455 Y73.416 E67.81747
G1 X72.544 Y72.841 E67.8465
G1 X72.774 Y71.899 E67.89488
G1 X73.032 Y71.22 E67.93111
G1 X73.42 Y70.48 E67.9728
