;FLAVOR:Marlin
;TIME:635
;Filament used: 0.544033m
;Layer height: 0.15
;MINX:110.917
;MINY:105.992
;MINZ:0.3
;MAXX:165.531
;MAXY:148.52
;MAXZ:1.95
;Generated with Cura_SteamEngine 5.0.0
M140 S60
M105
M190 S60
M104 S200
M105
M109 S200
M82 ;absolute extrusion mode
G21 ;metric values
G90 ;absolute positioning
M82 ;set extruder to absolute mode
M107 ;start with the fan off
G28 X0 Y0 ;move X/Y to min endstops
M300 S1318 P266
G28 Z0 ;move Z to min endstops
G0 Z0.2
G92 E0 ;zero the extruded length
G1 X40 E25 F400 ; Extrude 25mm of filament in a 4cm line. Reduce speed (F) if you have a nozzle smaller than 0.4mm!
G92 E0 ;zero the extruded length again
G1 E-1 F500 ; Retract a little
G1 X80 F4000 ; Quickly wipe away from the filament line
M117 ; Printing…
G5
G92 E0
G92 E0
G1 F1500 E-6.5
;LAYER_COUNT:12
;LAYER:0
M107
G0 F3600 X113.34 Y114.956 Z0.3
G0 X110.917 Y120.607
;TYPE:SKIRT
G1 F1500 E0
G1 F1800 X110.957 Y119.818 E0.03941
G1 X111.076 Y119.038 E0.07878
G1 X111.274 Y118.273 E0.1182
G1 X111.548 Y117.533 E0.15757
G1 X111.896 Y116.824 E0.19697
G1 X112.314 Y116.153 E0.23641
G1 X112.797 Y115.529 E0.27578
G1 X113.34 Y114.956 E0.31517
G1 X113.939 Y114.441 E0.35458
G1 X114.587 Y113.99 E0.39397
G1 X115.278 Y113.606 E0.43341
G1 X116.003 Y113.294 E0.47278
G1 X116.756 Y113.057 E0.51217
G1 X117.53 Y112.898 E0.55159
G1 X118.315 Y112.817 E0.59096
G1 X118.72 Y112.807 E0.61117
G1 X129.605 Y112.811 E1.15423
G1 X130.619 Y112.878 E1.20493
G1 X130.87 Y112.911 E1.21756
G1 X132.004 Y113.146 E1.27533
G1 X132.255 Y113.218 E1.28836
G1 X133.272 Y113.588 E1.34235
G1 X133.497 Y113.688 E1.35464
G1 X134.463 Y114.202 E1.40923
G1 X134.969 Y114.547 E1.43978
G1 X134.969 Y113.792 E1.47745
G1 X135.009 Y113.003 E1.51686
G1 X135.128 Y112.223 E1.55623
G1 X135.326 Y111.458 E1.59565
G1 X135.6 Y110.718 E1.63502
G1 X135.948 Y110.009 E1.67442
G1 X136.366 Y109.338 E1.71386
G1 X136.849 Y108.714 E1.75323
G1 X137.392 Y108.141 E1.79262
G1 X137.991 Y107.626 E1.83203
G1 X138.639 Y107.175 E1.87141
G1 X139.33 Y106.791 E1.91085
G1 X140.055 Y106.479 E1.95023
G1 X140.808 Y106.242 E1.98962
G1 X141.582 Y106.083 E2.02904
G1 X142.367 Y106.002 E2.06841
G1 X142.769 Y105.992 E2.08847
G1 X157.731 Y105.992 E2.83493
G1 X158.52 Y106.032 E2.87434
G1 X159.3 Y106.151 E2.91371
G1 X160.065 Y106.349 E2.95313
G1 X160.805 Y106.623 E2.9925
G1 X161.514 Y106.971 E3.0319
G1 X162.185 Y107.389 E3.07134
G1 X162.809 Y107.872 E3.11071
G1 X163.382 Y108.415 E3.15009
G1 X163.897 Y109.014 E3.18951
G1 X164.348 Y109.662 E3.22889
G1 X164.732 Y110.353 E3.26833
G1 X165.044 Y111.078 E3.30771
G1 X165.281 Y111.831 E3.3471
G1 X165.44 Y112.605 E3.38652
G1 X165.521 Y113.39 E3.42589
G1 X165.531 Y113.792 E3.44595
G1 X165.531 Y140.72 E4.78939
G1 X165.491 Y141.509 E4.82881
G1 X165.372 Y142.289 E4.86817
G1 X165.174 Y143.054 E4.9076
G1 X164.9 Y143.794 E4.94696
G1 X164.552 Y144.503 E4.98637
G1 X164.134 Y145.174 E5.02581
G1 X163.651 Y145.798 E5.06518
G1 X163.108 Y146.371 E5.10456
G1 X162.509 Y146.886 E5.14397
G1 X161.861 Y147.337 E5.18336
G1 X161.17 Y147.721 E5.2228
G1 X160.445 Y148.033 E5.26218
G1 X159.692 Y148.27 E5.30156
G1 X158.918 Y148.429 E5.34098
G1 X158.133 Y148.51 E5.38035
G1 X157.731 Y148.52 E5.40042
G1 X142.769 Y148.52 E6.14687
G1 X141.98 Y148.48 E6.18629
G1 X141.2 Y148.361 E6.22565
G1 X140.435 Y148.163 E6.26508
G1 X139.695 Y147.889 E6.30444
G1 X138.986 Y147.541 E6.34385
G1 X138.315 Y147.123 E6.38329
G1 X137.691 Y146.64 E6.42266
G1 X137.118 Y146.097 E6.46204
G1 X136.603 Y145.498 E6.50145
G1 X136.152 Y144.85 E6.54084
G1 X135.768 Y144.159 E6.58028
G1 X135.456 Y143.434 E6.61966
G1 X135.219 Y142.681 E6.65904
G1 X135.06 Y141.907 E6.69846
G1 X134.979 Y141.122 E6.73783
G1 X134.969 Y140.468 E6.77047
G1 X134.103 Y141.011 E6.82146
G1 X133.881 Y141.129 E6.834
G1 X132.863 Y141.581 E6.88957
G1 X132.627 Y141.666 E6.90209
G1 X131.62 Y141.953 E6.95433
G1 X131.373 Y142.006 E6.96693
G1 X130.302 Y142.16 E7.02091
G1 X129.489 Y142.198 E7.06152
G1 X118.717 Y142.198 E7.59894
G1 X117.928 Y142.158 E7.63835
G1 X117.148 Y142.039 E7.67771
G1 X116.383 Y141.841 E7.71714
G1 X115.643 Y141.567 E7.75651
G1 X114.934 Y141.219 E7.79591
G1 X114.263 Y140.801 E7.83535
G1 X113.639 Y140.318 E7.87472
G1 X113.066 Y139.775 E7.9141
G1 X112.551 Y139.176 E7.95351
G1 X112.1 Y138.528 E7.9929
G1 X111.716 Y137.837 E8.03234
G1 X111.404 Y137.112 E8.07172
G1 X111.167 Y136.359 E8.1111
G1 X111.008 Y135.585 E8.15052
G1 X110.927 Y134.8 E8.1899
G1 X110.917 Y134.398 E8.20996
G1 X110.917 Y130.807 E8.38911
G1 X110.957 Y130.018 E8.42853
G1 X111.076 Y129.238 E8.46789
G1 X111.274 Y128.473 E8.50732
G1 X111.548 Y127.733 E8.54668
G1 X111.66 Y127.506 E8.55931
G1 X111.404 Y126.912 E8.59158
G1 X111.167 Y126.159 E8.63097
G1 X111.008 Y125.385 E8.67039
G1 X110.927 Y124.6 E8.70976
G1 X110.917 Y124.198 E8.72982
G1 X110.917 Y120.607 E8.90898
G0 F3600 X111.317 Y120.607
G1 F1800 X111.357 Y119.839 E8.94734
G1 X111.476 Y119.079 E8.98572
G1 X111.674 Y118.336 E9.02409
G1 X111.948 Y117.617 E9.06247
G1 X112.295 Y116.931 E9.10083
G1 X112.711 Y116.284 E9.1392
G1 X113.192 Y115.684 E9.17757
G1 X113.733 Y115.137 E9.21595
G1 X114.328 Y114.649 E9.25434
G1 X114.97 Y114.226 E9.2927
G1 X115.653 Y113.871 E9.3311
G1 X116.368 Y113.59 E9.36943
G1 X117.11 Y113.384 E9.40785
G1 X117.868 Y113.256 E9.4462
G1 X118.72 Y113.207 E9.48878
G1 X129.605 Y113.211 E10.03183
G1 X130.567 Y113.274 E10.07993
G1 X130.818 Y113.307 E10.09256
G1 X131.893 Y113.531 E10.14734
G1 X132.144 Y113.603 E10.16037
G1 X133.109 Y113.954 E10.2116
G1 X133.334 Y114.054 E10.22388
G1 X134.251 Y114.541 E10.27569
G1 X134.467 Y114.676 E10.28839
G1 X135.294 Y115.276 E10.33937
G1 X135.369 Y115.339 E10.34425
G1 X135.369 Y113.792 E10.42143
G1 X135.409 Y113.024 E10.4598
G1 X135.528 Y112.264 E10.49818
G1 X135.726 Y111.521 E10.53654
G1 X136 Y110.802 E10.57493
G1 X136.347 Y110.116 E10.61328
G1 X136.763 Y109.469 E10.65166
G1 X137.244 Y108.869 E10.69002
G1 X137.785 Y108.322 E10.72841
G1 X138.38 Y107.834 E10.7668
G1 X139.022 Y107.411 E10.80516
G1 X139.705 Y107.056 E10.84356
G1 X140.42 Y106.775 E10.88189
G1 X141.162 Y106.569 E10.92031
G1 X141.92 Y106.441 E10.95866
G1 X142.769 Y106.392 E11.00108
G1 X157.731 Y106.392 E11.74754
G1 X158.499 Y106.432 E11.78591
G1 X159.259 Y106.551 E11.82429
G1 X160.002 Y106.749 E11.86265
G1 X160.721 Y107.023 E11.90104
G1 X161.407 Y107.37 E11.93939
G1 X162.054 Y107.786 E11.97777
G1 X162.654 Y108.267 E12.01613
G1 X163.201 Y108.808 E12.05452
G1 X163.689 Y109.403 E12.09291
G1 X164.112 Y110.045 E12.13126
G1 X164.467 Y110.728 E12.16967
G1 X164.748 Y111.443 E12.20799
G1 X164.954 Y112.185 E12.24641
G1 X165.082 Y112.943 E12.28477
G1 X165.131 Y113.792 E12.32719
G1 X165.131 Y140.72 E13.67064
G1 X165.091 Y141.488 E13.709
G1 X164.972 Y142.248 E13.74738
G1 X164.774 Y142.991 E13.78574
G1 X164.5 Y143.71 E13.82413
G1 X164.153 Y144.396 E13.86249
G1 X163.737 Y145.043 E13.90086
G1 X163.256 Y145.643 E13.93923
G1 X162.715 Y146.19 E13.97761
G1 X162.12 Y146.678 E14.016
G1 X161.478 Y147.101 E14.05436
G1 X160.795 Y147.456 E14.09276
G1 X160.08 Y147.737 E14.13109
G1 X159.338 Y147.943 E14.16951
G1 X158.58 Y148.071 E14.20786
G1 X157.731 Y148.12 E14.25029
G1 X142.769 Y148.12 E14.99674
G1 X142.001 Y148.08 E15.03511
G1 X141.241 Y147.961 E15.07349
G1 X140.498 Y147.763 E15.11185
G1 X139.779 Y147.489 E15.15024
G1 X139.093 Y147.142 E15.18859
G1 X138.446 Y146.726 E15.22697
G1 X137.846 Y146.245 E15.26533
G1 X137.299 Y145.704 E15.30372
G1 X136.811 Y145.109 E15.34211
G1 X136.388 Y144.467 E15.38047
G1 X136.033 Y143.784 E15.41887
G1 X135.752 Y143.069 E15.4572
G1 X135.546 Y142.327 E15.49561
G1 X135.418 Y141.569 E15.53397
G1 X135.369 Y140.72 E15.57639
G1 X135.369 Y139.649 E15.62983
G1 X134.81 Y140.097 E15.66557
G1 X133.915 Y140.658 E15.71826
G1 X133.693 Y140.776 E15.73081
G1 X132.728 Y141.204 E15.78347
G1 X131.537 Y141.562 E15.84552
G1 X131.29 Y141.615 E15.85812
G1 X130.273 Y141.761 E15.90938
G1 X129.489 Y141.798 E15.94854
G1 X118.717 Y141.798 E16.48596
G1 X117.949 Y141.758 E16.52432
G1 X117.189 Y141.639 E16.5627
G1 X116.446 Y141.441 E16.60107
G1 X115.727 Y141.167 E16.63945
G1 X115.041 Y140.82 E16.67781
G1 X114.394 Y140.404 E16.71618
G1 X113.794 Y139.923 E16.75455
G1 X113.247 Y139.382 E16.79293
G1 X112.759 Y138.787 E16.83132
G1 X112.336 Y138.145 E16.86968
G1 X111.981 Y137.462 E16.90808
G1 X111.7 Y136.747 E16.94641
G1 X111.494 Y136.005 E16.98483
G1 X111.366 Y135.247 E17.02318
G1 X111.317 Y134.398 E17.06561
G1 X111.317 Y130.807 E17.24476
G1 X111.357 Y130.039 E17.28313
G1 X111.476 Y129.279 E17.32151
G1 X111.674 Y128.536 E17.35987
G1 X111.948 Y127.817 E17.39826
G1 X112.107 Y127.504 E17.41577
G1 X111.7 Y126.547 E17.46766
G1 X111.494 Y125.805 E17.50608
G1 X111.366 Y125.047 E17.54443
G1 X111.317 Y124.198 E17.58686
G1 X111.317 Y120.607 E17.76601
G0 F3600 X111.717 Y120.607
G1 F1800 X111.757 Y119.86 E17.80333
G1 X111.876 Y119.122 E17.84063
G1 X112.074 Y118.4 E17.87798
G1 X112.347 Y117.704 E17.91528
G1 X112.694 Y117.041 E17.95261
G1 X113.109 Y116.418 E17.98996
G1 X113.588 Y115.844 E18.02726
G1 X114.125 Y115.323 E18.06458
G1 X114.715 Y114.864 E18.10188
G1 X115.351 Y114.469 E18.13923
G1 X116.025 Y114.145 E18.17654
G1 X116.73 Y113.895 E18.21386
G1 X117.458 Y113.721 E18.2512
G1 X118.2 Y113.626 E18.28852
G1 X118.72 Y113.607 E18.31448
G1 X129.605 Y113.611 E18.85754
G1 X130.514 Y113.671 E18.90298
G1 X130.765 Y113.704 E18.91561
G1 X131.783 Y113.915 E18.96748
G1 X132.947 Y114.319 E19.02895
G1 X134.039 Y114.88 E19.0902
G1 X135.037 Y115.583 E19.15111
G1 X135.769 Y116.264 E19.20098
G1 X135.769 Y113.792 E19.32431
G1 X135.809 Y113.045 E19.36163
G1 X135.928 Y112.307 E19.39893
G1 X136.126 Y111.585 E19.43628
G1 X136.399 Y110.889 E19.47358
G1 X136.746 Y110.226 E19.51091
G1 X137.161 Y109.603 E19.54826
G1 X137.64 Y109.029 E19.58556
G1 X138.177 Y108.508 E19.62289
G1 X138.767 Y108.049 E19.66018
G1 X139.403 Y107.654 E19.69753
G1 X140.077 Y107.33 E19.73484
G1 X140.782 Y107.08 E19.77216
G1 X141.51 Y106.906 E19.8095
G1 X142.252 Y106.811 E19.84682
G1 X142.769 Y106.792 E19.87263
G1 X157.731 Y106.792 E20.61909
G1 X158.478 Y106.832 E20.65641
G1 X159.216 Y106.951 E20.69371
G1 X159.938 Y107.149 E20.73106
G1 X160.634 Y107.422 E20.76836
G1 X161.297 Y107.769 E20.80569
G1 X161.92 Y108.184 E20.84304
G1 X162.494 Y108.663 E20.88033
G1 X163.015 Y109.2 E20.91766
G1 X163.474 Y109.79 E20.95496
G1 X163.869 Y110.426 E20.99231
G1 X164.193 Y111.1 E21.02962
G1 X164.443 Y111.805 E21.06694
G1 X164.617 Y112.533 E21.10428
G1 X164.712 Y113.275 E21.1416
G1 X164.731 Y113.792 E21.16741
G1 X164.731 Y140.72 E22.51085
G1 X164.691 Y141.467 E22.54818
G1 X164.572 Y142.205 E22.58547
G1 X164.374 Y142.927 E22.62282
G1 X164.101 Y143.623 E22.66012
G1 X163.754 Y144.286 E22.69745
G1 X163.339 Y144.909 E22.7348
G1 X162.86 Y145.483 E22.7721
G1 X162.323 Y146.004 E22.80943
G1 X161.733 Y146.463 E22.84672
G1 X161.097 Y146.858 E22.88407
G1 X160.423 Y147.182 E22.92138
G1 X159.718 Y147.432 E22.9587
G1 X158.99 Y147.606 E22.99604
G1 X158.248 Y147.701 E23.03336
G1 X157.731 Y147.72 E23.05917
G1 X142.769 Y147.72 E23.80563
G1 X142.022 Y147.68 E23.84295
G1 X141.284 Y147.561 E23.88025
G1 X140.562 Y147.363 E23.9176
G1 X139.866 Y147.09 E23.9549
G1 X139.203 Y146.743 E23.99223
G1 X138.58 Y146.328 E24.02958
G1 X138.006 Y145.849 E24.06688
G1 X137.485 Y145.312 E24.1042
G1 X137.026 Y144.722 E24.1415
G1 X136.631 Y144.086 E24.17885
G1 X136.307 Y143.412 E24.21616
G1 X136.057 Y142.707 E24.25348
G1 X135.883 Y141.979 E24.29082
G1 X135.788 Y141.237 E24.32814
G1 X135.769 Y140.72 E24.35395
G1 X135.769 Y138.745 E24.45248
G1 X135.494 Y139.023 E24.47199
G1 X134.775 Y139.627 E24.51884
G1 X133.727 Y140.305 E24.58111
G1 X132.592 Y140.828 E24.64346
G1 X131.453 Y141.171 E24.70281
G1 X130.244 Y141.362 E24.76387
G1 X129.489 Y141.398 E24.80158
G1 X118.717 Y141.398 E25.339
G1 X117.97 Y141.358 E25.37632
G1 X117.232 Y141.239 E25.41362
G1 X116.51 Y141.041 E25.45097
G1 X115.814 Y140.768 E25.48827
G1 X115.151 Y140.421 E25.5256
G1 X114.528 Y140.006 E25.56295
G1 X113.954 Y139.527 E25.60024
G1 X113.433 Y138.99 E25.63757
G1 X112.974 Y138.4 E25.67487
G1 X112.579 Y137.764 E25.71222
G1 X112.255 Y137.09 E25.74953
G1 X112.005 Y136.385 E25.78685
G1 X111.831 Y135.657 E25.82419
G1 X111.736 Y134.915 E25.86151
G1 X111.717 Y134.398 E25.88732
G1 X111.717 Y130.807 E26.06648
G1 X111.757 Y130.06 E26.1038
G1 X111.876 Y129.322 E26.14109
G1 X112.074 Y128.6 E26.17844
G1 X112.347 Y127.904 E26.21574
G1 X112.553 Y127.51 E26.23792
G1 X112.255 Y126.89 E26.27224
G1 X112.005 Y126.185 E26.30956
G1 X111.831 Y125.457 E26.3469
G1 X111.736 Y124.715 E26.38423
G1 X111.717 Y124.198 E26.41004
G1 X111.717 Y120.607 E26.58919
G0 F3600 X112.117 Y120.607
G1 F1800 X112.157 Y119.882 E26.62542
G1 X112.276 Y119.165 E26.66168
G1 X112.474 Y118.466 E26.69792
G1 X112.747 Y117.793 E26.73416
G1 X113.092 Y117.154 E26.77039
G1 X113.506 Y116.557 E26.80663
G1 X113.982 Y116.009 E26.84284
G1 X114.516 Y115.516 E26.8791
G1 X115.101 Y115.086 E26.91533
G1 X115.73 Y114.722 E26.95158
G1 X116.395 Y114.429 E26.98784
G1 X117.088 Y114.211 E27.02408
G1 X117.8 Y114.071 E27.06028
G1 X118.719 Y114.007 E27.10624
G1 X129.604 Y114.011 E27.6493
G1 X130.462 Y114.067 E27.6922
G1 X131.673 Y114.3 E27.75372
G1 X132.785 Y114.685 E27.81243
G1 X133.827 Y115.219 E27.87084
G1 X134.781 Y115.889 E27.929
G1 X135.646 Y116.701 E27.98819
G1 X136.169 Y117.344 E28.02955
G1 X136.169 Y113.792 E28.20676
G1 X136.209 Y113.067 E28.24298
G1 X136.328 Y112.35 E28.27924
G1 X136.526 Y111.651 E28.31549
G1 X136.799 Y110.978 E28.35172
G1 X137.144 Y110.339 E28.38795
G1 X137.558 Y109.742 E28.4242
G1 X138.034 Y109.194 E28.46041
G1 X138.568 Y108.701 E28.49667
G1 X139.153 Y108.271 E28.53289
G1 X139.782 Y107.907 E28.56915
G1 X140.447 Y107.614 E28.6054
G1 X141.14 Y107.396 E28.64165
G1 X141.852 Y107.256 E28.67785
G1 X142.769 Y107.192 E28.72371
G1 X157.731 Y107.192 E29.47017
G1 X158.456 Y107.232 E29.50639
G1 X159.173 Y107.351 E29.54265
G1 X159.872 Y107.549 E29.5789
G1 X160.545 Y107.822 E29.61513
G1 X161.184 Y108.167 E29.65136
G1 X161.781 Y108.581 E29.6876
G1 X162.329 Y109.057 E29.72382
G1 X162.822 Y109.591 E29.76008
G1 X163.252 Y110.176 E29.7963
G1 X163.616 Y110.805 E29.83256
G1 X163.909 Y111.47 E29.86881
G1 X164.127 Y112.163 E29.90505
G1 X164.267 Y112.875 E29.94126
G1 X164.331 Y113.792 E29.98712
G1 X164.331 Y140.72 E31.33056
G1 X164.291 Y141.445 E31.36679
G1 X164.172 Y142.162 E31.40305
G1 X163.974 Y142.861 E31.43929
G1 X163.701 Y143.534 E31.47553
G1 X163.356 Y144.173 E31.51176
G1 X162.942 Y144.77 E31.548
G1 X162.466 Y145.318 E31.58421
G1 X161.932 Y145.811 E31.62047
G1 X161.347 Y146.241 E31.6567
G1 X160.718 Y146.605 E31.69295
G1 X160.053 Y146.898 E31.72921
G1 X159.36 Y147.116 E31.76545
G1 X158.648 Y147.256 E31.80165
G1 X157.731 Y147.32 E31.84751
G1 X142.769 Y147.32 E32.59397
G1 X142.044 Y147.28 E32.6302
G1 X141.327 Y147.161 E32.66646
G1 X140.628 Y146.963 E32.7027
G1 X139.955 Y146.69 E32.73894
G1 X139.316 Y146.345 E32.77516
G1 X138.719 Y145.931 E32.81141
G1 X138.171 Y145.455 E32.84762
G1 X137.678 Y144.921 E32.88388
G1 X137.248 Y144.336 E32.9201
G1 X136.884 Y143.707 E32.95636
G1 X136.591 Y143.042 E32.99262
G1 X136.373 Y142.349 E33.02886
G1 X136.233 Y141.637 E33.06506
G1 X136.169 Y140.72 E33.11092
G1 X136.169 Y137.681 E33.26254
G1 X135.398 Y138.561 E33.32091
G1 X134.539 Y139.304 E33.37757
G1 X133.54 Y139.952 E33.43698
G1 X132.456 Y140.452 E33.49654
G1 X131.369 Y140.78 E33.55318
G1 X130.215 Y140.963 E33.61147
G1 X129.489 Y140.998 E33.64774
G1 X118.717 Y140.998 E34.18515
G1 X117.992 Y140.958 E34.22138
G1 X117.275 Y140.839 E34.25764
G1 X116.576 Y140.641 E34.29389
G1 X115.903 Y140.368 E34.33012
G1 X115.264 Y140.023 E34.36635
G1 X114.667 Y139.609 E34.40259
G1 X114.119 Y139.133 E34.43881
