;FLAVOR:Marlin
;TIME:1461
;Filament used: 1.43826m
;Layer height: 0.15
;MINX:94.781
;MINY:111.155
;MINZ:0.3
;MAXX:155.22
;MAXY:145.392
;MAXZ:17.4
;Generated with Cura_SteamEngine 5.0.0
M140 S60
M105
M190 S60
M104 S200
M105
M109 S200
M82 ;absolute extrusion mode
G21 ;metric values
G90 ;absolute positioning
M82 ;set extruder to absolute mode
M107 ;start with the fan off
G28 X0 Y0 ;move X/Y to min endstops
M300 S1318 P266
G28 Z0 ;move Z to min endstops
G0 Z0.2
G92 E0 ;zero the extruded length
G1 X40 E25 F400 ; Extrude 25mm of filament in a 4cm line. Reduce speed (F) if you have a nozzle smaller than 0.4mm!
G92 E0 ;zero the extruded length again
G1 E-1 F500 ; Retract a little
G1 X80 F4000 ; Quickly wipe away from the filament line
M117 ; Printing…
G5
G92 E0
G92 E0
G1 F1500 E-6.5
;LAYER_COUNT:115
;LAYER:0
M107
G0 F3600 X100.961 Y115.464 Z0.3
G0 X94.781 Y129.007
;TYPE:SKIRT
G1 F1500 E0
G1 F1800 X94.784 Y128.143 E0.04311
G1 X94.837 Y127.244 E0.08803
G1 X94.923 Y126.458 E0.12748
G1 X95.071 Y125.543 E0.17373
G1 X95.226 Y124.809 E0.21115
G1 X95.467 Y123.89 E0.25855
G1 X95.681 Y123.206 E0.29431
G1 X96.025 Y122.259 E0.34457
G1 X96.394 Y121.405 E0.39099
G1 X96.84 Y120.522 E0.44034
G1 X97.195 Y119.893 E0.47638
G1 X97.746 Y119.015 E0.52809
G1 X98.31 Y118.229 E0.57635
G1 X98.971 Y117.419 E0.62851
G1 X99.499 Y116.836 E0.66776
G1 X100.185 Y116.154 E0.71602
G1 X100.961 Y115.464 E0.76782
G1 X101.831 Y114.778 E0.8231
G1 X102.56 Y114.268 E0.86748
G1 X103.568 Y113.645 E0.9266
G1 X104.305 Y113.243 E0.96848
G1 X105.354 Y112.745 E1.02642
G1 X106.095 Y112.438 E1.06643
G1 X106.803 Y112.187 E1.10391
G1 X107.62 Y111.921 E1.14678
G1 X108.366 Y111.719 E1.18533
G1 X109.412 Y111.497 E1.23868
G1 X110.149 Y111.369 E1.276
G1 X111.261 Y111.23 E1.33191
G1 X111.783 Y111.189 E1.35803
G1 X112.384 Y111.162 E1.38805
G1 X113.392 Y111.157 E1.43834
G1 X114.458 Y111.213 E1.49159
G1 X115.633 Y111.348 E1.5506
G1 X116.35 Y111.461 E1.58681
G1 X117.031 Y111.588 E1.62137
G1 X117.67 Y111.737 E1.65411
G1 X118.393 Y111.942 E1.6916
G1 X119.281 Y112.219 E1.73801
G1 X119.936 Y112.456 E1.77276
G1 X120.505 Y112.694 E1.80353
G1 X121.361 Y113.076 E1.8503
G1 X122.056 Y113.429 E1.88919
G1 X122.958 Y113.951 E1.94118
G1 X123.855 Y114.532 E1.9945
G1 X124.608 Y115.092 E2.04132
G1 X125 Y115.404 E2.06631
G1 X125.646 Y114.898 E2.10725
G1 X126.148 Y114.531 E2.13828
G1 X126.643 Y114.197 E2.16807
G1 X127.27 Y113.815 E2.2047
G1 X127.949 Y113.427 E2.24371
G1 X128.619 Y113.086 E2.28122
G1 X129.717 Y112.597 E2.34119
G1 X130.685 Y112.231 E2.39282
G1 X131.569 Y111.952 E2.43906
G1 X132.421 Y111.715 E2.48318
G1 X132.997 Y111.582 E2.51268
G1 X133.74 Y111.446 E2.55036
G1 X134.523 Y111.326 E2.58988
G1 X135.63 Y111.207 E2.64543
G1 X136.314 Y111.165 E2.67962
G1 X137.274 Y111.155 E2.72751
G1 X138.216 Y111.189 E2.77454
G1 X138.735 Y111.229 E2.80051
G1 X139.369 Y111.3 E2.83234
G1 X140.582 Y111.496 E2.89364
G1 X141.642 Y111.722 E2.94771
G1 X142.351 Y111.914 E2.98436
G1 X143.406 Y112.258 E3.03972
G1 X143.896 Y112.434 E3.0657
G1 X144.438 Y112.652 E3.09484
G1 X145.736 Y113.264 E3.16644
G1 X146.471 Y113.667 E3.20826
G1 X147.45 Y114.274 E3.26573
G1 X148.176 Y114.783 E3.30996
G1 X149.043 Y115.468 E3.36509
G1 X149.545 Y115.9 E3.39813
G1 X149.988 Y116.322 E3.42865
G1 X150.489 Y116.824 E3.46404
G1 X150.996 Y117.384 E3.50172
G1 X151.675 Y118.211 E3.55511
G1 X152.253 Y119.013 E3.60443
G1 X152.803 Y119.889 E3.65603
G1 X153.16 Y120.521 E3.69225
G1 X153.618 Y121.428 E3.74294
G1 X153.994 Y122.302 E3.79041
G1 X154.327 Y123.227 E3.83945
G1 X154.533 Y123.89 E3.87409
G1 X154.774 Y124.809 E3.92149
G1 X154.928 Y125.54 E3.95876
G1 X155.076 Y126.453 E4.00491
G1 X155.163 Y127.242 E4.04451
G1 X155.216 Y128.141 E4.08944
G1 X155.22 Y129.004 E4.13249
G1 X155.174 Y129.89 E4.17675
G1 X155.08 Y130.753 E4.22006
G1 X154.937 Y131.622 E4.264
G1 X154.732 Y132.53 E4.31044
G1 X154.489 Y133.367 E4.35392
G1 X154.15 Y134.304 E4.40364
G1 X153.795 Y135.12 E4.44803
G1 X153.397 Y135.91 E4.49217
G1 X152.947 Y136.689 E4.53705
G1 X152.526 Y137.34 E4.57573
G1 X151.989 Y138.087 E4.62163
G1 X151.488 Y138.714 E4.66167
G1 X150.868 Y139.412 E4.70824
G1 X150.29 Y139.997 E4.74927
G1 X149.578 Y140.646 E4.79734
G1 X149.042 Y141.092 E4.83212
G1 X148.26 Y141.686 E4.88112
G1 X147.686 Y142.083 E4.91594
G1 X146.844 Y142.611 E4.96552
G1 X146.253 Y142.947 E4.99944
G1 X145.348 Y143.41 E5.05015
G1 X144.73 Y143.693 E5.08406
G1 X143.772 Y144.082 E5.13565
G1 X143.148 Y144.305 E5.16871
G1 X142.139 Y144.618 E5.22142
G1 X141.597 Y144.765 E5.24943
G1 X140.609 Y144.995 E5.30004
G1 X139.937 Y145.12 E5.33414
G1 X139.184 Y145.227 E5.37209
G1 X138.001 Y145.34 E5.43138
G1 X137.183 Y145.384 E5.47225
G1 X136.206 Y145.389 E5.52099
G1 X135.263 Y145.349 E5.56808
G1 X134.177 Y145.25 E5.62248
G1 X133.484 Y145.15 E5.65742
G1 X132.515 Y144.965 E5.70663
G1 X131.848 Y144.807 E5.74083
G1 X130.865 Y144.528 E5.79181
G1 X130.161 Y144.291 E5.82887
G1 X129.225 Y143.926 E5.87899
G1 X128.517 Y143.609 E5.91769
G1 X127.632 Y143.158 E5.96725
G1 X126.958 Y142.77 E6.00605
G1 X126.13 Y142.238 E6.05515
G1 X125.49 Y141.78 E6.09441
G1 X125 Y141.39 E6.12566
G1 X124.51 Y141.78 E6.1569
G1 X123.87 Y142.238 E6.19616
G1 X123.042 Y142.77 E6.24526
G1 X122.368 Y143.158 E6.28406
G1 X121.483 Y143.609 E6.33362
G1 X120.782 Y143.923 E6.37194
G1 X119.846 Y144.289 E6.42208
G1 X119.121 Y144.533 E6.46024
G1 X118.138 Y144.81 E6.5112
G1 X117.492 Y144.962 E6.54431
G1 X116.523 Y145.148 E6.59353
G1 X115.807 Y145.251 E6.62962
G1 X114.902 Y145.337 E6.67498
G1 X114.183 Y145.378 E6.7109
G1 X113.502 Y145.392 E6.74489
G1 X112.49 Y145.369 E6.79539
G1 X111.6 Y145.311 E6.83989
G1 X110.885 Y145.235 E6.87576
G1 X110.018 Y145.113 E6.91944
G1 X109.351 Y144.986 E6.95331
G1 X108.391 Y144.76 E7.00252
G1 X107.879 Y144.622 E7.02897
G1 X106.864 Y144.309 E7.08196
G1 X106.228 Y144.082 E7.11565
G1 X105.27 Y143.693 E7.16724
G1 X104.652 Y143.41 E7.20115
G1 X103.747 Y142.947 E7.25187
G1 X103.156 Y142.611 E7.28578
G1 X102.314 Y142.083 E7.33537
G1 X101.74 Y141.686 E7.37019
G1 X100.958 Y141.092 E7.41918
G1 X100.422 Y140.646 E7.45397
G1 X99.71 Y139.997 E7.50203
G1 X99.132 Y139.412 E7.54306
G1 X98.512 Y138.714 E7.58964
G1 X98.011 Y138.087 E7.62968
G1 X97.474 Y137.34 E7.67558
G1 X97.053 Y136.689 E7.71426
G1 X96.603 Y135.91 E7.75914
G1 X96.205 Y135.12 E7.80327
G1 X95.85 Y134.304 E7.84767
G1 X95.511 Y133.367 E7.89738
G1 X95.268 Y132.53 E7.94086
G1 X95.063 Y131.622 E7.9873
G1 X94.92 Y130.753 E8.03124
G1 X94.827 Y129.891 E8.0745
G1 X94.781 Y129.007 E8.11866
G0 F3600 X95.18 Y128.987
G1 F1800 X95.183 Y128.166 E8.15962
G1 X95.236 Y127.267 E8.20455
G1 X95.318 Y126.521 E8.24199
G1 X95.466 Y125.606 E8.28823
G1 X95.613 Y124.911 E8.32367
G1 X95.854 Y123.992 E8.37107
G1 X96.057 Y123.342 E8.40505
G1 X96.401 Y122.395 E8.45531
G1 X96.751 Y121.586 E8.49929
G1 X97.197 Y120.703 E8.54864
G1 X97.534 Y120.105 E8.58289
G1 X98.085 Y119.227 E8.6346
G1 X98.62 Y118.482 E8.68036
G1 X99.281 Y117.672 E8.73252
G1 X99.781 Y117.118 E8.76975
G1 X100.459 Y116.445 E8.81741
G1 X101.209 Y115.778 E8.86749
G1 X102.079 Y115.092 E8.92276
G1 X102.77 Y114.608 E8.96485
G1 X103.778 Y113.985 E9.02397
G1 X104.478 Y113.603 E9.06376
G1 X105.516 Y113.111 E9.12106
G1 X106.231 Y112.815 E9.15967
G1 X106.927 Y112.568 E9.19652
G1 X107.744 Y112.302 E9.23938
G1 X108.451 Y112.109 E9.27595
G1 X109.163 Y111.953 E9.31231
G1 X110.218 Y111.763 E9.36579
G1 X111.306 Y111.627 E9.4205
G1 X112.402 Y111.561 E9.47527
G1 X113.39 Y111.557 E9.52457
G1 X114.431 Y111.613 E9.57658
G1 X115.583 Y111.745 E9.63443
G1 X116.285 Y111.855 E9.66988
G1 X116.957 Y111.981 E9.70399
G1 X117.563 Y112.122 E9.73503
G1 X118.274 Y112.324 E9.7719
G1 X119.162 Y112.601 E9.81831
G1 X119.783 Y112.825 E9.85125
G1 X120.342 Y113.059 E9.88148
G1 X121.198 Y113.441 E9.92825
G1 X121.858 Y113.776 E9.96517
G1 X122.748 Y114.291 E10.01647
G1 X123.618 Y114.855 E10.0682
G1 X124.359 Y115.405 E10.11424
G1 X124.785 Y115.744 E10.1414
G1 X125 Y115.93 E10.15558
G1 X125.646 Y115.401 E10.19724
G1 X126.384 Y114.854 E10.24307
G1 X126.854 Y114.537 E10.27135
G1 X127.469 Y114.162 E10.30729
G1 X128.148 Y113.774 E10.34631
G1 X128.783 Y113.45 E10.38187
G1 X129.868 Y112.968 E10.4411
G1 X130.806 Y112.612 E10.49116
G1 X131.988 Y112.246 E10.55289
G1 X132.525 Y112.101 E10.58064
G1 X133.072 Y111.975 E10.60865
G1 X133.801 Y111.841 E10.64562
G1 X134.584 Y111.721 E10.68514
G1 X135.669 Y111.605 E10.73958
G1 X136.334 Y111.565 E10.77282
G1 X137.275 Y111.555 E10.81977
G1 X138.198 Y111.588 E10.86585
G1 X139.325 Y111.698 E10.92234
G1 X140.514 Y111.89 E10.98243
G1 X141.556 Y112.112 E11.03558
G1 X142.229 Y112.295 E11.07038
G1 X143.27 Y112.635 E11.12501
G1 X143.76 Y112.811 E11.15099
G1 X144.275 Y113.018 E11.17868
G1 X145.562 Y113.624 E11.24965
G1 X146.26 Y114.007 E11.28937
G1 X147.239 Y114.614 E11.34684
G1 X147.928 Y115.097 E11.38882
G1 X148.795 Y115.782 E11.44395
G1 X149.271 Y116.192 E11.47529
G1 X149.705 Y116.605 E11.50518
G1 X150.206 Y117.107 E11.54056
G1 X150.687 Y117.638 E11.57631
G1 X151.366 Y118.465 E11.62969
G1 X151.914 Y119.226 E11.67648
G1 X152.464 Y120.102 E11.72808
G1 X152.803 Y120.701 E11.76242
G1 X153.261 Y121.608 E11.81311
G1 X153.618 Y122.437 E11.85814
G1 X153.951 Y123.362 E11.90719
G1 X154.146 Y123.992 E11.94009
G1 X154.387 Y124.911 E11.98749
G1 X154.534 Y125.604 E12.02283
G1 X154.682 Y126.517 E12.06898
G1 X154.764 Y127.265 E12.10652
G1 X154.817 Y128.164 E12.15145
G1 X154.82 Y128.984 E12.19236
G1 X154.774 Y129.87 E12.23662
G1 X154.686 Y130.688 E12.27767
G1 X154.543 Y131.557 E12.3216
G1 X154.348 Y132.418 E12.36565
G1 X154.105 Y133.255 E12.40913
G1 X153.784 Y134.144 E12.45629
G1 X153.429 Y134.96 E12.50068
G1 X153.051 Y135.71 E12.54258
G1 X152.601 Y136.489 E12.58747
G1 X152.202 Y137.106 E12.62412
G1 X151.665 Y137.853 E12.67002
G1 X151.189 Y138.448 E12.70804
G1 X150.569 Y139.146 E12.75461
G1 X150.021 Y139.701 E12.79353
G1 X149.309 Y140.35 E12.84159
G1 X148.8 Y140.774 E12.87464
G1 X148.018 Y141.368 E12.92363
G1 X147.473 Y141.744 E12.95667
G1 X146.631 Y142.272 E13.00625
G1 X146.07 Y142.591 E13.03845
G1 X145.165 Y143.054 E13.08916
G1 X144.579 Y143.322 E13.12131
G1 X143.621 Y143.711 E13.1729
G1 X143.029 Y143.923 E13.20427
G1 X142.02 Y144.236 E13.25697
G1 X141.506 Y144.375 E13.28354
G1 X140.518 Y144.605 E13.33415
G1 X139.881 Y144.724 E13.36648
G1 X139.128 Y144.831 E13.40442
G1 X137.967 Y144.942 E13.46261
G1 X137.164 Y144.984 E13.50273
G1 X136.208 Y144.989 E13.55042
G1 X135.283 Y144.949 E13.59661
G1 X134.217 Y144.852 E13.65002
G1 X133.559 Y144.757 E13.68318
G1 X132.59 Y144.572 E13.7324
G1 X131.958 Y144.422 E13.76481
G1 X130.975 Y144.143 E13.81579
G1 X130.307 Y143.918 E13.85095
G1 X129.371 Y143.553 E13.90108
G1 X128.699 Y143.252 E13.93781
G1 X127.814 Y142.801 E13.98737
G1 X127.174 Y142.434 E14.02417
G1 X126.346 Y141.902 E14.07327
G1 X125.739 Y141.467 E14.11053
G1 X125 Y140.879 E14.15765
G1 X124.261 Y141.467 E14.20476
G1 X123.654 Y141.902 E14.24202
G1 X122.826 Y142.434 E14.29112
G1 X122.186 Y142.801 E14.32793
G1 X121.301 Y143.252 E14.37748
G1 X120.636 Y143.551 E14.41386
G1 X119.7 Y143.917 E14.464
G1 X119.012 Y144.148 E14.50021
G1 X118.029 Y144.425 E14.55116
G1 X117.417 Y144.569 E14.58253
G1 X116.448 Y144.755 E14.63175
G1 X115.769 Y144.853 E14.66598
G1 X114.874 Y144.938 E14.71083
G1 X114.175 Y144.978 E14.74576
G1 X113.494 Y144.992 E14.77974
G1 X112.504 Y144.97 E14.82915
G1 X111.629 Y144.912 E14.8729
G1 X110.93 Y144.838 E14.90796
G1 X110.075 Y144.717 E14.95105
G1 X109.442 Y144.597 E14.98319
G1 X108.482 Y144.371 E15.03239
G1 X107.997 Y144.239 E15.05747
G1 X106.982 Y143.926 E15.11046
G1 X106.379 Y143.711 E15.1424
G1 X105.421 Y143.322 E15.19399
G1 X104.835 Y143.054 E15.22613
G1 X103.93 Y142.591 E15.27685
G1 X103.369 Y142.272 E15.30905
G1 X102.527 Y141.744 E15.35863
G1 X101.982 Y141.368 E15.39166
G1 X101.2 Y140.774 E15.44066
G1 X100.691 Y140.35 E15.47371
G1 X99.979 Y139.701 E15.52177
G1 X99.431 Y139.146 E15.56068
G1 X98.811 Y138.448 E15.60726
G1 X98.335 Y137.853 E15.64528
G1 X97.798 Y137.106 E15.69117
G1 X97.399 Y136.489 E15.72783
G1 X96.949 Y135.71 E15.77271
G1 X96.571 Y134.96 E15.81462
G1 X96.216 Y134.144 E15.85901
G1 X95.895 Y133.255 E15.90617
G1 X95.652 Y132.418 E15.94965
G1 X95.457 Y131.557 E15.99369
G1 X95.314 Y130.688 E16.03763
G1 X95.226 Y129.871 E16.07863
G1 X95.18 Y128.987 E16.12279
G0 F3600 X95.579 Y128.966
G1 F1800 X95.582 Y128.19 E16.1615
G1 X95.635 Y127.291 E16.20643
G1 X95.713 Y126.585 E16.24187
G1 X95.861 Y125.67 E16.28811
G1 X96 Y125.012 E16.32167
G1 X96.241 Y124.093 E16.36906
G1 X96.433 Y123.479 E16.40116
G1 X96.777 Y122.532 E16.45143
G1 X97.108 Y121.766 E16.49306
G1 X97.554 Y120.883 E16.54241
G1 X97.873 Y120.318 E16.57478
G1 X98.424 Y119.44 E16.6265
G1 X98.93 Y118.735 E16.66979
G1 X99.591 Y117.925 E16.72195
G1 X100.064 Y117.401 E16.75717
G1 X100.734 Y116.736 E16.80426
G1 X101.457 Y116.092 E16.85257
G1 X102.327 Y115.406 E16.90784
G1 X102.981 Y114.949 E16.94765
G1 X103.989 Y114.326 E17.00677
G1 X104.65 Y113.964 E17.04437
G1 X105.678 Y113.477 E17.10112
G1 X106.367 Y113.191 E17.13834
G1 X107.051 Y112.948 E17.17455
G1 X107.868 Y112.682 E17.21742
G1 X108.537 Y112.5 E17.25201
G1 X109.549 Y112.285 E17.30362
G1 X110.286 Y112.157 E17.34094
G1 X111.351 Y112.025 E17.39448
G1 X112.42 Y111.961 E17.44791
G1 X113.388 Y111.957 E17.4962
G1 X114.404 Y112.012 E17.54697
G1 X115.533 Y112.142 E17.60366
G1 X116.22 Y112.25 E17.63836
G1 X116.882 Y112.374 E17.67196
G1 X117.456 Y112.508 E17.70137
G1 X118.154 Y112.706 E17.73757
G1 X119.042 Y112.983 E17.78397
G1 X119.63 Y113.195 E17.81516
G1 X120.179 Y113.425 E17.84485
G1 X121.035 Y113.807 E17.89162
G1 X121.659 Y114.124 E17.92654
G1 X122.538 Y114.631 E17.97716
G1 X123.382 Y115.178 E18.02734
G1 X124.11 Y115.718 E18.07256
G1 X124.536 Y116.057 E18.09972
G1 X125 Y116.46 E18.13038
G1 X125.467 Y116.054 E18.16126
G1 X126.118 Y115.544 E18.20252
G1 X126.62 Y115.177 E18.23354
G1 X127.064 Y114.877 E18.26027
G1 X127.667 Y114.509 E18.29552
G1 X128.346 Y114.121 E18.33453
G1 X128.947 Y113.815 E18.36818
G1 X130.019 Y113.338 E18.42672
G1 X130.926 Y112.994 E18.47511
G1 X132.092 Y112.632 E18.53602
G1 X132.629 Y112.487 E18.56377
G1 X133.146 Y112.368 E18.59024
G1 X133.862 Y112.237 E18.62656
G1 X134.645 Y112.117 E18.66608
G1 X135.707 Y112.003 E18.71936
G1 X136.353 Y111.964 E18.75165
G1 X137.275 Y111.955 E18.79765
G1 X138.18 Y111.988 E18.84283
G1 X139.28 Y112.095 E18.89797
G1 X140.445 Y112.284 E18.95685
G1 X141.469 Y112.503 E19.0091
G1 X142.106 Y112.675 E19.04202
G1 X143.135 Y113.011 E19.09602
G1 X143.625 Y113.187 E19.12199
G1 X144.112 Y113.383 E19.14819
G1 X145.389 Y113.985 E19.21862
G1 X146.05 Y114.347 E19.25622
G1 X147.029 Y114.954 E19.31369
G1 X147.68 Y115.41 E19.35334
G1 X148.547 Y116.095 E19.40847
G1 X148.997 Y116.484 E19.43814
G1 X149.422 Y116.887 E19.46736
G1 X149.923 Y117.389 E19.50275
G1 X150.378 Y117.892 E19.53659
G1 X151.057 Y118.719 E19.58997
G1 X151.575 Y119.439 E19.63422
G1 X152.125 Y120.315 E19.68582
G1 X152.446 Y120.882 E19.71833
G1 X152.904 Y121.789 E19.76902
G1 X153.241 Y122.573 E19.8116
G1 X153.574 Y123.498 E19.86065
G1 X153.759 Y124.093 E19.89173
G1 X154 Y125.012 E19.93913
G1 X154.139 Y125.668 E19.97259
G1 X154.287 Y126.581 E20.01873
G1 X154.365 Y127.289 E20.05427
G1 X154.418 Y128.188 E20.0992
G1 X154.421 Y128.963 E20.13786
G1 X154.375 Y129.849 E20.18212
G1 X154.291 Y130.623 E20.22096
G1 X154.148 Y131.492 E20.2649
G1 X153.963 Y132.307 E20.3066
G1 X153.72 Y133.144 E20.35008
G1 X153.417 Y133.985 E20.39468
G1 X153.062 Y134.801 E20.43907
G1 X152.704 Y135.509 E20.47865
G1 X152.254 Y136.288 E20.52354
G1 X151.877 Y136.873 E20.55826
G1 X151.34 Y137.62 E20.60416
G1 X150.89 Y138.183 E20.64012
G1 X150.27 Y138.881 E20.68669
