;FLAVOR:Marlin
;TIME:2122
;Filament used: 1.16508m
;Layer height: 0.15
;MINX:102.331
;MINY:89.108
;MINZ:0.3
;MAXX:150.612
;MAXY:161.623
;MAXZ:46.95
;Generated with Cura_SteamEngine 5.0.0
M140 S60
M105
M190 S60
M104 S200
M105
M109 S200
M82 ;absolute extrusion mode
G21 ;metric values
G90 ;absolute positioning
M82 ;set extruder to absolute mode
M107 ;start with the fan off
G28 X0 Y0 ;move X/Y to min endstops
M300 S1318 P266
G28 Z0 ;move Z to min endstops
G0 Z0.2
G92 E0 ;zero the extruded length
G1 X40 E25 F400 ; Extrude 25mm of filament in a 4cm line. Reduce speed (F) if you have a nozzle smaller than 0.4mm!
G92 E0 ;zero the extruded length again
G1 E-1 F500 ; Retract a little
G1 X80 F4000 ; Quickly wipe away from the filament line
M117 ; Printing…
G5
G92 E0
G92 E0
G1 F1500 E-6.5
;LAYER_COUNT:313
;LAYER:0
M107
G0 F3600 X104.516 Y97.083 Z0.3
G0 X102.331 Y103.399
;TYPE:SKIRT
G1 F1500 E0
G1 F1800 X102.34 Y102.628 E0.03847
G1 X102.446 Y101.55 E0.09251
G1 X102.653 Y100.635 E0.13931
G1 X103.001 Y99.583 E0.19459
G1 X103.434 Y98.682 E0.24447
G1 X104.031 Y97.703 E0.30167
G1 X104.516 Y97.083 E0.34095
G1 X105.339 Y96.196 E0.40131
G1 X105.793 Y95.801 E0.43134
G1 X106.187 Y95.484 E0.45656
G1 X107.085 Y94.86 E0.51112
G1 X107.602 Y94.552 E0.54114
G1 X108.418 Y94.129 E0.587
G1 X109.082 Y93.833 E0.62327
G1 X109.77 Y93.564 E0.66012
G1 X110.593 Y93.287 E0.70345
G1 X111.951 Y92.9 E0.77389
G1 X113.273 Y92.582 E0.84173
G1 X114.726 Y92.277 E0.9158
G1 X116.27 Y91.989 E0.99416
G1 X119.854 Y91.362 E1.17568
G1 X121.894 Y90.981 E1.27922
G1 X126.409 Y90.112 E1.50861
G1 X128.174 Y89.797 E1.59805
G1 X129.687 Y89.558 E1.67447
G1 X131.312 Y89.344 E1.75625
G1 X132.645 Y89.211 E1.82308
G1 X133.02 Y89.182 E1.84184
G1 X134.288 Y89.117 E1.90519
G1 X134.822 Y89.108 E1.93183
G1 X135.98 Y89.128 E1.98961
G1 X136.805 Y89.186 E2.03088
G1 X137.813 Y89.311 E2.08155
G1 X138.591 Y89.448 E2.12096
G1 X139.134 Y89.593 E2.149
G1 X139.945 Y89.841 E2.19131
G1 X140.687 Y90.11 E2.23069
G1 X141.531 Y90.526 E2.27763
G1 X142.137 Y90.872 E2.31245
G1 X142.803 Y91.298 E2.35189
G1 X143.421 Y91.789 E2.39127
G1 X143.942 Y92.292 E2.4274
G1 X144.347 Y92.721 E2.45683
G1 X144.859 Y93.321 E2.49618
G1 X145.308 Y93.971 E2.5356
G1 X145.689 Y94.663 E2.57501
G1 X145.926 Y95.202 E2.60438
G1 X146.117 Y95.684 E2.63025
G1 X146.371 Y96.431 E2.66961
G1 X146.547 Y97.201 E2.70902
G1 X146.645 Y97.985 E2.74844
G1 X146.658 Y98.906 E2.79439
G1 X146.635 Y99.42 E2.82006
G1 X146.56 Y100.206 E2.85945
G1 X146.406 Y100.98 E2.89882
G1 X146.174 Y101.735 E2.93823
G1 X145.913 Y102.367 E2.97234
G1 X145.672 Y102.884 E3.0008
G1 X145.302 Y103.581 E3.04017
G1 X144.864 Y104.238 E3.07956
G1 X144.348 Y104.863 E3.12
G1 X143.877 Y105.376 E3.15474
G1 X143.314 Y105.93 E3.19415
G1 X142.515 Y106.552 E3.24467
G1 X141.819 Y107.025 E3.28665
G1 X141.144 Y107.435 E3.32605
G1 X140.609 Y107.699 E3.35582
G1 X139.682 Y108.112 E3.40645
G1 X138.895 Y108.413 E3.44848
G1 X137.778 Y108.772 E3.50702
G1 X137.264 Y108.918 E3.53368
G1 X136.62 Y109.077 E3.56677
G1 X137.274 Y109.24 E3.6004
G1 X137.776 Y109.383 E3.62644
G1 X138.891 Y109.741 E3.68486
G1 X139.672 Y110.039 E3.72657
G1 X140.6 Y110.451 E3.77722
G1 X141.305 Y110.808 E3.81665
G1 X141.807 Y111.12 E3.84614
G1 X142.503 Y111.591 E3.88806
G1 X143.133 Y112.066 E3.92743
G1 X143.876 Y112.775 E3.97866
G1 X144.348 Y113.289 E4.01348
G1 X144.852 Y113.897 E4.05288
G1 X145.292 Y114.553 E4.09229
G1 X145.677 Y115.28 E4.13333
G1 X145.918 Y115.799 E4.16188
G1 X146.214 Y116.531 E4.20127
G1 X146.435 Y117.289 E4.24066
G1 X146.577 Y118.066 E4.28007
G1 X146.637 Y118.75 E4.31432
G1 X146.659 Y119.263 E4.33994
G1 X146.653 Y120.052 E4.37931
G1 X146.574 Y120.775 E4.41559
G1 X147.017 Y121.448 E4.45579
G1 X147.589 Y122.508 E4.51588
G1 X147.84 Y123.128 E4.54925
G1 X148.19 Y124.233 E4.60708
G1 X148.357 Y125.144 E4.65329
G1 X148.457 Y126.3 E4.71118
G1 X148.425 Y127.189 E4.75556
G1 X148.273 Y128.374 E4.81516
G1 X148.124 Y128.991 E4.84683
G1 X147.774 Y130.077 E4.90375
G1 X147.426 Y130.834 E4.94532
G1 X146.837 Y131.866 E5.0046
G1 X146.345 Y132.528 E5.04575
G1 X145.574 Y133.396 E5.10367
G1 X145.194 Y133.745 E5.12941
G1 X144.303 Y134.461 E5.18644
G1 X143.432 Y134.989 E5.23726
G1 X142.362 Y135.5 E5.29641
G1 X141.668 Y135.739 E5.33303
G1 X140.553 Y136.022 E5.39042
G1 X139.793 Y136.124 E5.42868
G1 X138.649 Y136.181 E5.48583
G1 X137.99 Y136.142 E5.51876
G1 X136.837 Y135.984 E5.57682
G1 X135.959 Y135.75 E5.62215
G1 X134.848 Y135.34 E5.68124
G1 X134.132 Y134.974 E5.72135
G1 X133.147 Y134.359 E5.77929
G1 X132.528 Y133.863 E5.81886
G1 X131.685 Y133.06 E5.87695
G1 X131.342 Y132.66 E5.90323
G1 X130.66 Y131.744 E5.96021
G1 X130.221 Y130.973 E6.00447
G1 X129.736 Y129.904 E6.06304
G1 X129.496 Y129.15 E6.10251
G1 X129.35 Y128.543 E6.13366
G1 X128.024 Y128.33 E6.20066
G1 X126.32 Y128.025 E6.28703
G1 X123.596 Y127.502 E6.42541
G1 X123.523 Y128.121 E6.45651
G1 X123.39 Y128.751 E6.48863
G1 X123.068 Y129.85 E6.54576
G1 X122.657 Y130.78 E6.59649
G1 X122.071 Y131.816 E6.65587
G1 X121.601 Y132.455 E6.69545
G1 X120.837 Y133.329 E6.75336
G1 X120.408 Y133.727 E6.78256
G1 X119.499 Y134.456 E6.84069
G1 X118.805 Y134.887 E6.88145
G1 X117.765 Y135.415 E6.93964
G1 X116.981 Y135.701 E6.98127
G1 X115.867 Y135.998 E7.03879
G1 X115.151 Y136.105 E7.07491
G1 X113.999 Y136.182 E7.13251
G1 X113.351 Y136.155 E7.16487
G1 X112.207 Y136.02 E7.22234
G1 X111.313 Y135.798 E7.2683
G1 X110.197 Y135.408 E7.32727
G1 X109.58 Y135.112 E7.36142
G1 X108.592 Y134.537 E7.41845
G1 X107.792 Y133.92 E7.46885
G1 X106.931 Y133.108 E7.5279
G1 X106.383 Y132.461 E7.5702
G1 X105.916 Y131.824 E7.6096
G1 X105.449 Y131.012 E7.65634
G1 X104.954 Y129.932 E7.71561
G1 X104.721 Y129.21 E7.75346
G1 X104.457 Y128.079 E7.8114
G1 X104.376 Y127.401 E7.84547
G1 X104.329 Y126.24 E7.90344
G1 X104.382 Y125.508 E7.94005
G1 X104.561 Y124.366 E7.99772
G1 X104.858 Y123.364 E8.04986
G1 X105.313 Y122.254 E8.10971
G1 X105.435 Y122.032 E8.12235
G1 X104.798 Y121.394 E8.16733
G1 X104.035 Y120.457 E8.22761
G1 X103.6 Y119.766 E8.26835
G1 X103.076 Y118.748 E8.32547
G1 X102.741 Y117.819 E8.37474
G1 X102.471 Y116.743 E8.43009
G1 X102.359 Y115.82 E8.47647
G1 X102.332 Y114.738 E8.53047
G1 X102.397 Y113.995 E8.56768
G1 X102.581 Y112.94 E8.62111
G1 X102.732 Y112.4 E8.64908
G1 X103.09 Y111.41 E8.70161
G1 X103.545 Y110.523 E8.75134
G1 X104.116 Y109.643 E8.80368
G1 X104.588 Y109.072 E8.84064
G1 X103.92 Y108.235 E8.89406
G1 X103.538 Y107.618 E8.93027
G1 X103.17 Y106.92 E8.96963
G1 X102.822 Y106.031 E9.01726
G1 X102.537 Y105.018 E9.06976
G1 X102.439 Y104.465 E9.09778
G1 X102.331 Y103.399 E9.15124
G0 F3600 X102.73 Y103.364
G1 F1800 X102.739 Y102.652 E9.18676
G1 X102.844 Y101.595 E9.23976
G1 X103.037 Y100.746 E9.28319
G1 X103.379 Y99.714 E9.33743
G1 X103.783 Y98.878 E9.38376
G1 X104.369 Y97.917 E9.43991
G1 X104.818 Y97.346 E9.47615
G1 X105.628 Y96.474 E9.53553
G1 X106.044 Y96.112 E9.56304
G1 X106.438 Y95.795 E9.58827
G1 X107.29 Y95.204 E9.64
G1 X107.807 Y94.896 E9.67003
G1 X108.581 Y94.494 E9.71354
G1 X109.245 Y94.198 E9.74981
G1 X109.897 Y93.944 E9.78472
G1 X110.72 Y93.667 E9.82804
G1 X112.058 Y93.285 E9.89746
G1 X113.365 Y92.971 E9.96452
G1 X114.799 Y92.671 E10.03762
G1 X116.339 Y92.383 E10.11578
G1 X119.928 Y91.755 E10.29755
G1 X121.945 Y91.377 E10.39993
G1 X126.48 Y90.506 E10.63032
G1 X128.236 Y90.192 E10.71932
G1 X129.741 Y89.955 E10.79533
G1 X131.351 Y89.742 E10.87635
G1 X132.684 Y89.609 E10.94319
G1 X133.04 Y89.582 E10.961
G1 X134.308 Y89.517 E11.02434
G1 X134.815 Y89.508 E11.04964
G1 X135.973 Y89.528 E11.10742
G1 X136.756 Y89.583 E11.14658
G1 X137.764 Y89.708 E11.19726
G1 X138.521 Y89.842 E11.23561
G1 X139.017 Y89.975 E11.26123
G1 X139.828 Y90.223 E11.30354
G1 X140.551 Y90.486 E11.34192
G1 X141.333 Y90.874 E11.38548
G1 X141.939 Y91.22 E11.42029
G1 X142.586 Y91.635 E11.45864
G1 X143.187 Y92.116 E11.49704
G1 X143.651 Y92.566 E11.52929
G1 X144.056 Y92.995 E11.55872
G1 X144.554 Y93.581 E11.59709
G1 X144.989 Y94.216 E11.63549
G1 X145.355 Y94.892 E11.67384
G1 X145.746 Y95.831 E11.72459
G1 X145.991 Y96.56 E11.76296
G1 X146.16 Y97.31 E11.80131
G1 X146.25 Y98.074 E11.83969
G1 X146.259 Y98.888 E11.88031
G1 X146.236 Y99.402 E11.90598
G1 X146.161 Y100.167 E11.94433
G1 X146.008 Y100.921 E11.98271
G1 X145.777 Y101.655 E12.0211
G1 X145.55 Y102.198 E12.05046
G1 X145.309 Y102.715 E12.07892
G1 X144.948 Y103.394 E12.11729
G1 X144.519 Y104.032 E12.15564
G1 X144.053 Y104.593 E12.19203
G1 X143.582 Y105.106 E12.22677
G1 X143.033 Y105.644 E12.26512
G1 X142.29 Y106.221 E12.31205
G1 X141.594 Y106.694 E12.35404
G1 X140.937 Y107.093 E12.39239
G1 X140.447 Y107.333 E12.41961
G1 X139.52 Y107.746 E12.47024
G1 X138.772 Y108.032 E12.51019
G1 X137.655 Y108.391 E12.56873
G1 X137.168 Y108.529 E12.59398
G1 X135.919 Y108.838 E12.65817
G1 X134.764 Y109.077 E12.71701
G1 X135.59 Y109.242 E12.75904
G1 X135.926 Y109.318 E12.77622
G1 X137.177 Y109.629 E12.84054
G1 X137.654 Y109.764 E12.86527
G1 X138.769 Y110.122 E12.92369
G1 X139.51 Y110.405 E12.96327
G1 X140.438 Y110.817 E13.01392
G1 X141.124 Y111.165 E13.0523
G1 X141.582 Y111.451 E13.07924
G1 X142.278 Y111.922 E13.12116
G1 X142.892 Y112.386 E13.15956
G1 X143.582 Y113.046 E13.2072
G1 X144.054 Y113.56 E13.24201
G1 X144.544 Y114.153 E13.28039
G1 X144.97 Y114.793 E13.31875
G1 X145.315 Y115.448 E13.35568
G1 X145.556 Y115.967 E13.38423
G1 X145.843 Y116.681 E13.42262
G1 X146.055 Y117.42 E13.46098
G1 X146.188 Y118.178 E13.49937
G1 X146.237 Y118.767 E13.52886
G1 X146.259 Y119.28 E13.55448
G1 X146.252 Y120.049 E13.59284
G1 X146.165 Y120.813 E13.63121
G1 X146.149 Y120.884 E13.63484
G1 X146.672 Y121.65 E13.68111
G1 X147.233 Y122.692 E13.74015
G1 X147.463 Y123.262 E13.77082
G1 X147.806 Y124.348 E13.82764
G1 X147.96 Y125.192 E13.87044
G1 X148.058 Y126.329 E13.92737
G1 X148.026 Y127.152 E13.96846
G1 X147.876 Y128.316 E14.02702
G1 X147.739 Y128.882 E14.05607
G1 X147.395 Y129.948 E14.11195
G1 X147.072 Y130.648 E14.15041
G1 X146.492 Y131.661 E14.20865
G1 X146.037 Y132.273 E14.2467
G1 X145.279 Y133.125 E14.30359
G1 X144.665 Y133.673 E14.34465
G1 X144.057 Y134.144 E14.38302
G1 X143.247 Y134.634 E14.43025
G1 X142.195 Y135.136 E14.4884
G1 X141.556 Y135.355 E14.5221
G1 X140.461 Y135.632 E14.57846
G1 X139.759 Y135.726 E14.61379
G1 X138.635 Y135.781 E14.66993
G1 X138.031 Y135.744 E14.70012
G1 X136.898 Y135.588 E14.75718
G1 X136.085 Y135.37 E14.79918
G1 X134.993 Y134.967 E14.85725
G1 X134.332 Y134.628 E14.89431
G1 X133.364 Y134.023 E14.95126
G1 X132.793 Y133.564 E14.98781
G1 X131.966 Y132.774 E15.04487
G1 X131.434 Y132.134 E15.08639
G1 X130.985 Y131.51 E15.12474
G1 X130.58 Y130.795 E15.16574
G1 X130.103 Y129.744 E15.22332
G1 X129.883 Y129.048 E15.25974
G1 X129.685 Y128.19 E15.30367
G1 X128.094 Y127.937 E15.38404
G1 X126.396 Y127.632 E15.47011
G1 X123.235 Y127.026 E15.63069
G1 X123.125 Y128.074 E15.68326
G1 X123.002 Y128.652 E15.71274
G1 X122.686 Y129.731 E15.76883
G1 X122.303 Y130.595 E15.81598
G1 X121.726 Y131.613 E15.87436
G1 X121.291 Y132.202 E15.91089
G1 X120.54 Y133.06 E15.96778
G1 X120.147 Y133.424 E15.99451
G1 X119.253 Y134.139 E16.05162
G1 X118.612 Y134.537 E16.08926
G1 X117.59 Y135.055 E16.14642
G1 X116.864 Y135.318 E16.18495
G1 X115.77 Y135.609 E16.24143
G1 X115.11 Y135.707 E16.27471
G1 X113.979 Y135.782 E16.33126
G1 X113.384 Y135.757 E16.36097
G1 X112.261 Y135.623 E16.4174
G1 X111.432 Y135.416 E16.46003
G1 X110.336 Y135.032 E16.51797
G1 X109.769 Y134.759 E16.54936
G1 X108.799 Y134.194 E16.60537
G1 X108.056 Y133.62 E16.65221
G1 X107.211 Y132.822 E16.71019
G1 X106.693 Y132.208 E16.75027
G1 X106.239 Y131.587 E16.78865
G1 X105.807 Y130.834 E16.83196
G1 X105.322 Y129.772 E16.89021
G1 X105.107 Y129.105 E16.92517
G1 X104.848 Y127.994 E16.98208
G1 X104.775 Y127.371 E17.01338
G1 X104.729 Y126.23 E17.07035
G1 X104.779 Y125.556 E17.10407
G1 X104.955 Y124.434 E17.16073
G1 X105.233 Y123.503 E17.2092
G1 X105.681 Y122.412 E17.26804
G1 X105.939 Y121.946 E17.29462
G1 X105.462 Y121.519 E17.32656
G1 X105.1 Y121.132 E17.353
G1 X104.351 Y120.21 E17.41226
G1 X103.949 Y119.571 E17.44992
G1 X103.435 Y118.57 E17.50606
G1 X103.126 Y117.707 E17.55179
G1 X102.861 Y116.652 E17.60606
G1 X102.758 Y115.795 E17.64913
G1 X102.733 Y114.734 E17.70208
G1 X102.794 Y114.049 E17.73639
G1 X102.975 Y113.015 E17.78876
G1 X103.113 Y112.522 E17.8143
G1 X103.465 Y111.551 E17.86583
G1 X103.889 Y110.728 E17.91201
G1 X104.449 Y109.865 E17.96334
G1 X104.941 Y109.274 E18.0017
G1 X105.135 Y109.075 E18.01557
G1 X104.69 Y108.593 E18.0483
G1 X104.229 Y107.977 E18.08668
G1 X103.882 Y107.414 E18.11968
G1 X103.524 Y106.733 E18.15806
G1 X103.203 Y105.909 E18.20218
G1 X102.924 Y104.914 E18.25374
G1 X102.835 Y104.409 E18.27932
G1 X102.73 Y103.364 E18.33172
G0 F3600 X103.129 Y103.33
G1 F1800 X103.138 Y102.677 E18.3643
G1 X103.242 Y101.641 E18.41624
G1 X103.422 Y100.858 E18.45633
G1 X103.758 Y99.846 E18.50953
G1 X104.131 Y99.074 E18.5523
G1 X104.708 Y98.132 E18.60741
G1 X105.12 Y97.608 E18.64067
G1 X105.916 Y96.752 E18.69899
G1 X106.295 Y96.424 E18.72399
G1 X106.689 Y96.107 E18.74922
G1 X107.494 Y95.547 E18.79815
G1 X108.011 Y95.239 E18.82817
G1 X108.744 Y94.859 E18.86936
G1 X109.408 Y94.563 E18.90563
G1 X110.025 Y94.323 E18.93866
G1 X110.848 Y94.046 E18.98198
G1 X112.164 Y93.671 E19.05025
G1 X113.457 Y93.361 E19.11659
G1 X114.873 Y93.064 E19.18877
G1 X116.408 Y92.777 E19.26668
G1 X120.055 Y92.139 E19.45139
G1 X122.007 Y91.773 E19.55047
G1 X126.551 Y90.899 E19.78133
G1 X128.299 Y90.587 E19.86992
G1 X129.794 Y90.351 E19.94543
G1 X131.391 Y90.14 E20.02579
G1 X132.724 Y90.007 E20.09263
G1 X133.061 Y89.981 E20.10949
G1 X134.329 Y89.916 E20.17283
G1 X134.808 Y89.908 E20.19673
G1 X135.966 Y89.928 E20.25452
G1 X136.706 Y89.98 E20.29152
G1 X137.714 Y90.105 E20.3422
G1 X138.451 Y90.237 E20.37955
G1 X139.711 Y90.606 E20.44506
G1 X140.414 Y90.863 E20.4824
G1 X141.135 Y91.221 E20.52256
G1 X141.741 Y91.567 E20.55737
G1 X142.37 Y91.972 E20.5947
G1 X142.952 Y92.442 E20.63202
G1 X143.36 Y92.841 E20.66049
G1 X143.765 Y93.27 E20.68992
G1 X144.249 Y93.84 E20.72723
G1 X144.669 Y94.459 E20.76455
G1 X145.02 Y95.12 E20.80189
G1 X145.374 Y95.978 E20.84819
G1 X145.612 Y96.687 E20.88551
G1 X145.773 Y97.418 E20.92285
G1 X145.855 Y98.161 E20.96014
G1 X145.859 Y98.87 E20.99552
G1 X145.836 Y99.384 E21.02119
G1 X145.763 Y100.128 E21.05848
G1 X145.61 Y100.861 E21.09584
G1 X145.381 Y101.573 E21.13315
G1 X144.947 Y102.546 E21.18631
G1 X144.595 Y103.206 E21.22362
G1 X144.174 Y103.825 E21.26097
G1 X143.758 Y104.322 E21.29331
G1 X143.287 Y104.835 E21.32805
G1 X142.753 Y105.358 E21.36534
G1 X142.066 Y105.891 E21.40872
G1 X141.37 Y106.364 E21.45071
G1 X140.729 Y106.75 E21.48804
G1 X140.284 Y106.968 E21.51276
G1 X139.357 Y107.381 E21.56339
G1 X138.65 Y107.651 E21.60115
G1 X137.533 Y108.01 E21.65968
G1 X137.072 Y108.141 E21.68359
G1 X135.823 Y108.45 E21.74778
G1 X135.509 Y108.52 E21.76383
G1 X133.937 Y108.829 E21.84376
G1 X132.416 Y109.077 E21.92065
G1 X133.938 Y109.324 E21.99757
G1 X135.512 Y109.635 E22.07762
G1 X135.83 Y109.706 E22.09387
G1 X137.081 Y110.017 E22.15819
G1 X137.532 Y110.145 E22.18157
G1 X138.647 Y110.503 E22.24
G1 X139.347 Y110.77 E22.27738
G1 X140.275 Y111.182 E22.32803
G1 X140.942 Y111.522 E22.36538
G1 X142.054 Y112.254 E22.4318
G1 X142.65 Y112.705 E22.46909
G1 X143.287 Y113.316 E22.51313
G1 X143.759 Y113.83 E22.54794
G1 X144.235 Y114.408 E22.5853
G1 X144.646 Y115.032 E22.62258
G1 X144.952 Y115.617 E22.65551
G1 X145.193 Y116.136 E22.68406
G1 X145.471 Y116.83 E22.72136
G1 X145.674 Y117.55 E22.75868
G1 X145.799 Y118.288 E22.79603
G1 X145.86 Y119.297 E22.84646
G1 X145.852 Y120.045 E22.88378
G1 X145.764 Y120.788 E22.9211
G1 X145.718 Y120.988 E22.93134
