;FLAVOR:Marlin
;TIME:813
;Filament used: 0.345785m
;Layer height: 0.15
;MINX:103.652
;MINY:109.573
;MINZ:0.3
;MAXX:146.353
;MAXY:137.097
;MAXZ:46.95
;Generated with Cura_SteamEngine 5.0.0
M140 S60
M105
M190 S60
M104 S200
M105
M109 S200
M82 ;absolute extrusion mode
G21 ;metric values
G90 ;absolute positioning
M82 ;set extruder to absolute mode
M107 ;start with the fan off
G28 X0 Y0 ;move X/Y to min endstops
M300 S1318 P266
G28 Z0 ;move Z to min endstops
G0 Z0.2
G92 E0 ;zero the extruded length
G1 X40 E25 F400 ; Extrude 25mm of filament in a 4cm line. Reduce speed (F) if you have a nozzle smaller than 0.4mm!
G92 E0 ;zero the extruded length again
G1 E-1 F500 ; Retract a little
G1 X80 F4000 ; Quickly wipe away from the filament line
M117 ; Printing…
G5
G92 E0
G92 E0
G1 F1500 E-6.5
;LAYER_COUNT:313
;LAYER:0
M107
G0 F3600 X113.533 Y112.792 Z0.3
G0 X105.616 Y121.7
;TYPE:SKIRT
G1 F1500 E0
G1 F1800 X106.031 Y121.2 E0.03242
G1 X106.825 Y120.382 E0.08929
G1 X107.681 Y119.711 E0.14355
G1 X108.715 Y119.059 E0.20454
G1 X109.614 Y118.646 E0.2539
G1 X110.351 Y118.381 E0.29297
G1 X111.178 Y118.158 E0.33571
G1 X111.368 Y116.959 E0.39627
G1 X111.64 Y115.98 E0.44696
G1 X111.866 Y115.405 E0.47779
G1 X112.328 Y114.45 E0.53071
G1 X112.857 Y113.634 E0.57923
G1 X113.533 Y112.792 E0.6331
G1 X114.278 Y112.077 E0.68462
G1 X115.151 Y111.397 E0.73982
G1 X115.908 Y110.942 E0.78389
G1 X116.96 Y110.435 E0.84215
G1 X117.525 Y110.232 E0.8721
G1 X118.816 Y109.878 E0.93889
G1 X119.322 Y109.78 E0.9646
G1 X120.034 Y109.676 E1.0005
G1 X120.588 Y109.621 E1.02828
G1 X121.211 Y109.584 E1.05941
G1 X121.79 Y109.573 E1.0883
G1 X122.419 Y109.587 E1.11969
G1 X123.002 Y109.623 E1.14883
G1 X123.643 Y109.689 E1.18098
G1 X124.207 Y109.771 E1.20942
G1 X125.032 Y109.937 E1.2514
G1 X125.548 Y110.07 E1.27799
G1 X126.536 Y110.396 E1.32989
G1 X127.705 Y110.914 E1.39368
G1 X128.372 Y111.311 E1.43241
G1 X129.362 Y112.017 E1.49307
G1 X130.085 Y112.693 E1.54245
G1 X130.86 Y113.573 E1.60095
G1 X131.308 Y114.223 E1.64034
G1 X131.694 Y114.909 E1.67961
G1 X132.036 Y115.621 E1.71902
G1 X132.304 Y116.364 E1.75842
G1 X132.455 Y116.938 E1.78803
G1 X132.66 Y118.045 E1.8442
G1 X132.712 Y118.851 E1.8845
G1 X132.833 Y118.794 E1.89117
G1 X133.899 Y118.383 E1.94817
G1 X134.962 Y118.103 E2.00301
G1 X136.074 Y117.967 E2.0589
G1 X137.29 Y117.948 E2.11958
G1 X137.841 Y117.996 E2.14717
G1 X138.894 Y118.166 E2.20038
G1 X139.637 Y118.375 E2.23889
G1 X140.21 Y118.577 E2.2692
G1 X141.184 Y119.003 E2.32224
G1 X142.095 Y119.553 E2.37533
G1 X143.046 Y120.268 E2.43469
G1 X143.716 Y120.921 E2.48137
G1 X144.468 Y121.807 E2.53935
G1 X144.946 Y122.537 E2.58288
G1 X145.505 Y123.581 E2.64196
G1 X145.739 Y124.161 E2.67316
G1 X146.084 Y125.247 E2.73001
G1 X146.254 Y126.169 E2.77679
G1 X146.353 Y127.307 E2.83377
G1 X146.321 Y128.196 E2.87816
G1 X146.172 Y129.362 E2.9368
G1 X146.023 Y129.979 E2.96847
G1 X145.679 Y131.048 E3.02449
G1 X145.316 Y131.833 E3.06764
G1 X144.733 Y132.846 E3.12595
G1 X144.251 Y133.491 E3.16613
G1 X143.492 Y134.343 E3.22305
G1 X143.118 Y134.686 E3.24837
G1 X142.241 Y135.39 E3.30448
G1 X141.383 Y135.912 E3.35458
G1 X140.33 Y136.416 E3.41282
G1 X139.606 Y136.665 E3.45102
G1 X138.509 Y136.941 E3.50746
G1 X137.8 Y137.037 E3.54315
G1 X136.674 Y137.097 E3.59941
G1 X135.962 Y137.056 E3.63499
G1 X134.827 Y136.897 E3.69217
G1 X134.075 Y136.701 E3.73094
G1 X132.994 Y136.319 E3.78814
G1 X132.137 Y135.886 E3.83604
G1 X131.153 Y135.264 E3.89412
G1 X130.576 Y134.8 E3.93106
G1 X129.747 Y134.01 E3.98819
G1 X129.389 Y133.593 E4.01561
G1 X128.72 Y132.69 E4.07168
G1 X128.293 Y131.938 E4.11482
G1 X127.815 Y130.886 E4.17247
G1 X127.571 Y130.12 E4.21258
G1 X127.32 Y129.008 E4.26945
G1 X127.233 Y128.128 E4.31357
G1 X127.22 Y127.432 E4.3483
G1 X126.636 Y127.707 E4.3805
G1 X126.133 Y127.903 E4.40743
G1 X125.399 Y128.148 E4.44604
G1 X124.851 Y128.301 E4.47442
G1 X124.26 Y128.441 E4.50473
G1 X123.681 Y128.555 E4.53417
G1 X123.182 Y128.637 E4.5594
G1 X122.709 Y128.699 E4.5832
G1 X122.524 Y129.757 E4.63678
G1 X122.205 Y130.838 E4.69301
G1 X121.799 Y131.753 E4.74295
G1 X121.222 Y132.773 E4.80142
G1 X120.758 Y133.406 E4.84057
G1 X120.006 Y134.266 E4.89757
G1 X119.559 Y134.68 E4.92797
G1 X118.662 Y135.395 E4.98519
G1 X118.09 Y135.757 E5.01897
G1 X117.098 Y136.279 E5.07489
G1 X116.195 Y136.616 E5.12298
G1 X115.074 Y136.916 E5.18087
G1 X114.342 Y137.024 E5.21779
G1 X113.201 Y137.097 E5.27483
G1 X112.547 Y137.068 E5.30749
G1 X111.429 Y136.931 E5.36368
G1 X110.566 Y136.716 E5.40805
G1 X109.468 Y136.333 E5.46607
G1 X108.824 Y136.023 E5.50173
G1 X107.854 Y135.455 E5.55781
G1 X107.086 Y134.862 E5.60622
G1 X106.235 Y134.062 E5.66449
G1 X105.891 Y133.667 E5.69062
G1 X105.217 Y132.773 E5.74648
G1 X104.756 Y131.972 E5.79259
G1 X104.269 Y130.905 E5.8511
G1 X104.041 Y130.201 E5.88802
G1 X103.779 Y129.089 E5.94502
G1 X103.692 Y128.359 E5.98169
G1 X103.652 Y127.217 E6.0387
G1 X103.702 Y126.537 E6.07272
G1 X103.876 Y125.413 E6.12947
G1 X104.184 Y124.375 E6.18348
G1 X104.635 Y123.284 E6.24238
G1 X104.977 Y122.665 E6.27766
G1 X105.616 Y121.7 E6.3354
G1 F1500 E-0.1646
G0 F3600 X106.88 Y126.914
G1 F1500 E6.3354
G1 F1800 X107.032 Y125.972 E6.38301
G1 X107.318 Y125.13 E6.42737
G1 X107.705 Y124.338 E6.47135
G1 X108.405 Y123.346 E6.53192
G1 X109.076 Y122.663 E6.57969
G1 X109.475 Y122.361 E6.60466
G1 X110.357 Y121.812 E6.65649
G1 X111.017 Y121.535 E6.6922
G1 X111.51 Y121.372 E6.7181
G1 X112.398 Y121.189 E6.76334
G1 X113.125 Y121.138 E6.7997
G1 X113.962 Y121.178 E6.8415
G1 X114.549 Y121.291 E6.87133
G1 X114.419 Y120.619 E6.90547
G1 X114.367 Y120.107 E6.93115
G1 X114.335 Y119.556 E6.95868
G1 X114.33 Y118.97 E6.98792
G1 X114.386 Y118.26 E7.02345
G1 X114.482 Y117.695 E7.05205
G1 X114.797 Y116.688 E7.10469
G1 X115.185 Y115.901 E7.14846
G1 X115.6 Y115.309 E7.18453
G1 X115.992 Y114.847 E7.21476
G1 X116.578 Y114.324 E7.25394
G1 X117.067 Y113.966 E7.28418
G1 X117.732 Y113.599 E7.32207
G1 X118.487 Y113.284 E7.36289
G1 X119.424 Y113.02 E7.41146
G1 X119.93 Y112.922 E7.43717
G1 X120.905 Y112.806 E7.48616
G1 X121.851 Y112.773 E7.53338
G1 X122.805 Y112.817 E7.58103
G1 X123.747 Y112.938 E7.62841
G1 X124.749 Y113.169 E7.67971
G1 X125.332 Y113.361 E7.71033
G1 X126.331 Y113.81 E7.76498
G1 X126.956 Y114.212 E7.80205
G1 X127.437 Y114.58 E7.83226
G1 X128.019 Y115.167 E7.8735
G1 X128.405 Y115.634 E7.90373
G1 X128.714 Y116.126 E7.93272
G1 X129.137 Y116.987 E7.98058
G1 X129.331 Y117.634 E8.01428
G1 X129.497 Y118.561 E8.06126
G1 X129.5 Y119.322 E8.09923
G1 X129.386 Y120.252 E8.14597
G1 X129.199 Y120.895 E8.17938
G1 X128.829 Y121.776 E8.22705
G1 X128.508 Y122.295 E8.2575
G1 X127.902 Y123.073 E8.3067
G1 X127.223 Y123.692 E8.35254
G1 X126.738 Y124.056 E8.38279
G1 X126.047 Y124.455 E8.4226
G1 X125.474 Y124.725 E8.4542
G1 X124.971 Y124.921 E8.48113
G1 X123.99 Y125.219 E8.53228
G1 X123.063 Y125.415 E8.57955
G1 X122.186 Y125.539 E8.62374
G1 X121.329 Y125.604 E8.66662
G1 X120.493 Y125.611 E8.70833
G1 X119.673 Y125.554 E8.74934
G1 X119.254 Y125.49 E8.77049
G1 X119.487 Y126.395 E8.81711
G1 X119.593 Y127.341 E8.8646
G1 X119.559 Y128.122 E8.9036
G1 X119.424 Y128.96 E8.94595
G1 X119.151 Y129.864 E8.99306
G1 X118.786 Y130.611 E9.03454
G1 X118.47 Y131.129 E9.06481
G1 X118.053 Y131.66 E9.0985
G1 X117.478 Y132.249 E9.13956
G1 X116.5 Y132.98 E9.20048
G1 X115.667 Y133.411 E9.24727
G1 X114.909 Y133.663 E9.28712
G1 X114.025 Y133.839 E9.33209
G1 X112.822 Y133.88 E9.39214
G1 X111.887 Y133.759 E9.43918
G1 X111.159 Y133.55 E9.47697
G1 X110.343 Y133.206 E9.52115
G1 X109.534 Y132.725 E9.5681
G1 X108.912 Y132.206 E9.60852
G1 X108.375 Y131.649 E9.64712
G1 X107.816 Y130.898 E9.69383
G1 X107.449 Y130.201 E9.73313
G1 X107.128 Y129.359 E9.77808
G1 X106.884 Y128.133 E9.84045
G1 X106.88 Y126.914 E9.90127
G0 F3600 X107.277 Y126.961
G1 F1800 X107.426 Y126.046 E9.94752
G1 X107.693 Y125.271 E9.98841
G1 X108.046 Y124.547 E10.0286
G1 X108.702 Y123.614 E10.0855
G1 X109.354 Y122.952 E10.13185
G1 X110.058 Y122.449 E10.17502
G1 X110.559 Y122.158 E10.20393
G1 X111.16 Y121.909 E10.23638
G1 X111.629 Y121.753 E10.26104
G1 X112.44 Y121.587 E10.30234
G1 X113.125 Y121.538 E10.3366
G1 X113.935 Y121.578 E10.37706
G1 X114.785 Y121.756 E10.42039
G1 X115.168 Y121.879 E10.44046
G1 X114.962 Y121.295 E10.47135
G1 X114.816 Y120.572 E10.50815
G1 X114.734 Y119.533 E10.56015
G1 X114.73 Y118.975 E10.58799
G1 X114.783 Y118.303 E10.62162
G1 X114.872 Y117.787 E10.64774
G1 X115.163 Y116.849 E10.69674
G1 X115.541 Y116.086 E10.73922
G1 X115.921 Y115.547 E10.77212
G1 X116.297 Y115.107 E10.801
G1 X116.836 Y114.63 E10.83691
G1 X117.304 Y114.289 E10.8658
G1 X117.918 Y113.953 E10.90072
G1 X118.608 Y113.666 E10.938
G1 X119.5 Y113.413 E10.98426
G1 X120.006 Y113.315 E11.00997
G1 X120.944 Y113.204 E11.05709
G1 X121.858 Y113.173 E11.10272
G1 X122.78 Y113.216 E11.14877
G1 X123.689 Y113.334 E11.1945
G1 X124.649 Y113.556 E11.24366
G1 X125.182 Y113.732 E11.27166
G1 X125.635 Y113.916 E11.29606
G1 X126.379 Y114.309 E11.33803
G1 X127.193 Y114.899 E11.38819
G1 X127.728 Y115.441 E11.42618
G1 X128.096 Y115.889 E11.45511
G1 X128.362 Y116.317 E11.48025
G1 X128.772 Y117.155 E11.52679
G1 X128.941 Y117.721 E11.55626
G1 X129.1 Y118.621 E11.60186
G1 X129.101 Y119.291 E11.63529
G1 X128.99 Y120.194 E11.68068
G1 X128.825 Y120.755 E11.70985
G1 X128.464 Y121.611 E11.7562
G1 X128.182 Y122.062 E11.78274
G1 X127.592 Y122.818 E11.83058
G1 X126.962 Y123.389 E11.873
G1 X126.271 Y123.872 E11.91506
G1 X125.329 Y124.352 E11.96781
G1 X124.826 Y124.548 E11.99474
G1 X123.882 Y124.833 E12.04393
G1 X122.985 Y125.023 E12.08968
G1 X122.134 Y125.143 E12.13256
G1 X121.303 Y125.205 E12.17413
G1 X120.495 Y125.211 E12.21444
G1 X119.708 Y125.156 E12.2538
G1 X119.171 Y125.073 E12.28091
G1 X118.6 Y124.927 E12.31031
G1 X118.804 Y125.408 E12.33638
G1 X119.091 Y126.456 E12.39059
G1 X119.193 Y127.375 E12.43672
G1 X119.16 Y128.095 E12.47268
G1 X119.037 Y128.861 E12.51139
G1 X118.77 Y129.738 E12.55712
G1 X118.431 Y130.426 E12.59539
G1 X117.965 Y131.133 E12.63763
G1 X117.217 Y131.946 E12.69275
G1 X116.301 Y132.633 E12.74987
G1 X115.492 Y133.051 E12.7953
G1 X114.792 Y133.28 E12.83205
G1 X113.986 Y133.441 E12.87305
G1 X112.857 Y133.481 E12.92941
G1 X111.948 Y133.363 E12.97515
G1 X111.278 Y133.168 E13.00996
G1 X110.532 Y132.854 E13.05034
G1 X109.748 Y132.386 E13.09589
G1 X109.175 Y131.905 E13.13322
G1 X108.685 Y131.396 E13.16847
G1 X108.144 Y130.667 E13.21376
G1 X107.807 Y130.023 E13.25002
G1 X107.514 Y129.254 E13.29107
G1 X107.283 Y128.105 E13.34955
G1 X107.277 Y126.961 E13.40662
G0 F3600 X107.674 Y127.008
G1 F1800 X107.82 Y126.121 E13.45147
G1 X108.067 Y125.411 E13.48897
G1 X108.387 Y124.756 E13.52534
G1 X108.999 Y123.882 E13.57857
G1 X109.632 Y123.241 E13.62352
G1 X110.282 Y122.78 E13.66327
G1 X110.759 Y122.505 E13.69074
G1 X111.304 Y122.282 E13.72012
G1 X111.747 Y122.135 E13.74341
G1 X112.481 Y121.985 E13.78079
G1 X113.125 Y121.938 E13.813
G1 X113.907 Y121.978 E13.85206
G1 X114.696 Y122.146 E13.89231
G1 X115.33 Y122.349 E13.92552
G1 X116.087 Y122.742 E13.96808
G1 X115.684 Y122.081 E14.0067
G1 X115.35 Y121.198 E14.0538
G1 X115.214 Y120.525 E14.08805
G1 X115.133 Y119.509 E14.1389
G1 X115.13 Y118.979 E14.16534
G1 X115.181 Y118.346 E14.19703
G1 X115.313 Y117.659 E14.23193
G1 X115.53 Y117.009 E14.26612
G1 X115.896 Y116.273 E14.30713
G1 X116.242 Y115.786 E14.33693
G1 X116.602 Y115.368 E14.36445
G1 X117.093 Y114.937 E14.39705
G1 X117.769 Y114.483 E14.43767
G1 X118.728 Y114.047 E14.49023
G1 X119.576 Y113.805 E14.53423
G1 X120.082 Y113.707 E14.55994
G1 X120.984 Y113.602 E14.60524
G1 X121.866 Y113.573 E14.64927
G1 X122.755 Y113.615 E14.69367
G1 X123.632 Y113.73 E14.7378
G1 X124.549 Y113.943 E14.78477
G1 X125.031 Y114.102 E14.81009
G1 X125.484 Y114.286 E14.83448
G1 X126.158 Y114.642 E14.87251
G1 X126.948 Y115.216 E14.92123
G1 X127.437 Y115.715 E14.95609
G1 X127.785 Y116.143 E14.98361
G1 X128.18 Y116.819 E15.02267
G1 X128.407 Y117.321 E15.05016
G1 X128.55 Y117.807 E15.07543
G1 X128.704 Y118.681 E15.11971
G1 X128.702 Y119.259 E15.14854
G1 X128.593 Y120.134 E15.19253
G1 X128.45 Y120.616 E15.21762
G1 X128.099 Y121.445 E15.26253
G1 X127.636 Y122.139 E15.30415
G1 X127.284 Y122.562 E15.33161
G1 X126.701 Y123.086 E15.37071
G1 X126.076 Y123.523 E15.40876
G1 X125.184 Y123.98 E15.45876
G1 X124.681 Y124.176 E15.4857
G1 X123.775 Y124.448 E15.53289
G1 X122.908 Y124.63 E15.57709
G1 X122.082 Y124.746 E15.6187
G1 X121.278 Y124.806 E15.65893
G1 X120.498 Y124.811 E15.69784
G1 X119.743 Y124.757 E15.7356
G1 X118.908 Y124.606 E15.77794
G1 X118.284 Y124.41 E15.81057
G1 X117.643 Y124.115 E15.84577
G1 X118.084 Y124.79 E15.886
G1 X118.425 Y125.534 E15.92683
G1 X118.696 Y126.517 E15.9777
G1 X118.794 Y127.408 E16.02242
G1 X118.761 Y128.069 E16.05544
G1 X118.65 Y128.761 E16.09041
G1 X118.39 Y129.611 E16.13475
G1 X118.076 Y130.241 E16.16987
G1 X117.655 Y130.881 E16.20809
G1 X116.957 Y131.642 E16.25961
G1 X116.102 Y132.286 E16.31301
G1 X115.317 Y132.69 E16.35706
G1 X114.676 Y132.897 E16.39066
G1 X113.946 Y133.043 E16.4278
G1 X112.891 Y133.083 E16.48047
G1 X112.555 Y133.054 E16.4973
G1 X111.754 Y132.897 E16.53802
G1 X110.722 Y132.502 E16.59315
G1 X109.962 Y132.047 E16.63734
G1 X109.439 Y131.605 E16.67151
G1 X108.996 Y131.144 E16.7034
G1 X108.472 Y130.437 E16.74731
G1 X108.165 Y129.844 E16.78062
G1 X107.9 Y129.149 E16.81773
G1 X107.682 Y128.076 E16.87236
G1 X107.674 Y127.008 E16.92564
G0 F3600 X108.072 Y127.055
G1 F1800 X108.213 Y126.198 E16.96897
G1 X108.442 Y125.551 E17.00321
G1 X108.728 Y124.965 E17.03575
G1 X109.296 Y124.15 E17.08531
G1 X109.909 Y123.531 E17.12877
G1 X110.506 Y123.111 E17.16519
G1 X111.192 Y122.753 E17.20379
G1 X111.866 Y122.517 E17.23942
G1 X112.523 Y122.382 E17.27288
G1 X113.125 Y122.338 E17.30299
G1 X114.111 Y122.423 E17.35237
G1 X114.608 Y122.536 E17.3778
G1 X115.175 Y122.718 E17.40751
G1 X115.978 Y123.136 E17.45267
G1 X116.811 Y123.789 E17.50548
G1 X117.403 Y124.452 E17.54982
G1 X117.741 Y124.995 E17.58173
G1 X118.046 Y125.661 E17.61828
G1 X118.301 Y126.578 E17.66576
G1 X118.354 Y126.92 E17.68303
G1 X118.386 Y127.667 E17.72033
G1 X118.262 Y128.662 E17.77036
G1 X118.178 Y128.989 E17.7872
G1 X117.899 Y129.717 E17.82609
G1 X117.345 Y130.628 E17.87929
G1 X116.697 Y131.338 E17.92725
G1 X115.903 Y131.939 E17.97693
G1 X115.615 Y132.104 E17.99349
G1 X114.915 Y132.407 E18.03154
G1 X113.906 Y132.645 E18.08326
G1 X112.926 Y132.684 E18.13219
G1 X111.873 Y132.515 E18.1854
G1 X110.912 Y132.15 E18.23669
G1 X110.617 Y131.991 E18.2534
G1 X109.988 Y131.554 E18.29162
G1 X109.306 Y130.892 E18.33903
G1 X109.098 Y130.636 E18.35549
G1 X108.694 Y130.009 E18.3927
G1 X108.286 Y129.044 E18.44497
G1 X108.081 Y128.048 E18.49571
G1 X108.072 Y127.055 E18.54525
G0 F3600 X108.469 Y127.102
G1 F1800 X108.51 Y126.756 E18.56263
G1 X108.679 Y126.057 E18.59851
G1 X109.069 Y125.174 E18.64667
G1 X109.592 Y124.418 E18.69253
G1 X109.827 Y124.158 E18.71002
G1 X110.371 Y123.686 E18.74595
G1 X110.73 Y123.443 E18.76758
G1 X111.336 Y123.127 E18.80167
G1 X111.985 Y122.899 E18.83599
G1 X112.564 Y122.78 E18.86548
G1 X113.125 Y122.738 E18.89355
G1 X114.022 Y122.813 E18.93846
G1 X114.519 Y122.926 E18.96388
G1 X115.02 Y123.087 E18.99014
G1 X115.75 Y123.465 E19.03115
G1 X116.525 Y124.068 E19.08014
G1 X116.783 Y124.332 E19.09856
G1 X117.214 Y124.893 E19.13385
G1 X117.666 Y125.787 E19.18383
G1 X117.906 Y126.64 E19.22804
G1 X117.959 Y126.982 E19.2453
G1 X117.987 Y127.641 E19.27821
G1 X117.875 Y128.562 E19.3245
G1 X117.791 Y128.889 E19.34134
G1 X117.544 Y129.532 E19.37571
G1 X117.035 Y130.376 E19.42488
G1 X116.437 Y131.034 E19.46924
G1 X115.704 Y131.592 E19.5152
G1 X114.798 Y132.024 E19.56528
G1 X113.867 Y132.247 E19.61304
